; generated by PrusaSlicer 2.4.2+win64 on 2022-08-09 at 00:08:07 UTC

; 

; external perimeters extrusion width = 0.45mm
; perimeters extrusion width = 0.45mm
; infill extrusion width = 0.45mm
; solid infill extrusion width = 0.45mm
; top infill extrusion width = 0.40mm
; first layer extrusion width = 0.42mm

; external perimeters extrusion width = 0.45mm
; perimeters extrusion width = 0.45mm
; infill extrusion width = 0.45mm
; solid infill extrusion width = 0.45mm
; top infill extrusion width = 0.40mm
; first layer extrusion width = 0.42mm

; external perimeters extrusion width = 0.45mm
; perimeters extrusion width = 0.45mm
; infill extrusion width = 0.45mm
; solid infill extrusion width = 0.45mm
; top infill extrusion width = 0.40mm
; first layer extrusion width = 0.42mm

; external perimeters extrusion width = 0.45mm
; perimeters extrusion width = 0.45mm
; infill extrusion width = 0.45mm
; solid infill extrusion width = 0.45mm
; top infill extrusion width = 0.40mm
; first layer extrusion width = 0.42mm

; external perimeters extrusion width = 0.45mm
; perimeters extrusion width = 0.45mm
; infill extrusion width = 0.45mm
; solid infill extrusion width = 0.45mm
; top infill extrusion width = 0.40mm
; first layer extrusion width = 0.42mm

; external perimeters extrusion width = 0.45mm
; perimeters extrusion width = 0.45mm
; infill extrusion width = 0.45mm
; solid infill extrusion width = 0.45mm
; top infill extrusion width = 0.40mm
; first layer extrusion width = 0.42mm

; external perimeters extrusion width = 0.45mm
; perimeters extrusion width = 0.45mm
; infill extrusion width = 0.45mm
; solid infill extrusion width = 0.45mm
; top infill extrusion width = 0.40mm
; first layer extrusion width = 0.42mm

; external perimeters extrusion width = 0.45mm
; perimeters extrusion width = 0.45mm
; infill extrusion width = 0.45mm
; solid infill extrusion width = 0.45mm
; top infill extrusion width = 0.40mm
; first layer extrusion width = 0.42mm

M107
;TYPE:Custom
G90 ; use absolute coordinates
M83 ; extruder relative mode
M140 S50 ; set final bed temp
M104 S170 ; set temporary nozzle temp to prevent oozing during homing
G4 S10 ; allow partial nozzle warmup
G28 ; home all axis
G1 Z50 F300
G1 X3 Y10 F3000
M190 S47.5 ; wait for bed temp to stabilize at 90%
M140 S50 ; set final bed temp
M104 S240 ; set final nozzle temp
M109 S240 ; wait for nozzle temp to stabilize
G1 Z0.28 F240
G92 E0
G1 Y180 E10 F1500 ; prime the nozzle
G1 X3.3 F5000
G92 E0
G1 Y20 E10 F1200 ; prime the nozzle
G92 E0
G21 ; set units to millimeters
G90 ; use absolute coordinates
M83 ; use relative distances for extrusion
M900 K0
M107
;LAYER_CHANGE
;Z:0.2
;HEIGHT:0.2
;BEFORE_LAYER_CHANGE
G92 E0
;0.2


G1 Z.2 F9000
;AFTER_LAYER_CHANGE
;0.2
G1 X59.827 Y68.281
M204 P500
;TYPE:Skirt/Brim
;WIDTH:0.42
G1 F954.706
G1 X62.361 Y66.06 E.1215
G1 X67.657 Y62.48 E.2305
G1 X73.359 Y59.589 E.2305
G1 X79.376 Y57.432 E.2305
G1 X85.616 Y56.043 E.2305
G1 X93.587 Y55.418 E.2883
G1 X144.168 Y55.418 E1.82383
G1 X150.549 Y55.817 E.2305
G1 X156.829 Y57.01 E.2305
G1 X162.911 Y58.977 E.2305
G1 X168.701 Y61.687 E.2305
G1 X174.107 Y65.099 E.2305
G1 X179.045 Y69.159 E.2305
G1 X183.438 Y73.803 E.2305
G1 X187.217 Y78.959 E.2305
G1 X190.323 Y84.546 E.2305
G1 X192.708 Y90.477 E.2305
G1 X194.334 Y96.659 E.2305
G1 X195.176 Y102.996 E.2305
G1 X195.221 Y109.388 E.2305
G1 X194.907 Y112.874 E.1262
G1 X193.34 Y125.441 E.45665
G1 X192.155 Y131.723 E.2305
G1 X190.194 Y137.808 E.2305
G1 X187.49 Y143.6 E.2305
G1 X184.38 Y148.595 E.21216
G1 X181.483 Y152.701 E.18117
G1 X177.478 Y157.683 E.2305
G1 X172.883 Y162.127 E.2305
G1 X167.769 Y165.963 E.2305
G1 X162.217 Y169.131 E.2305
G1 X156.312 Y171.581 E.2305
G1 X150.148 Y173.275 E.2305
G1 X143.821 Y174.187 E.2305
G1 X139.705 Y174.353 E.14853
G1 X85.058 Y174.353 E1.97043
G1 X78.678 Y173.953 E.2305
G1 X72.398 Y172.761 E.2305
G1 X66.315 Y170.794 E.2305
G1 X60.526 Y168.083 E.2305
G1 X55.12 Y164.672 E.2305
G1 X50.182 Y160.612 E.2305
G1 X45.789 Y155.968 E.2305
G1 X42.01 Y150.812 E.2305
G1 X38.903 Y145.225 E.2305
G1 X36.519 Y139.294 E.2305
G1 X34.892 Y133.112 E.2305
G1 X34.05 Y126.775 E.2305
G1 X34.006 Y120.382 E.2305
G1 X34.759 Y114.034 E.2305
G1 X35.441 Y110.872 E.11662
G1 X36.463 Y106.764 E.15264
G1 X38.392 Y100.67 E.2305
G1 X42.186 Y92.89 E.31212
G1 X49.693 Y80.325 E.52775
G1 X53.308 Y75.053 E.2305
G1 X57.553 Y70.273 E.2305
G1 X59.782 Y68.32 E.10683
G1 X60.03 Y68.604 F9000
G1 F954.706
G1 X62.647 Y66.316 E.12537
G1 X67.93 Y62.758 E.22965
G1 X73.616 Y59.889 E.22965
G1 X79.617 Y57.755 E.22965
G1 X85.838 Y56.39 E.22965
G1 X93.587 Y55.795 E.28024
G1 X144.168 Y55.795 E1.82383
G1 X150.525 Y56.194 E.22965
G1 X156.781 Y57.387 E.22965
G1 X162.839 Y59.354 E.22965
G1 X168.603 Y62.064 E.22965
G1 X173.981 Y65.474 E.22965
G1 X178.891 Y69.531 E.22965
G1 X183.254 Y74.171 E.22965
G1 X187.001 Y79.321 E.22965
G1 X190.074 Y84.9 E.22965
G1 X192.424 Y90.819 E.22965
G1 X194.014 Y96.986 E.22965
G1 X194.819 Y103.304 E.22965
G1 X194.533 Y112.828 E.34354
G1 X192.966 Y125.395 E.45665
G1 X191.783 Y131.653 E.22965
G1 X189.826 Y137.714 E.22965
G1 X187.125 Y143.482 E.22965
G1 X184.072 Y148.378 E.20806
G1 X181.175 Y152.483 E.18117
G1 X177.184 Y157.446 E.22965
G1 X172.602 Y161.871 E.22965
G1 X167.503 Y165.686 E.22965
G1 X161.966 Y168.833 E.22965
G1 X156.078 Y171.262 E.22965
G1 X149.933 Y172.935 E.22965
G1 X143.626 Y173.824 E.22965
G1 X139.705 Y173.976 E.1415
G1 X85.058 Y173.976 E1.97043
G1 X78.702 Y173.576 E.22965
G1 X72.445 Y172.384 E.22965
G1 X66.388 Y170.417 E.22965
G1 X60.624 Y167.707 E.22965
G1 X55.245 Y164.297 E.22965
G1 X50.336 Y160.24 E.22965
G1 X45.973 Y155.6 E.22965
G1 X42.226 Y150.45 E.22965
G1 X39.153 Y144.871 E.22965
G1 X36.803 Y138.952 E.22965
G1 X35.213 Y132.784 E.22965
G1 X34.408 Y126.467 E.22965
G1 X34.4 Y120.098 E.22965
G1 X35.806 Y110.964 E.33323
G1 X36.829 Y106.856 E.15264
G1 X38.752 Y100.784 E.22965
G1 X42.51 Y93.083 E.30897
G1 X50.017 Y80.518 E.52775
G1 X53.62 Y75.267 E.22965
G1 X57.852 Y70.507 E.22965
G1 X59.984 Y68.644 E.10211
G1 X60.232 Y68.927 F9000
G1 F954.706
G1 X62.934 Y66.571 E.12925
G1 X68.202 Y63.035 E.22879
G1 X73.873 Y60.189 E.22879
G1 X79.857 Y58.079 E.22879
G1 X86.059 Y56.738 E.22879
G1 X93.587 Y56.172 E.27221
G1 X144.168 Y56.172 E1.82383
G1 X150.501 Y56.572 E.22879
G1 X156.733 Y57.764 E.22879
G1 X162.766 Y59.73 E.22879
G1 X168.504 Y62.44 E.22879
G1 X173.856 Y65.849 E.22879
G1 X178.736 Y69.903 E.22879
G1 X183.069 Y74.539 E.22879
G1 X186.784 Y79.683 E.22879
G1 X189.823 Y85.253 E.22879
G1 X192.138 Y91.161 E.22879
G1 X193.692 Y97.313 E.22879
G1 X194.46 Y103.611 E.22879
G1 X194.159 Y112.781 E.3308
G1 X192.592 Y125.348 E.45665
G1 X191.412 Y131.583 E.22879
G1 X189.458 Y137.619 E.22879
G1 X186.76 Y143.363 E.22879
G1 X183.764 Y148.16 E.20396
G1 X180.867 Y152.266 E.18117
G1 X176.889 Y157.21 E.22879
G1 X172.322 Y161.614 E.22879
G1 X167.237 Y165.41 E.22879
G1 X161.716 Y168.536 E.22879
G1 X155.845 Y170.943 E.22879
G1 X149.718 Y172.594 E.22879
G1 X143.432 Y173.461 E.22879
G1 X139.705 Y173.599 E.13449
G1 X85.058 Y173.599 E1.97043
G1 X78.725 Y173.199 E.22879
G1 X72.493 Y172.007 E.22879
G1 X66.461 Y170.04 E.22879
G1 X60.723 Y167.331 E.22879
G1 X55.371 Y163.922 E.22879
G1 X50.49 Y159.868 E.22879
G1 X46.158 Y155.232 E.22879
G1 X42.443 Y150.088 E.22879
G1 X39.404 Y144.518 E.22879
G1 X37.089 Y138.61 E.22879
G1 X35.535 Y132.458 E.22879
G1 X34.767 Y126.159 E.22879
G1 X34.796 Y119.814 E.22879
G1 X36.172 Y111.055 E.31972
G1 X37.195 Y106.947 E.15264
G1 X39.112 Y100.898 E.22879
G1 X42.834 Y93.276 E.30583
G1 X50.34 Y80.712 E.52775
G1 X53.931 Y75.48 E.22879
G1 X58.151 Y70.742 E.22879
G1 X60.187 Y68.967 E.09738
G1 X139.275 Y107.236 F9000
;TYPE:Perimeter
G1 F954.706
G1 X143.289 Y107.236 E.14476
G1 X140.861 Y116.995 E.36262
G1 X136.846 Y116.995 E.14476
G1 X139.26 Y107.294 E.36045
G1 X138.98 Y106.859 F9000
;TYPE:External perimeter
G1 F954.706
G1 X143.772 Y106.859 E.17278
G1 X141.155 Y117.372 E.39064
G1 X136.363 Y117.372 E.17278
G1 X138.965 Y106.917 E.38848
G1 X139.339 Y107.035 F9000
G1 X142.372 Y107.349
;TYPE:Solid infill
;WIDTH:0.427508
G1 F936.067
G1 X142.851 Y107.828 E.02491
G1 X142.742 Y108.264 E.0165
G1 X141.998 Y107.519 E.03873
G1 X141.454 Y107.519 E.02
G1 X142.634 Y108.699 E.06138
G1 X142.525 Y109.135 E.0165
G1 X140.91 Y107.519 E.08403
G1 X140.366 Y107.519 E.02
G1 X142.417 Y109.57 E.10668
G1 X142.309 Y110.006 E.0165
G1 X139.822 Y107.519 E.12933
G1 X139.496 Y107.519 E.012
G1 X139.452 Y107.693 E.0066
G1 X142.2 Y110.441 E.14292
G1 X142.092 Y110.877 E.0165
G1 X139.344 Y108.129 E.14292
G1 X139.236 Y108.564 E.0165
G1 X141.984 Y111.312 E.14292
G1 X141.875 Y111.748 E.0165
G1 X139.127 Y109 E.14292
G1 X139.019 Y109.435 E.0165
G1 X141.767 Y112.183 E.14292
G1 X141.658 Y112.619 E.0165
G1 X138.91 Y109.871 E.14292
G1 X138.802 Y110.306 E.0165
G1 X141.55 Y113.054 E.14292
G1 X141.442 Y113.49 E.0165
G1 X138.694 Y110.742 E.14292
G1 X138.585 Y111.177 E.0165
G1 X141.333 Y113.925 E.14292
G1 X141.225 Y114.361 E.0165
G1 X138.477 Y111.613 E.14292
G1 X138.368 Y112.048 E.0165
G1 X141.116 Y114.796 E.14292
G1 X141.008 Y115.232 E.0165
G1 X138.26 Y112.484 E.14292
G1 X138.152 Y112.919 E.0165
G1 X140.9 Y115.667 E.14292
G1 X140.791 Y116.103 E.0165
G1 X138.043 Y113.355 E.14292
G1 X137.935 Y113.79 E.0165
G1 X140.683 Y116.538 E.14292
G1 X140.639 Y116.712 E.0066
G1 X140.313 Y116.712 E.012
G1 X137.826 Y114.226 E.12932
G1 X137.718 Y114.661 E.0165
G1 X139.769 Y116.712 E.10667
G1 X139.225 Y116.712 E.02
G1 X137.61 Y115.097 E.08402
G1 X137.501 Y115.532 E.0165
G1 X138.681 Y116.712 E.06137
G1 X138.138 Y116.712 E.02
G1 X137.393 Y115.968 E.03872
G1 X137.285 Y116.403 E.0165
G1 X137.763 Y116.882 E.0249
;LAYER_CHANGE
;Z:0.4
;HEIGHT:0.2
;BEFORE_LAYER_CHANGE
G92 E0
;0.4


G1 Z.4 F9000
;AFTER_LAYER_CHANGE
;0.4
G1 X137.031 Y116.85
;TYPE:Perimeter
;WIDTH:0.45
G1 F884.348
G1 X139.388 Y107.381 E.37983
G1 X143.104 Y107.381 E.14465
G1 X140.747 Y116.85 E.37983
G1 X137.091 Y116.85 E.14231
G1 X136.51 Y117.257 F9000
;TYPE:External perimeter
G1 F884.348
G1 X139.07 Y106.974 E.41249
G1 X143.625 Y106.974 E.1773
G1 X141.065 Y117.257 E.41249
G1 X136.57 Y117.257 E.17497
G1 X136.653 Y116.883 F9000
G1 X139.816 Y116.728
;TYPE:Solid infill
;WIDTH:0.454042
G1 F875.652
G1 X140.677 Y115.866 E.0479
G1 X140.87 Y115.092 E.03136
G1 X139.418 Y116.545 E.08075
G1 X138.836 Y116.545 E.02286
G1 X141.063 Y114.318 E.12379
G1 X141.255 Y113.544 E.03136
G1 X138.255 Y116.545 E.16682
G1 X137.673 Y116.545 E.02286
G1 X141.448 Y112.77 E.20986
G1 X141.641 Y111.996 E.03136
G1 X137.531 Y116.105 E.22847
G1 X137.724 Y115.331 E.03136
G1 X141.833 Y111.222 E.22847
G1 X142.026 Y110.448 E.03136
G1 X137.917 Y114.557 E.22847
G1 X138.109 Y113.783 E.03136
G1 X142.219 Y109.674 E.22847
G1 X142.411 Y108.9 E.03136
G1 X138.302 Y113.009 E.22847
G1 X138.495 Y112.235 E.03136
G1 X142.604 Y108.126 E.22847
G1 X142.713 Y107.686 E.01779
G1 X142.462 Y107.686 E.00989
G1 X138.687 Y111.461 E.20985
G1 X138.88 Y110.687 E.03136
G1 X141.88 Y107.686 E.16681
G1 X141.299 Y107.686 E.02286
G1 X139.073 Y109.913 E.12378
G1 X139.265 Y109.139 E.03136
G1 X140.717 Y107.686 E.08074
G1 X140.136 Y107.686 E.02286
G1 X139.207 Y108.616 E.05168
;LAYER_CHANGE
;Z:0.6
;HEIGHT:0.2
;BEFORE_LAYER_CHANGE
G92 E0
;0.6


G1 Z.6 F9000
;AFTER_LAYER_CHANGE
;0.6
G1 X139.544 Y107.581
;TYPE:Perimeter
;WIDTH:0.45
G1 F884.348
G1 X142.848 Y107.581 E.1286
G1 X140.591 Y116.65 E.36379
G1 X137.287 Y116.65 E.1286
G1 X139.53 Y107.639 E.36145
G1 X139.226 Y107.174 F9000
;TYPE:External perimeter
G1 F884.348
G1 X143.369 Y107.174 E.16126
G1 X140.909 Y117.057 E.39645
G1 X136.766 Y117.057 E.16126
G1 X139.212 Y107.232 E.39411
G1 X139.583 Y107.354 F9000
G1 X142.552 Y108.276
;TYPE:Top solid infill
;WIDTH:0.400661
G1 F1006.315
G1 X142.137 Y107.861 E.02005
G1 X141.631 Y107.861 E.01731
G1 X142.318 Y108.548 E.03323
G1 X142.218 Y108.953 E.01428
G1 X141.126 Y107.861 E.05283
G1 X140.62 Y107.861 E.01731
G1 X142.117 Y109.359 E.07243
G1 X142.016 Y109.764 E.01428
G1 X140.114 Y107.861 E.09203
G1 X139.763 Y107.861 E.01198
G1 X139.732 Y107.986 E.00439
G1 X141.915 Y110.169 E.1056
G1 X141.814 Y110.574 E.01428
G1 X139.632 Y108.391 E.1056
G1 X139.531 Y108.796 E.01428
G1 X141.713 Y110.979 E.1056
G1 X141.613 Y111.384 E.01428
G1 X139.43 Y109.201 E.1056
G1 X139.329 Y109.606 E.01428
G1 X141.512 Y111.789 E.1056
G1 X141.411 Y112.194 E.01428
G1 X139.228 Y110.011 E.1056
G1 X139.127 Y110.417 E.01428
G1 X141.31 Y112.599 E.1056
G1 X141.209 Y113.004 E.01428
G1 X139.027 Y110.822 E.1056
G1 X138.926 Y111.227 E.01428
G1 X141.109 Y113.41 E.1056
G1 X141.008 Y113.815 E.01428
G1 X138.825 Y111.632 E.1056
G1 X138.724 Y112.037 E.01428
G1 X140.907 Y114.22 E.1056
G1 X140.806 Y114.625 E.01428
G1 X138.623 Y112.442 E.1056
G1 X138.523 Y112.847 E.01428
G1 X140.705 Y115.03 E.1056
G1 X140.604 Y115.435 E.01428
G1 X138.422 Y113.252 E.1056
G1 X138.321 Y113.657 E.01428
G1 X140.504 Y115.84 E.1056
G1 X140.403 Y116.245 E.01428
G1 X138.22 Y114.062 E.1056
G1 X138.119 Y114.468 E.01428
G1 X140.021 Y116.37 E.09202
G1 X139.515 Y116.37 E.01731
G1 X138.018 Y114.873 E.07242
G1 X137.918 Y115.278 E.01428
G1 X139.01 Y116.37 E.05283
G1 X138.504 Y116.37 E.01731
G1 X137.817 Y115.683 E.03323
G1 X137.716 Y116.088 E.01428
G1 X138.158 Y116.53 E.0214
G1 X138.627 Y121.169 F9000
M104 S240 ; set temperature
M107
;LAYER_CHANGE
;Z:0.2
;HEIGHT:0.2
;BEFORE_LAYER_CHANGE
G92 E0
;0.2


G1 Z.2 F9000
;AFTER_LAYER_CHANGE
;0.2
G1 X139.35 Y122.535
;TYPE:Perimeter
;WIDTH:0.42
G1 F954.706
G1 X135.467 Y122.535 E.13999
G1 X136.147 Y119.803 E.10152
G1 X140.784 Y119.798 E.1672
G1 X141.367 Y119.756 E.02107
G1 X141.002 Y120.201 E.02077
G1 X139.384 Y122.486 E.10094
G1 X139.545 Y122.912 F9000
;TYPE:External perimeter
G1 F954.706
G1 X134.985 Y122.912 E.16442
G1 X135.852 Y119.426 E.12953
G1 X140.773 Y119.421 E.17742
G1 X141.247 Y119.392 E.01712
G1 X141.699 Y119.326 E.01649
G1 X142.189 Y119.33 E.01766
G1 X141.912 Y119.729 E.0175
G1 X141.599 Y120.059 E.01641
G1 X141.303 Y120.428 E.01704
G1 X139.579 Y122.863 E.10757
G1 X139.247 Y122.644 F9000
G1 X140.382 Y119.911
;TYPE:Solid infill
;WIDTH:0.426481
G1 F938.573
G1 X140.662 Y120.192 E.01455
G1 X140.437 Y120.51 E.01427
G1 X140.009 Y120.081 E.0222
G1 X139.467 Y120.082 E.01988
G1 X140.212 Y120.827 E.03864
G1 X139.987 Y121.145 E.01427
G1 X138.925 Y120.083 E.05509
G1 X138.383 Y120.083 E.01988
G1 X139.763 Y121.462 E.07153
G1 X139.538 Y121.78 E.01427
G1 X137.842 Y120.084 E.08797
G1 X137.3 Y120.084 E.01988
G1 X139.313 Y122.097 E.10442
G1 X139.203 Y122.252 E.00695
G1 X138.925 Y122.252 E.01021
G1 X136.758 Y120.085 E.11241
G1 X136.368 Y120.085 E.01429
G1 X136.338 Y120.207 E.00461
G1 X138.382 Y122.252 E.10606
G1 X137.84 Y122.252 E.0199
G1 X136.23 Y120.641 E.08353
G1 X136.122 Y121.076 E.01642
G1 X137.298 Y122.252 E.061
G1 X136.755 Y122.252 E.0199
G1 X136.013 Y121.51 E.03847
G1 X135.905 Y121.944 E.01642
G1 X136.382 Y122.422 E.02474
G1 X141.528 Y119.656 F9000
;TYPE:Gap fill
;WIDTH:0.162082
G1 F1200
G1 X141.823 Y119.529 E.00366
;LAYER_CHANGE
;Z:0.4
;HEIGHT:0.2
;BEFORE_LAYER_CHANGE
G92 E0
;0.4


G1 Z.4 F9000
;AFTER_LAYER_CHANGE
;0.4
G1 X140.996 Y119.948
;TYPE:Perimeter
;WIDTH:0.45
G1 F884.348
G1 X139.274 Y122.39 E.11631
G1 X135.653 Y122.39 E.14096
G1 X136.26 Y119.948 E.09794
G1 X140.936 Y119.948 E.18202
G1 X141.782 Y119.541 F9000
;TYPE:External perimeter
G1 F884.348
G1 X139.485 Y122.797 E.15509
G1 X135.132 Y122.797 E.16945
G1 X135.942 Y119.541 E.1306
G1 X141.722 Y119.541 E.22498
G1 X141.5 Y119.825 F9000
G1 X139.903 Y121.285
;TYPE:Solid infill
;WIDTH:0.495403
G1 F795.61
G1 X139.105 Y122.084 E.04888
G1 X138.465 Y122.084 E.02769
G1 X140.295 Y120.254 E.11202
G1 X139.655 Y120.254 E.02769
G1 X137.825 Y122.084 E.11202
G1 X137.185 Y122.084 E.02769
G1 X139.016 Y120.254 E.11203
G1 X138.376 Y120.254 E.02769
G1 X136.545 Y122.084 E.11203
G1 X136.043 Y122.084 E.02171
G1 X136.089 Y121.9 E.0082
G1 X137.736 Y120.253 E.10077
G1 X137.096 Y120.253 E.02769
G1 X136.05 Y121.3 E.06402
;LAYER_CHANGE
;Z:0.6
;HEIGHT:0.2
;BEFORE_LAYER_CHANGE
G92 E0
;0.6


G1 Z.6 F9000
;AFTER_LAYER_CHANGE
;0.6
G1 X135.908 Y122.19
;TYPE:Perimeter
;WIDTH:0.45
G1 F884.348
G1 X136.417 Y120.148 E.08189
G1 X140.61 Y120.148 E.16325
G1 X139.17 Y122.19 E.09725
