; generated by PrusaSlicer 2.4.2+win64 on 2022-08-31 at 22:15:15 UTC

; 

; external perimeters extrusion width = 0.45mm
; perimeters extrusion width = 0.45mm
; infill extrusion width = 0.45mm
; solid infill extrusion width = 0.45mm
; top infill extrusion width = 0.40mm
; first layer extrusion width = 0.42mm

M107
;TYPE:Custom
G90 ; use absolute coordinates
M83 ; extruder relative mode
M140 S50 ; set final bed temp
M104 S170 ; set temporary nozzle temp to prevent oozing during homing
G4 S10 ; allow partial nozzle warmup
G28 ; home all axis
G1 Z50 F300
G1 X3 Y10 F3000
M190 S47.5 ; wait for bed temp to stabilize at 90%
M140 S50 ; set final bed temp
M104 S240 ; set final nozzle temp
M109 S240 ; wait for nozzle temp to stabilize
G1 Z0.28 F240
G92 E0
G1 Y180 E10 F1500 ; prime the nozzle
G1 X3.3 F5000
G92 E0
G1 Y20 E10 F1200 ; prime the nozzle
G92 E0
G21 ; set units to millimeters
G90 ; use absolute coordinates
M83 ; use relative distances for extrusion
M900 K0
M107
;LAYER_CHANGE
;Z:0.2
;HEIGHT:0.2
;BEFORE_LAYER_CHANGE
G92 E0
;0.2


G1 Z.2 F9000
;AFTER_LAYER_CHANGE
;0.2
G1 X78.721 Y78.959
M204 P500
;TYPE:Skirt/Brim
;WIDTH:0.42
G1 F954.706
G1 X79.642 Y78.092 E.04562
G1 X80.989 Y77.047 E.06145
G1 X82.416 Y76.175 E.06031
G1 X83.553 Y75.619 E.04562
G1 X85.105 Y75.035 E.05979
G1 X86.771 Y74.612 E.06197
G1 X88.021 Y74.417 E.04562
G1 X89.75 Y74.319 E.06245
G1 X141.37 Y74.321 E1.86129
G1 X142.979 Y74.417 E.05813
G1 X144.112 Y74.587 E.04132
G1 X145.705 Y74.977 E.05913
G1 X146.763 Y75.338 E.04031
G1 X148.286 Y76.018 E.06013
G1 X149.239 Y76.548 E.03932
G1 X150.161 Y77.154 E.0398
G1 X151.358 Y78.092 E.05481
G1 X152.908 Y79.642 E.07906
G1 X153.846 Y80.839 E.05482
G1 X154.534 Y81.901 E.04562
G1 X155.271 Y83.309 E.05732
G1 X155.728 Y84.414 E.04312
G1 X156.193 Y85.905 E.05631
G1 X156.451 Y87.101 E.04412
G1 X156.645 Y88.711 E.05846
G1 X156.681 Y89.75 E.03749
G1 X156.659 Y142.054 E1.88594
G1 X156.388 Y144.229 E.07906
G1 X156.023 Y145.705 E.05482
G1 X155.662 Y146.763 E.04032
G1 X155.241 Y147.754 E.0388
G1 X154.534 Y149.099 E.05482
G1 X153.408 Y150.752 E.0721
G1 X152.279 Y152.041 E.06179
G1 X151.358 Y152.908 E.04562
G1 X150.011 Y153.953 E.06145
G1 X148.438 Y154.904 E.06628
G1 X146.763 Y155.662 E.06628
G1 X145.135 Y156.182 E.06164
G1 X143.899 Y156.451 E.04562
G1 X142.054 Y156.659 E.06694
G1 X88.946 Y156.659 E1.91492
G1 X86.771 Y156.388 E.07906
G1 X85.295 Y156.023 E.05482
G1 X84.237 Y155.662 E.04032
G1 X83.246 Y155.241 E.03879
G1 X81.901 Y154.534 E.05482
G1 X80.248 Y153.408 E.0721
G1 X78.959 Y152.279 E.06179
G1 X78.092 Y151.358 E.04562
G1 X77.047 Y150.011 E.06146
G1 X76.096 Y148.438 E.06628
G1 X75.338 Y146.763 E.06628
G1 X74.818 Y145.135 E.06164
G1 X74.549 Y143.899 E.04562
G1 X74.341 Y142.054 E.06694
G1 X74.341 Y88.946 E1.91492
G1 X74.612 Y86.771 E.07906
G1 X74.977 Y85.295 E.05482
G1 X75.338 Y84.237 E.04031
G1 X75.759 Y83.246 E.0388
G1 X76.466 Y81.901 E.05481
G1 X77.592 Y80.248 E.0721
G1 X78.682 Y79.004 E.05962
G1 X78.965 Y79.253 F9000
G1 F954.706
G1 X79.884 Y78.382 E.04565
G1 X81.205 Y77.356 E.06031
G1 X82.601 Y76.504 E.05899
G1 X83.697 Y75.968 E.04398
G1 X85.223 Y75.393 E.0588
G1 X86.85 Y74.98 E.0605
G1 X88.055 Y74.793 E.04398
G1 X89.75 Y74.696 E.06122
G1 X141.359 Y74.697 E1.8609
G1 X142.945 Y74.793 E.05729
G1 X144.036 Y74.957 E.03978
G1 X145.604 Y75.34 E.0582
G1 X146.624 Y75.688 E.03887
G1 X148.121 Y76.357 E.05911
G1 X149.041 Y76.869 E.03796
G1 X149.938 Y77.458 E.03869
G1 X151.116 Y78.382 E.05399
G1 X152.618 Y79.884 E.0766
G1 X153.542 Y81.062 E.05399
G1 X154.206 Y82.086 E.04398
G1 X154.93 Y83.468 E.05627
G1 X155.372 Y84.537 E.04171
G1 X155.828 Y86.003 E.05536
G1 X156.078 Y87.158 E.04262
G1 X156.269 Y88.744 E.05759
G1 X156.304 Y89.75 E.0363
G1 X156.282 Y142.042 E1.88553
G1 X156.02 Y144.15 E.0766
G1 X155.66 Y145.604 E.05399
G1 X155.312 Y146.624 E.03887
G1 X154.902 Y147.589 E.03778
G1 X154.206 Y148.914 E.054
G1 X153.112 Y150.518 E.06999
G1 X152.004 Y151.782 E.06062
G1 X151.116 Y152.618 E.04398
G1 X149.795 Y153.644 E.06031
G1 X148.259 Y154.572 E.0647
G1 X146.624 Y155.312 E.0647
G1 X145.034 Y155.818 E.0602
G1 X143.842 Y156.078 E.04398
G1 X142.042 Y156.282 E.0653
G1 X88.958 Y156.282 E1.9141
G1 X86.85 Y156.02 E.0766
G1 X85.396 Y155.66 E.05399
G1 X84.376 Y155.312 E.03887
G1 X83.411 Y154.902 E.03778
G1 X82.086 Y154.206 E.05399
G1 X80.482 Y153.112 E.06999
G1 X79.218 Y152.004 E.06062
G1 X78.382 Y151.116 E.04398
G1 X77.356 Y149.795 E.06032
G1 X76.428 Y148.259 E.0647
G1 X75.688 Y146.624 E.0647
G1 X75.182 Y145.034 E.06019
G1 X74.922 Y143.842 E.04398
G1 X74.718 Y142.042 E.0653
G1 X74.718 Y88.958 E1.9141
G1 X74.98 Y86.85 E.07659
G1 X75.34 Y85.396 E.054
G1 X75.688 Y84.376 E.03887
G1 X76.098 Y83.411 E.03778
G1 X76.794 Y82.086 E.05399
G1 X77.888 Y80.482 E.06999
G1 X78.925 Y79.298 E.05677
G1 X79.209 Y79.546 F9000
G1 F954.706
G1 X80.125 Y78.671 E.04569
G1 X81.422 Y77.665 E.05917
G1 X82.92 Y76.76 E.06312
G1 X84.388 Y76.09 E.05821
G1 X85.497 Y75.704 E.04234
G1 X87.04 Y75.326 E.05727
G1 X88.678 Y75.115 E.05956
G1 X141.348 Y75.074 E1.89914
G1 X142.911 Y75.168 E.05645
G1 X143.96 Y75.326 E.03824
G1 X145.503 Y75.704 E.05727
G1 X146.485 Y76.039 E.03743
G1 X147.956 Y76.696 E.05809
G1 X148.843 Y77.19 E.03661
G1 X149.714 Y77.762 E.03758
G1 X150.875 Y78.671 E.05317
G1 X152.329 Y80.125 E.07414
G1 X153.239 Y81.286 E.05317
G1 X153.877 Y82.271 E.04234
G1 X154.588 Y83.628 E.05522
G1 X155.015 Y84.66 E.0403
G1 X155.464 Y86.1 E.0544
G1 X155.705 Y87.215 E.04111
G1 X155.894 Y88.777 E.05673
G1 X155.927 Y89.75 E.03511
G1 X155.905 Y142.031 E1.88512
G1 X155.651 Y144.071 E.07414
G1 X155.296 Y145.503 E.05317
G1 X154.961 Y146.485 E.03743
G1 X154.563 Y147.424 E.03676
G1 X153.877 Y148.729 E.05317
G1 X152.817 Y150.284 E.06788
G1 X151.73 Y151.524 E.05945
G1 X150.875 Y152.329 E.04234
G1 X149.578 Y153.335 E.05917
G1 X148.08 Y154.24 E.06312
G1 X146.485 Y154.961 E.06312
G1 X144.932 Y155.455 E.05875
G1 X143.785 Y155.705 E.04234
G1 X142.031 Y155.905 E.06366
G1 X88.969 Y155.905 E1.91327
G1 X86.929 Y155.651 E.07414
G1 X85.497 Y155.296 E.05317
G1 X84.515 Y154.961 E.03743
G1 X83.576 Y154.563 E.03676
G1 X82.271 Y153.877 E.05317
G1 X80.716 Y152.817 E.06788
G1 X79.476 Y151.73 E.05945
G1 X78.671 Y150.875 E.04234
G1 X77.665 Y149.578 E.05917
G1 X76.76 Y148.08 E.06312
G1 X76.039 Y146.485 E.06312
G1 X75.545 Y144.932 E.05875
G1 X75.295 Y143.785 E.04234
G1 X75.095 Y142.031 E.06366
G1 X75.095 Y88.969 E1.91328
G1 X75.349 Y86.929 E.07413
G1 X75.704 Y85.497 E.05317
G1 X76.039 Y84.515 E.03743
G1 X76.437 Y83.576 E.03676
G1 X77.123 Y82.271 E.05317
G1 X78.183 Y80.716 E.06788
G1 X79.169 Y79.592 E.05392
G1 X120.666 Y105.862 F9000
;TYPE:Perimeter
G1 F954.706
G1 X117.553 Y118.369 E.46474
G1 X110.727 Y118.369 E.24615
G1 X112.484 Y111.311 E.26228
G1 X112.001 Y111.271 E.01747
G1 X111.456 Y111.301 E.01967
G1 X111.016 Y111.384 E.01613
G1 X110.498 Y111.556 E.01971
G1 X110.17 Y111.71 E.01307
G1 X109.725 Y111.98 E.01877
G1 X109.244 Y112.372 E.02238
G1 X108.952 Y112.673 E.01512
G1 X108.569 Y113.149 E.02203
G1 X108.36 Y113.463 E.01359
G1 X108.036 Y114.052 E.02424
G1 X107.769 Y114.69 E.02494
G1 X107.604 Y115.203 E.01941
G1 X107.445 Y115.893 E.02555
G1 X107.356 Y116.582 E.02505
G1 X107.334 Y117.091 E.01836
G1 X107.401 Y118.369 E.04617
G1 X101.189 Y118.369 E.224
G1 X101.149 Y116.811 E.05622
G1 X101.22 Y115.766 E.03776
G1 X101.4 Y114.649 E.04077
G1 X101.615 Y113.765 E.03281
G1 X101.778 Y113.226 E.02031
G1 X102.164 Y112.191 E.03983
G1 X102.638 Y111.185 E.04009
G1 X103.193 Y110.228 E.03992
G1 X103.823 Y109.337 E.03931
G1 X104.172 Y108.912 E.01986
G1 X104.536 Y108.512 E.01949
G1 X104.917 Y108.134 E.01936
G1 X105.316 Y107.781 E.01921
G1 X105.731 Y107.455 E.01903
G1 X106.104 Y107.193 E.01641
G1 X106.574 Y106.904 E.01988
G1 X106.973 Y106.691 E.01633
G1 X107.473 Y106.463 E.01982
G1 X107.9 Y106.301 E.01646
G1 X108.525 Y106.113 E.02352
G1 X108.975 Y106.012 E.01665
G1 X109.532 Y105.925 E.02032
G1 X110 Y105.881 E.01693
G1 X110.571 Y105.862 E.02061
G1 X120.606 Y105.862 E.36185
G1 X120.184 Y106.239 F9000
;TYPE:External perimeter
G1 F954.706
G1 X117.259 Y117.992 E.43671
G1 X111.209 Y117.992 E.21812
G1 X112.943 Y111.026 E.25884
G1 X112.548 Y110.937 E.01461
G1 X112.006 Y110.894 E.01961
G1 X111.411 Y110.926 E.02149
G1 X110.922 Y111.018 E.01794
G1 X110.358 Y111.205 E.02144
G1 X109.991 Y111.377 E.0146
G1 X109.507 Y111.671 E.02043
G1 X108.988 Y112.094 E.02412
G1 X108.669 Y112.423 E.01655
G1 X108.264 Y112.926 E.02327
G1 X108.037 Y113.267 E.01478
G1 X107.696 Y113.888 E.02554
G1 X107.415 Y114.559 E.02625
G1 X107.24 Y115.102 E.02058
G1 X107.074 Y115.827 E.02679
G1 X106.98 Y116.549 E.02628
G1 X106.956 Y117.092 E.01959
G1 X107.004 Y117.992 E.03249
G1 X101.556 Y117.992 E.19642
G1 X101.526 Y116.819 E.04233
G1 X101.595 Y115.809 E.0365
G1 X101.77 Y114.724 E.03961
G1 X101.979 Y113.865 E.03189
G1 X102.136 Y113.347 E.01951
G1 X102.512 Y112.338 E.03884
G1 X102.972 Y111.361 E.03894
G1 X103.511 Y110.431 E.03873
G1 X104.123 Y109.566 E.03821
G1 X104.458 Y109.158 E.01903
G1 X104.808 Y108.773 E.01879
G1 X105.175 Y108.41 E.01862
G1 X105.558 Y108.071 E.01844
G1 X105.956 Y107.758 E.01826
G1 X106.311 Y107.509 E.01563
G1 X106.761 Y107.231 E.01906
G1 X107.14 Y107.029 E.01549
G1 X107.618 Y106.811 E.01895
G1 X108.021 Y106.659 E.01554
G1 X108.621 Y106.478 E.02256
G1 X109.046 Y106.383 E.01572
G1 X109.579 Y106.299 E.01946
G1 X110.023 Y106.257 E.01609
G1 X110.577 Y106.239 E.01998
G1 X120.124 Y106.239 E.34423
G1 X120.579 Y106.304 F9000
G1 X137.873 Y105.862
;TYPE:Perimeter
G1 F954.706
G1 X136.386 Y111.833 E.22188
G1 X127.386 Y111.839 E.32451
G1 X127.166 Y111.878 E.00807
G1 X127.004 Y111.974 E.00681
G1 X126.898 Y112.109 E.00617
G1 X126.821 Y112.326 E.00829
G1 X126.806 Y112.433 E.00392
G1 X126.826 Y112.672 E.00863
G1 X126.891 Y112.77 E.00425
G1 X127.024 Y112.828 E.00522
G1 X127.312 Y112.864 E.01048
G1 X132.062 Y112.874 E.17128
G1 X132.659 Y112.996 E.02199
G1 X133.043 Y113.152 E.01494
G1 X133.394 Y113.358 E.01468
G1 X133.778 Y113.687 E.01822
G1 X133.965 Y113.885 E.00982
G1 X134.203 Y114.208 E.01445
G1 X134.455 Y114.677 E.01923
G1 X134.682 Y115.288 E.02347
G1 X134.802 Y115.839 E.02035
G1 X134.878 Y116.525 E.02489
G1 X134.884 Y116.979 E.01637
G1 X134.772 Y118.369 E.05029
G1 X125.426 Y118.369 E.33699
G1 X124.708 Y118.343 E.02589
G1 X124.01 Y118.262 E.02533
G1 X123.347 Y118.127 E.02442
G1 X122.728 Y117.939 E.0233
G1 X122.416 Y117.817 E.01207
G1 X121.868 Y117.549 E.02201
G1 X121.52 Y117.334 E.01475
G1 X121.118 Y117.037 E.01802
G1 X120.69 Y116.639 E.02109
G1 X120.323 Y116.202 E.02056
G1 X120.149 Y115.951 E.01104
G1 X119.874 Y115.466 E.02009
G1 X119.748 Y115.188 E.011
G1 X119.561 Y114.66 E.0202
G1 X119.483 Y114.365 E.01099
G1 X119.379 Y113.794 E.02092
G1 X119.327 Y112.921 E.03154
G1 X119.391 Y112.028 E.03231
G1 X119.565 Y111.141 E.03259
G1 X119.741 Y110.552 E.02218
G1 X119.96 Y109.979 E.02209
G1 X120.223 Y109.419 E.0223
G1 X120.689 Y108.632 E.033
G1 X121.242 Y107.911 E.03278
G1 X121.661 Y107.472 E.02188
G1 X121.895 Y107.258 E.01143
G1 X122.36 Y106.892 E.02132
G1 X122.625 Y106.715 E.01149
G1 X123.142 Y106.424 E.02139
G1 X123.436 Y106.29 E.01164
G1 X124.011 Y106.085 E.02201
G1 X124.617 Y105.944 E.02245
G1 X124.952 Y105.897 E.01222
G1 X125.586 Y105.862 E.02287
G1 X137.813 Y105.862 E.44087
G1 X137.39 Y106.239 F9000
;TYPE:External perimeter
G1 F954.706
G1 X136.092 Y111.456 E.19387
G1 X127.355 Y111.461 E.31503
G1 X127.009 Y111.533 E.01273
G1 X126.768 Y111.676 E.01008
G1 X126.658 Y111.789 E.0057
G1 X126.567 Y111.927 E.00598
G1 X126.451 Y112.248 E.01229
G1 X126.428 Y112.414 E.00602
G1 X126.436 Y112.66 E.00889
G1 X126.519 Y112.911 E.00953
G1 X126.593 Y113.012 E.00453
G1 X126.689 Y113.094 E.00454
G1 X126.923 Y113.195 E.00917
G1 X127.288 Y113.241 E.01326
G1 X132.023 Y113.251 E.17076
G1 X132.55 Y113.359 E.01937
G1 X132.876 Y113.491 E.01269
G1 X133.174 Y113.666 E.01248
G1 X133.518 Y113.96 E.0163
G1 X133.675 Y114.127 E.00826
G1 X133.883 Y114.41 E.01266
G1 X134.111 Y114.833 E.01733
G1 X134.319 Y115.394 E.02157
G1 X134.43 Y115.9 E.01867
G1 X134.501 Y116.549 E.02353
G1 X134.507 Y116.966 E.01507
G1 X134.424 Y117.992 E.0371
G1 X125.433 Y117.992 E.3242
G1 X124.737 Y117.966 E.0251
G1 X124.07 Y117.889 E.02422
G1 X123.439 Y117.761 E.0232
G1 X122.852 Y117.583 E.02213
G1 X122.568 Y117.472 E.01098
G1 X122.051 Y117.219 E.02077
G1 X121.732 Y117.021 E.01352
G1 X121.359 Y116.747 E.01669
G1 X120.964 Y116.379 E.01947
G1 X120.623 Y115.973 E.0191
G1 X120.468 Y115.75 E.00979
G1 X120.21 Y115.295 E.01886
G1 X120.098 Y115.047 E.0098
G1 X119.922 Y114.549 E.01905
G1 X119.852 Y114.283 E.00991
G1 X119.755 Y113.749 E.01958
G1 X119.705 Y112.924 E.02982
G1 X119.766 Y112.078 E.03058
G1 X119.932 Y111.231 E.0311
G1 X120.098 Y110.673 E.02102
G1 X120.307 Y110.127 E.02107
G1 X120.556 Y109.596 E.02114
G1 X121.002 Y108.844 E.03153
G1 X121.529 Y108.156 E.03123
G1 X121.925 Y107.742 E.02068
G1 X122.14 Y107.546 E.01047
G1 X122.582 Y107.197 E.02031
G1 X122.822 Y107.036 E.01043
G1 X123.313 Y106.761 E.02028
G1 X123.578 Y106.64 E.0105
G1 X124.117 Y106.447 E.02064
G1 X124.686 Y106.315 E.02107
G1 X124.989 Y106.273 E.01105
G1 X125.596 Y106.239 E.02191
G1 X137.33 Y106.239 E.4231
G1 X137.785 Y106.303 F9000
G1 X145.048 Y105.862
;TYPE:Perimeter
G1 F954.706
G1 X141.935 Y118.369 E.46474
G1 X135.088 Y118.369 E.24688
G1 X138.201 Y105.862 E.46474
G1 X144.988 Y105.862 E.24472
G1 X144.565 Y106.239 F9000
;TYPE:External perimeter
G1 F954.706
G1 X141.64 Y117.992 E.43671
G1 X135.57 Y117.992 E.21886
G1 X138.495 Y106.239 E.43671
G1 X144.505 Y106.239 E.2167
G1 X144.961 Y106.182 F9000
G1 X143.02 Y118.429
;TYPE:Perimeter
G1 F954.706
G1 X143.404 Y119.171 E.03013
G1 X140.061 Y123.909 E.20907
G1 X133.709 Y123.909 E.22904
G1 X135.073 Y118.429 E.20362
G1 X142.96 Y118.429 E.28438
G1 X142.79 Y118.806 F9000
;TYPE:External perimeter
G1 F954.706
G1 X142.964 Y119.141 E.01359
G1 X139.866 Y123.532 E.19376
G1 X134.191 Y123.532 E.2046
G1 X135.368 Y118.806 E.1756
G1 X142.73 Y118.806 E.26548
G1 X143.124 Y118.63 F9000
G1 X142.73 Y118.551
G1 X125.315 Y118.246
G1 X125.074 Y118.241
G1 X124.718 Y118.221
G1 X124.37 Y118.188
G1 X124.03 Y118.142
G1 X123.699 Y118.082
G1 X123.377 Y118.009
G1 X123.065 Y117.923
G1 X122.763 Y117.822
G1 X122.471 Y117.709
G1 X122.192 Y117.581
G1 X122.101 Y117.534
G1 X121.924 Y117.441
G1 X121.838 Y117.389
G1 X121.669 Y117.288
G1 X121.587 Y117.232
G1 X121.426 Y117.122
G1 X121.197 Y116.944
G1 X120.981 Y116.755
G1 X120.778 Y116.555
G1 X120.59 Y116.344
G1 X120.415 Y116.122
G1 X120.255 Y115.892
G1 X120.11 Y115.652
G1 X119.979 Y115.405
G1 X119.863 Y115.149
G1 X119.762 Y114.886
G1 X119.675 Y114.618
G1 X119.603 Y114.345
G1 X119.546 Y114.067
G1 X119.09 Y111.694
G1 X120.511 Y105.983
G1 X110.576 Y105.983
G1 X110.467 Y105.985
G1 X110.118 Y105.996
G1 X110.002 Y106.002
G1 X109.661 Y106.034
G1 X109.552 Y106.045
G1 X109.439 Y106.06
G1 X109.105 Y106.113
G1 X108.996 Y106.132
G1 X108.89 Y106.155
G1 X108.564 Y106.229
G1 X108.455 Y106.257
G1 X108.137 Y106.352
G1 X108.035 Y106.383
G1 X107.931 Y106.419
G1 X107.622 Y106.535
G1 X107.519 Y106.575
G1 X107.422 Y106.618
G1 X107.122 Y106.754
G1 X107.021 Y106.803
G1 X106.73 Y106.958
G1 X106.636 Y107.009
G1 X106.542 Y107.064
G1 X106.26 Y107.237
G1 X106.167 Y107.298
G1 X106.08 Y107.358
G1 X105.805 Y107.551
G1 X105.668 Y107.657
G1 X99.546 Y105.983
G1 X99.701 Y105.862
;TYPE:Perimeter
G1 F954.706
G1 X96.588 Y118.369 E.46474
G1 X89.937 Y118.369 E.23983
G1 X93.05 Y105.862 E.46474
G1 X99.641 Y105.862 E.23766
G1 X99.219 Y106.239 F9000
;TYPE:External perimeter
G1 F954.706
G1 X96.294 Y117.992 E.43671
G1 X90.42 Y117.992 E.2118
G1 X93.345 Y106.239 E.43671
G1 X99.159 Y106.239 E.20964
G1 X99.615 Y106.181 F9000
G1 X99.159 Y105.983
G1 X120.511 Y105.983
G1 X117.521 Y117.997
G1 X118.814 Y118.725
G1 X118.56 Y118.663
;TYPE:Perimeter
G1 F954.706
G1 X118.619 Y118.428 E.00873
G1 X134.774 Y118.429 E.5825
G1 X134.336 Y119.645 E.04662
G1 X134.124 Y120.135 E.01924
G1 X133.736 Y120.857 E.02954
G1 X133.454 Y121.289 E.01862
G1 X133.144 Y121.698 E.0185
G1 X132.805 Y122.084 E.01853
G1 X132.436 Y122.444 E.01861
G1 X132.106 Y122.72 E.0155
G1 X131.651 Y123.044 E.02014
G1 X131.233 Y123.288 E.01746
G1 X130.526 Y123.599 E.02784
G1 X130.049 Y123.744 E.01799
