; generated by PrusaSlicer 2.4.2+win64 on 2022-08-24 at 22:26:14 UTC

; 

; external perimeters extrusion width = 0.45mm
; perimeters extrusion width = 0.45mm
; infill extrusion width = 0.45mm
; solid infill extrusion width = 0.45mm
; top infill extrusion width = 0.40mm
; first layer extrusion width = 0.42mm

M107
;TYPE:Custom
G90 ; use absolute coordinates
M83 ; extruder relative mode
M140 S80 ; set final bed temp
M104 S170 ; set temporary nozzle temp to prevent oozing during homing
G4 S10 ; allow partial nozzle warmup
G28 ; home all axis
G1 Z50 F300
G1 X3 Y10 F3000
M190 S76 ; wait for bed temp to stabilize at 90%
M140 S80 ; set final bed temp
M104 S240 ; set final nozzle temp
M109 S240 ; wait for nozzle temp to stabilize
G1 Z0.28 F240
G92 E0
G1 Y180 E10 F1500 ; prime the nozzle
G1 X3.3 F5000
G92 E0
G1 Y20 E10 F1200 ; prime the nozzle
G92 E0
G21 ; set units to millimeters
G90 ; use absolute coordinates
M83 ; use relative distances for extrusion
; Filament gcode
M107
;LAYER_CHANGE
;Z:0.2
;HEIGHT:0.2
;BEFORE_LAYER_CHANGE
G92 E0
;0.2


G1 E-7 F3600
G1 Z.2 F9000
;AFTER_LAYER_CHANGE
;0.2
G1 X102.567 Y109.622
G1 E7 F2400
M204 S500
;TYPE:Skirt/Brim
;WIDTH:0.42
G1 F1200
G1 X117.346 Y95.794 E.63457
G1 X158.198 Y58.823 E1.72758
G1 X159.771 Y57.932 E.05665
G1 X160.97 Y57.754 E.03802
G1 X170.97 Y57.754 E.31354
G1 X172.734 Y58.15 E.05665
G1 X174.159 Y59.26 E.05665
G1 X174.975 Y60.872 E.05665
G1 X175.102 Y61.886 E.03204
G1 X175.102 Y81.886 E.62709
G1 X174.706 Y83.649 E.05665
G1 X173.768 Y84.925 E.04968
G1 X92.019 Y160.163 E3.48352
G1 X90.454 Y161.066 E.05665
G1 X89.221 Y161.254 E.0391
G1 X79.221 Y161.254 E.31354
G1 X77.458 Y160.859 E.05665
G1 X76.032 Y159.749 E.05665
G1 X75.216 Y158.137 E.05665
G1 X75.09 Y157.123 E.03204
G1 X75.09 Y137.123 E.62709
G1 X75.485 Y135.36 E.05665
G1 X76.398 Y134.106 E.04863
G1 X102.523 Y109.663 E1.12176
G1 X102.781 Y109.938 F9000
G1 F1200
G1 X117.603 Y96.07 E.63645
G1 X158.451 Y59.102 E1.72738
G1 X159.959 Y58.27 E.05397
G1 X160.97 Y58.132 E.03202
G1 X170.97 Y58.132 E.31354
G1 X172.646 Y58.526 E.05397
G1 X173.969 Y59.627 E.05397
G1 X174.725 Y61.886 E.07467
G1 X174.725 Y81.886 E.62709
G1 X174.33 Y83.561 E.05397
G1 X173.513 Y84.648 E.04263
G1 X91.763 Y159.885 E3.48352
G1 X90.263 Y160.73 E.05397
G1 X89.221 Y160.877 E.033
G1 X79.221 Y160.877 E.31354
G1 X77.545 Y160.482 E.05397
G1 X76.222 Y159.381 E.05397
G1 X75.467 Y157.123 E.07467
G1 X75.467 Y137.123 E.62709
G1 X75.861 Y135.447 E.05397
G1 X76.656 Y134.382 E.04168
G1 X102.737 Y109.979 E1.11988
G1 X102.995 Y110.254 F9000
G1 F1200
G1 X117.861 Y96.345 E.63833
G1 X158.704 Y59.382 E1.72719
G1 X160.143 Y58.612 E.05115
G1 X160.97 Y58.509 E.02615
G1 X170.97 Y58.509 E.31354
G1 X172.554 Y58.903 E.05115
G1 X173.767 Y59.993 E.05115
G1 X174.347 Y61.886 E.06207
G1 X174.347 Y81.886 E.62709
G1 X173.953 Y83.469 E.05115
G1 X173.257 Y84.371 E.03572
G1 X91.508 Y159.608 E3.48352
G1 X90.076 Y160.39 E.05115
G1 X89.221 Y160.5 E.02703
G1 X79.221 Y160.5 E.31354
G1 X77.638 Y160.106 E.05115
G1 X76.424 Y159.016 E.05115
G1 X75.844 Y157.123 E.06207
G1 X75.844 Y137.123 E.62709
G1 X76.238 Y135.54 E.05115
G1 X76.914 Y134.657 E.03486
G1 X102.951 Y110.295 E1.118
G1 E-4.9 F3600
;WIPE_START
G1 F7200
G1 X106.018 Y107.426 E-1.995
;WIPE_END
G1 E-.105 F3600
G1 X161.657 Y81.199 F9000
G1 E7 F2400
;TYPE:Perimeter
G1 F1200
G1 X161.657 Y62.573 E.584
G1 X170.283 Y62.573 E.27046
G1 X170.283 Y81.199 E.584
G1 X161.717 Y81.199 E.26858
G1 X161.28 Y81.576 F9000
;TYPE:External perimeter
G1 F1200
G1 X161.28 Y62.196 E.60765
G1 X170.66 Y62.196 E.2941
G1 X170.66 Y81.576 E.60765
G1 X161.34 Y81.576 E.29222
G1 X161.34 Y81.18 F9000
G1 E-4.9 F3600
;WIPE_START
G1 F7200
G1 X161.327 Y77.376 E-1.995
;WIPE_END
G1 E-.105 F3600
G1 X169.402 Y62.686 F9000
G1 E7 F2400
;TYPE:Solid infill
;WIDTH:0.422984
G1 F1200
G1 X170.001 Y63.285 E.02677
G1 X170.001 Y63.822 E.01699
G1 X169.034 Y62.856 E.04321
G1 X168.496 Y62.856 E.01699
G1 X170.001 Y64.36 E.06723
G1 X170.001 Y64.897 E.01699
G1 X167.959 Y62.856 E.09125
G1 X167.421 Y62.856 E.01699
G1 X170.001 Y65.435 E.11527
G1 X170.001 Y65.972 E.01699
G1 X166.884 Y62.856 E.13929
G1 X166.346 Y62.856 E.01699
G1 X170.001 Y66.51 E.16331
G1 X170.001 Y67.047 E.01699
G1 X165.809 Y62.856 E.18734
G1 X165.271 Y62.856 E.01699
G1 X170.001 Y67.585 E.21136
G1 X170.001 Y68.122 E.01699
G1 X164.734 Y62.856 E.23538
G1 X164.196 Y62.856 E.01699
G1 X170.001 Y68.66 E.2594
G1 X170.001 Y69.197 E.01699
G1 X163.659 Y62.856 E.28342
G1 X163.121 Y62.856 E.01699
G1 X170.001 Y69.735 E.30745
G1 X170.001 Y70.272 E.01699
G1 X162.584 Y62.856 E.33147
G1 X162.046 Y62.856 E.01699
G1 X170.001 Y70.81 E.35549
G1 X170.001 Y71.347 E.01699
G1 X161.94 Y63.287 E.36023
G1 X161.94 Y63.824 E.01699
G1 X170.001 Y71.885 E.36023
G1 X170.001 Y72.422 E.01699
G1 X161.94 Y64.362 E.36023
G1 X161.94 Y64.899 E.01699
G1 X170.001 Y72.96 E.36023
G1 X170.001 Y73.497 E.01699
G1 X161.94 Y65.437 E.36023
G1 X161.94 Y65.974 E.01699
G1 X170.001 Y74.035 E.36023
G1 X170.001 Y74.572 E.01699
G1 X161.94 Y66.512 E.36023
G1 X161.94 Y67.049 E.01699
G1 X170.001 Y75.11 E.36023
G1 X170.001 Y75.647 E.01699
G1 X161.94 Y67.587 E.36023
G1 X161.94 Y68.124 E.01699
G1 X170.001 Y76.185 E.36023
G1 X170.001 Y76.722 E.01699
G1 X161.94 Y68.662 E.36023
G1 X161.94 Y69.199 E.01699
G1 X170.001 Y77.26 E.36023
G1 X170.001 Y77.797 E.01699
G1 X161.94 Y69.737 E.36023
G1 X161.94 Y70.274 E.01699
G1 X170.001 Y78.335 E.36023
G1 X170.001 Y78.872 E.01699
G1 X161.94 Y70.812 E.36023
G1 X161.94 Y71.349 E.01699
G1 X170.001 Y79.41 E.36023
G1 X170.001 Y79.947 E.01699
G1 X161.94 Y71.887 E.36023
G1 X161.94 Y72.424 E.01699
G1 X170.001 Y80.485 E.36023
G1 X170.001 Y80.916 E.01363
G1 X169.894 Y80.916 E.00336
G1 X161.94 Y72.962 E.35549
G1 X161.94 Y73.499 E.01699
G1 X169.357 Y80.916 E.33146
G1 X168.819 Y80.916 E.01699
G1 X161.94 Y74.037 E.30744
G1 X161.94 Y74.574 E.01699
G1 X168.282 Y80.916 E.28342
G1 X167.744 Y80.916 E.01699
G1 X161.94 Y75.112 E.2594
G1 X161.94 Y75.649 E.01699
G1 X167.207 Y80.916 E.23538
G1 X166.669 Y80.916 E.01699
G1 X161.94 Y76.187 E.21136
G1 X161.94 Y76.724 E.01699
G1 X166.132 Y80.916 E.18733
G1 X165.594 Y80.916 E.01699
G1 X161.94 Y77.262 E.16331
G1 X161.94 Y77.799 E.01699
G1 X165.057 Y80.916 E.13929
G1 X164.519 Y80.916 E.01699
G1 X161.94 Y78.337 E.11527
G1 X161.94 Y78.874 E.01699
G1 X163.982 Y80.916 E.09125
G1 X163.444 Y80.916 E.01699
G1 X161.94 Y79.412 E.06722
G1 X161.94 Y79.949 E.01699
G1 X162.907 Y80.916 E.0432
G1 X162.369 Y80.916 E.01699
G1 X161.771 Y80.317 E.02676
;LAYER_CHANGE
;Z:0.4
;HEIGHT:0.2
;BEFORE_LAYER_CHANGE
G92 E0
;0.4


G1 E-4.9 F3600
;WIPE_START
G1 F7200
G1 X162.369 Y80.916 E-.40227
G1 X162.907 Y80.916 E-.25531
G1 X161.94 Y79.949 E-.64935
G1 X161.94 Y79.412 E-.25531
G1 X162.585 Y80.056 E-.43276
;WIPE_END
G1 E-.105 F3600
G1 Z.4 F9000
;AFTER_LAYER_CHANGE
;0.4
G1 X161.602 Y81.254
G1 E7 F2400
;TYPE:Perimeter
;WIDTH:0.45
G1 F1618
G1 X161.602 Y62.518 E.63419
G1 X170.338 Y62.518 E.2957
G1 X170.338 Y81.254 E.63419
G1 X161.662 Y81.254 E.29367
G1 X161.28 Y81.661 F9000
;TYPE:External perimeter
G1 F1500
G1 X161.195 Y81.661 E.00288
G1 X161.195 Y62.111 E.66174
G1 X170.745 Y62.111 E.32326
G1 X170.745 Y81.661 E.66174
G1 X161.34 Y81.661 E.31835
G1 X161.214 Y81.608 F9000
G1 E-4.9 F3600
;WIPE_START
G1 F7200
G1 X161.195 Y81.661 E-.06888
G1 X161.195 Y77.606 E-1.92613
;WIPE_END
G1 E-.105 F3600
G1 X169.393 Y81.131 F9000
G1 E7 F2400
;TYPE:Solid infill
;WIDTH:0.450102
G1 F1618
G1 X170.033 Y80.492 E.03064
G1 X170.033 Y79.916 E.0195
G1 X169 Y80.948 E.04944
G1 X168.425 Y80.948 E.0195
G1 X170.033 Y79.34 E.07701
G1 X170.033 Y78.764 E.0195
G1 X167.849 Y80.948 E.10459
G1 X167.273 Y80.948 E.0195
G1 X170.033 Y78.188 E.13216
G1 X170.033 Y77.612 E.0195
G1 X166.697 Y80.948 E.15973
G1 X166.121 Y80.948 E.0195
G1 X170.033 Y77.037 E.1873
G1 X170.033 Y76.461 E.0195
G1 X165.545 Y80.948 E.21488
G1 X164.97 Y80.948 E.0195
G1 X170.033 Y75.885 E.24245
G1 X170.033 Y75.309 E.0195
G1 X164.394 Y80.948 E.27002
G1 X163.818 Y80.948 E.0195
G1 X170.033 Y74.733 E.29759
G1 X170.033 Y74.157 E.0195
G1 X163.242 Y80.948 E.32516
G1 X162.666 Y80.948 E.0195
G1 X170.033 Y73.581 E.35274
G1 X170.033 Y73.006 E.0195
G1 X162.09 Y80.948 E.38031
G1 X161.908 Y80.948 E.00618
G1 X161.908 Y80.555 E.01332
G1 X170.033 Y72.43 E.38905
G1 X170.033 Y71.854 E.0195
G1 X161.908 Y79.979 E.38905
G1 X161.908 Y79.403 E.0195
G1 X170.033 Y71.278 E.38905
G1 X170.033 Y70.702 E.0195
G1 X161.908 Y78.827 E.38905
G1 X161.908 Y78.252 E.0195
G1 X170.033 Y70.126 E.38905
G1 X170.033 Y69.551 E.0195
G1 X161.908 Y77.676 E.38905
G1 X161.908 Y77.1 E.0195
G1 X170.033 Y68.975 E.38905
G1 X170.033 Y68.399 E.0195
G1 X161.908 Y76.524 E.38905
G1 X161.908 Y75.948 E.0195
G1 X170.033 Y67.823 E.38905
G1 X170.033 Y67.247 E.0195
G1 X161.908 Y75.372 E.38905
G1 X161.908 Y74.797 E.0195
G1 X170.033 Y66.671 E.38905
G1 X170.033 Y66.096 E.0195
G1 X161.908 Y74.221 E.38905
G1 X161.908 Y73.645 E.0195
G1 X170.033 Y65.52 E.38905
G1 X170.033 Y64.944 E.0195
G1 X161.908 Y73.069 E.38905
G1 X161.908 Y72.493 E.0195
G1 X170.033 Y64.368 E.38905
G1 X170.033 Y63.792 E.0195
G1 X161.908 Y71.917 E.38905
G1 X161.908 Y71.342 E.0195
G1 X170.033 Y63.216 E.38905
G1 X170.033 Y62.823 E.01331
G1 X169.85 Y62.823 E.00618
G1 X161.908 Y70.766 E.3803
G1 X161.908 Y70.19 E.0195
G1 X169.275 Y62.823 E.35273
G1 X168.699 Y62.823 E.0195
G1 X161.908 Y69.614 E.32516
G1 X161.908 Y69.038 E.0195
G1 X168.123 Y62.823 E.29759
G1 X167.547 Y62.823 E.0195
G1 X161.908 Y68.462 E.27001
G1 X161.908 Y67.886 E.0195
G1 X166.971 Y62.823 E.24244
G1 X166.395 Y62.823 E.0195
G1 X161.908 Y67.311 E.21487
G1 X161.908 Y66.735 E.0195
G1 X165.819 Y62.823 E.1873
G1 X165.244 Y62.823 E.0195
G1 X161.908 Y66.159 E.15973
G1 X161.908 Y65.583 E.0195
G1 X164.668 Y62.823 E.13215
G1 X164.092 Y62.823 E.0195
G1 X161.908 Y65.007 E.10458
G1 X161.908 Y64.431 E.0195
G1 X163.516 Y62.823 E.07701
G1 X162.94 Y62.823 E.0195
G1 X161.908 Y63.856 E.04944
G1 X161.908 Y63.28 E.0195
G1 X162.548 Y62.64 E.03064
;LAYER_CHANGE
;Z:0.6
;HEIGHT:0.2
;BEFORE_LAYER_CHANGE
G92 E0
;0.6


G1 E-4.9 F3600
;WIPE_START
G1 F7200
G1 X161.908 Y63.28 E-.4298
G1 X161.908 Y63.856 E-.27352
G1 X162.94 Y62.823 E-.69357
G1 X163.516 Y62.823 E-.27353
G1 X163.033 Y63.306 E-.32458
;WIPE_END
G1 E-.105 F3600
G1 Z.6 F9000
;AFTER_LAYER_CHANGE
;0.6
G1 X161.602 Y81.254
G1 E7 F2400
;TYPE:Perimeter
;WIDTH:0.45
G1 F1634
G1 X161.602 Y62.518 E.63419
G1 X170.338 Y62.518 E.2957
G1 X170.338 Y81.254 E.63419
G1 X161.662 Y81.254 E.29367
G1 X161.28 Y81.661 F9000
;TYPE:External perimeter
G1 F1500
G1 X161.195 Y81.661 E.00288
G1 X161.195 Y62.111 E.66174
G1 X170.745 Y62.111 E.32326
G1 X170.745 Y81.661 E.66174
G1 X161.34 Y81.661 E.31835
G1 X161.214 Y81.608 F9000
G1 E-4.9 F3600
;WIPE_START
G1 F7200
G1 X161.195 Y81.661 E-.06888
G1 X161.195 Y77.606 E-1.92613
;WIPE_END
G1 E-.105 F3600
G1 X169.393 Y62.64 F9000
G1 E7 F2400
;TYPE:Solid infill
;WIDTH:0.450102
G1 F1634
G1 X170.033 Y63.28 E.03064
G1 X170.033 Y63.856 E.0195
G1 X169 Y62.823 E.04944
G1 X168.425 Y62.823 E.0195
G1 X170.033 Y64.432 E.07701
G1 X170.033 Y65.007 E.0195
G1 X167.849 Y62.823 E.10459
G1 X167.273 Y62.823 E.0195
G1 X170.033 Y65.583 E.13216
G1 X170.033 Y66.159 E.0195
G1 X166.697 Y62.823 E.15973
G1 X166.121 Y62.823 E.0195
G1 X170.033 Y66.735 E.1873
G1 X170.033 Y67.311 E.0195
G1 X165.545 Y62.823 E.21488
G1 X164.97 Y62.823 E.0195
G1 X170.033 Y67.887 E.24245
G1 X170.033 Y68.462 E.0195
G1 X164.394 Y62.823 E.27002
G1 X163.818 Y62.823 E.0195
G1 X170.033 Y69.038 E.29759
G1 X170.033 Y69.614 E.0195
G1 X163.242 Y62.823 E.32516
G1 X162.666 Y62.823 E.0195
G1 X170.033 Y70.19 E.35274
G1 X170.033 Y70.766 E.0195
G1 X162.09 Y62.823 E.38031
G1 X161.908 Y62.823 E.00618
G1 X161.908 Y63.216 E.01332
G1 X170.033 Y71.342 E.38905
G1 X170.033 Y71.917 E.0195
G1 X161.908 Y63.792 E.38905
G1 X161.908 Y64.368 E.0195
G1 X170.033 Y72.493 E.38905
G1 X170.033 Y73.069 E.0195
G1 X161.908 Y64.944 E.38905
G1 X161.908 Y65.52 E.0195
G1 X170.033 Y73.645 E.38905
G1 X170.033 Y74.221 E.0195
G1 X161.908 Y66.096 E.38905
G1 X161.908 Y66.671 E.0195
G1 X170.033 Y74.797 E.38905
G1 X170.033 Y75.373 E.0195
G1 X161.908 Y67.247 E.38905
G1 X161.908 Y67.823 E.0195
G1 X170.033 Y75.948 E.38905
G1 X170.033 Y76.524 E.0195
G1 X161.908 Y68.399 E.38905
G1 X161.908 Y68.975 E.0195
G1 X170.033 Y77.1 E.38905
G1 X170.033 Y77.676 E.0195
G1 X161.908 Y69.551 E.38905
G1 X161.908 Y70.127 E.0195
G1 X170.033 Y78.252 E.38905
G1 X170.033 Y78.828 E.0195
G1 X161.908 Y70.702 E.38905
G1 X161.908 Y71.278 E.0195
G1 X170.033 Y79.403 E.38905
G1 X170.033 Y79.979 E.0195
G1 X161.908 Y71.854 E.38905
G1 X161.908 Y72.43 E.0195
G1 X170.033 Y80.555 E.38905
G1 X170.033 Y80.948 E.01331
G1 X169.85 Y80.948 E.00618
G1 X161.908 Y73.006 E.3803
G1 X161.908 Y73.582 E.0195
G1 X169.275 Y80.948 E.35273
G1 X168.699 Y80.948 E.0195
G1 X161.908 Y74.157 E.32516
G1 X161.908 Y74.733 E.0195
G1 X168.123 Y80.948 E.29759
G1 X167.547 Y80.948 E.0195
G1 X161.908 Y75.309 E.27001
G1 X161.908 Y75.885 E.0195
G1 X166.971 Y80.948 E.24244
G1 X166.395 Y80.948 E.0195
G1 X161.908 Y76.461 E.21487
G1 X161.908 Y77.037 E.0195
G1 X165.819 Y80.948 E.1873
G1 X165.244 Y80.948 E.0195
G1 X161.908 Y77.612 E.15973
G1 X161.908 Y78.188 E.0195
G1 X164.668 Y80.948 E.13215
G1 X164.092 Y80.948 E.0195
G1 X161.908 Y78.764 E.10458
G1 X161.908 Y79.34 E.0195
G1 X163.516 Y80.948 E.07701
G1 X162.94 Y80.948 E.0195
G1 X161.908 Y79.916 E.04944
G1 X161.908 Y80.492 E.0195
G1 X162.548 Y81.131 E.03064
M106 S51
;LAYER_CHANGE
;Z:0.8
;HEIGHT:0.2
;BEFORE_LAYER_CHANGE
G92 E0
;0.8


G1 E-4.9 F3600
;WIPE_START
G1 F7200
G1 X161.908 Y80.492 E-.4298
G1 X161.908 Y79.916 E-.27353
G1 X162.94 Y80.948 E-.69357
G1 X163.516 Y80.948 E-.27352
G1 X163.033 Y80.465 E-.32458
;WIPE_END
G1 E-.105 F3600
G1 Z.8 F9000
;AFTER_LAYER_CHANGE
;0.8
G1 X161.602 Y81.254
G1 E7 F2400
;TYPE:Perimeter
;WIDTH:0.45
G1 F1618
G1 X161.602 Y62.518 E.63419
G1 X170.338 Y62.518 E.2957
G1 X170.338 Y81.254 E.63419
G1 X161.662 Y81.254 E.29367
G1 X161.28 Y81.661 F9000
;TYPE:External perimeter
G1 F1500
G1 X161.195 Y81.661 E.00288
G1 X161.195 Y62.111 E.66174
G1 X170.745 Y62.111 E.32326
G1 X170.745 Y81.661 E.66174
G1 X161.34 Y81.661 E.31835
G1 X161.214 Y81.608 F9000
G1 E-4.9 F3600
;WIPE_START
G1 F7200
G1 X161.195 Y81.661 E-.06888
G1 X161.195 Y77.606 E-1.92613
;WIPE_END
G1 E-.105 F3600
G1 X169.393 Y81.131 F9000
G1 E7 F2400
;TYPE:Solid infill
;WIDTH:0.450102
G1 F1618
G1 X170.033 Y80.492 E.03064
G1 X170.033 Y79.916 E.0195
G1 X169 Y80.948 E.04944
G1 X168.425 Y80.948 E.0195
G1 X170.033 Y79.34 E.07701
G1 X170.033 Y78.764 E.0195
G1 X167.849 Y80.948 E.10459
G1 X167.273 Y80.948 E.0195
G1 X170.033 Y78.188 E.13216
G1 X170.033 Y77.612 E.0195
G1 X166.697 Y80.948 E.15973
G1 X166.121 Y80.948 E.0195
G1 X170.033 Y77.037 E.1873
G1 X170.033 Y76.461 E.0195
G1 X165.545 Y80.948 E.21488
G1 X164.97 Y80.948 E.0195
G1 X170.033 Y75.885 E.24245
G1 X170.033 Y75.309 E.0195
G1 X164.394 Y80.948 E.27002
G1 X163.818 Y80.948 E.0195
G1 X170.033 Y74.733 E.29759
G1 X170.033 Y74.157 E.0195
G1 X163.242 Y80.948 E.32516
G1 X162.666 Y80.948 E.0195
G1 X170.033 Y73.581 E.35274
G1 X170.033 Y73.006 E.0195
G1 X162.09 Y80.948 E.38031
G1 X161.908 Y80.948 E.00618
G1 X161.908 Y80.555 E.01332
G1 X170.033 Y72.43 E.38905
G1 X170.033 Y71.854 E.0195
G1 X161.908 Y79.979 E.38905
G1 X161.908 Y79.403 E.0195
G1 X170.033 Y71.278 E.38905
G1 X170.033 Y70.702 E.0195
G1 X161.908 Y78.827 E.38905
G1 X161.908 Y78.252 E.0195
G1 X170.033 Y70.126 E.38905
G1 X170.033 Y69.551 E.0195
G1 X161.908 Y77.676 E.38905
G1 X161.908 Y77.1 E.0195
G1 X170.033 Y68.975 E.38905
G1 X170.033 Y68.399 E.0195
G1 X161.908 Y76.524 E.38905
G1 X161.908 Y75.948 E.0195
G1 X170.033 Y67.823 E.38905
G1 X170.033 Y67.247 E.0195
G1 X161.908 Y75.372 E.38905
G1 X161.908 Y74.797 E.0195
G1 X170.033 Y66.671 E.38905
G1 X170.033 Y66.096 E.0195
G1 X161.908 Y74.221 E.38905
G1 X161.908 Y73.645 E.0195
G1 X170.033 Y65.52 E.38905
G1 X170.033 Y64.944 E.0195
G1 X161.908 Y73.069 E.38905
G1 X161.908 Y72.493 E.0195
G1 X170.033 Y64.368 E.38905
G1 X170.033 Y63.792 E.0195
G1 X161.908 Y71.917 E.38905
G1 X161.908 Y71.342 E.0195
G1 X170.033 Y63.216 E.38905
G1 X170.033 Y62.823 E.01331
G1 X169.85 Y62.823 E.00618
G1 X161.908 Y70.766 E.3803
G1 X161.908 Y70.19 E.0195
G1 X169.275 Y62.823 E.35273
