; generated by PrusaSlicer 2.4.2+win64 on 2022-08-03 at 02:47:27 UTC

; 

; external perimeters extrusion width = 0.45mm
; perimeters extrusion width = 0.45mm
; infill extrusion width = 0.45mm
; solid infill extrusion width = 0.45mm
; top infill extrusion width = 0.40mm
; first layer extrusion width = 0.42mm

; external perimeters extrusion width = 0.45mm
; perimeters extrusion width = 0.45mm
; infill extrusion width = 0.45mm
; solid infill extrusion width = 0.45mm
; top infill extrusion width = 0.40mm
; first layer extrusion width = 0.42mm

M107
;TYPE:Custom
G90 ; use absolute coordinates
M83 ; extruder relative mode
M140 S110 ; set final bed temp
M104 S170 ; set temporary nozzle temp to prevent oozing during homing
G4 S10 ; allow partial nozzle warmup
G28 ; home all axis
G1 Z50 F300
G1 X10 Y10 F3000
M190 S104.5 ; wait for bed temp to stabilize at 90%
M140 S110 ; set final bed temp
M104 S245 ; set final nozzle temp
M109 S245 ; wait for nozzle temp to stabilize
G1 Z0.28 F240
G92 E0
G1 Y180 E10 F1500 ; prime the nozzle
G1 X10.3 F5000
G92 E0
G1 Y10 E10 F1200 ; prime the nozzle
G92 E0
G21 ; set units to millimeters
G90 ; use absolute coordinates
M83 ; use relative distances for extrusion
; Filament gcode
M107
;LAYER_CHANGE
;Z:0.2
;HEIGHT:0.2
;BEFORE_LAYER_CHANGE
G92 E0
;0.2


G1 E-5 F3600
G1 Z.2 F9000
;AFTER_LAYER_CHANGE
;0.2
G1 X62.206 Y65.005
G1 E5 F2400
M204 P500
;TYPE:Skirt/Brim
;WIDTH:0.42
G1 F1200
G1 X109.95 Y19.316 E2.07199
G1 X111.497 Y18.382 E.05665
G1 X112.807 Y18.169 E.04159
G1 X215.807 Y18.169 E3.22949
G1 X217.57 Y18.565 E.05665
G1 X218.996 Y19.674 E.05665
G1 X219.812 Y21.287 E.05665
G1 X219.938 Y22.301 E.03204
G1 X219.938 Y160.301 E4.32689
G1 X219.543 Y162.064 E.05665
G1 X217.706 Y163.969 E.08299
G1 X120.952 Y214.059 E3.41608
G1 X119.052 Y214.521 E.06129
G1 X16.052 Y214.521 E3.22949
G1 X14.289 Y214.126 E.05665
G1 X12.863 Y213.016 E.05665
G1 X12.047 Y211.404 E.05665
G1 X11.921 Y210.39 E.03204
G1 X11.921 Y114.89 E2.99434
G1 X12.316 Y113.127 E.05665
G1 X13.196 Y111.905 E.0472
G1 X62.163 Y65.046 E2.12505
G1 X62.424 Y65.319 F9000
G1 F1200
G1 X110.211 Y19.588 E2.07387
G1 X111.695 Y18.715 E.05397
G1 X112.807 Y18.547 E.03527
G1 X215.807 Y18.547 E3.22949
G1 X217.482 Y18.941 E.05397
G1 X218.806 Y20.042 E.05397
G1 X219.561 Y22.301 E.07467
G1 X219.561 Y160.301 E4.32689
G1 X219.166 Y161.976 E.05397
G1 X217.533 Y163.635 E.07299
G1 X120.778 Y213.724 E3.41608
G1 X119.052 Y214.144 E.0557
G1 X16.052 Y214.144 E3.22949
G1 X14.377 Y213.749 E.05397
G1 X13.053 Y212.648 E.05397
G1 X12.298 Y210.39 E.07467
G1 X12.298 Y114.89 E2.99434
G1 X12.693 Y113.214 E.05397
G1 X13.457 Y112.178 E.04038
G1 X62.38 Y65.36 E2.12317
G1 X62.641 Y65.633 F9000
G1 F1200
G1 X110.472 Y19.861 E2.07575
G1 X111.888 Y19.051 E.05115
G1 X112.807 Y18.924 E.02908
G1 X215.807 Y18.924 E3.22949
G1 X217.39 Y19.318 E.05115
G1 X218.603 Y20.408 E.05115
G1 X219.184 Y22.301 E.06207
G1 X219.184 Y160.301 E4.32689
G1 X218.79 Y161.884 E.05115
G1 X217.359 Y163.3 E.06311
G1 X120.605 Y213.389 E3.41608
G1 X119.052 Y213.767 E.0501
G1 X16.052 Y213.767 E3.22949
G1 X14.469 Y213.373 E.05115
G1 X13.256 Y212.283 E.05115
G1 X12.675 Y210.39 E.06207
G1 X12.675 Y114.89 E2.99434
G1 X13.069 Y113.307 E.05115
G1 X13.717 Y112.45 E.03368
G1 X62.598 Y65.674 E2.12129
G1 E-3.5 F3600
;WIPE_START
G1 F7200
G1 X64.765 Y63.6 E-1.425
;WIPE_END
G1 E-.075 F3600
G1 X145.579 Y100.499 F9000
G1 E5 F2400
;TYPE:Perimeter
G1 F1200
G1 X145.828 Y98.102 E.07557
G1 X145.947 Y97.283 E.02596
G1 X146.096 Y96.47 E.02592
G1 X146.285 Y95.656 E.0262
G1 X146.522 Y94.844 E.02651
G1 X146.815 Y94.041 E.02681
G1 X147.167 Y93.261 E.02681
G1 X147.565 Y92.516 E.02652
G1 X148 Y91.802 E.0262
G1 X148.462 Y91.117 E.02592
G1 X148.95 Y90.447 E.02596
G1 X150.523 Y88.466 E.07932
G1 X152.473 Y86.86 E.07922
G1 X153.134 Y86.362 E.02595
G1 X153.811 Y85.889 E.0259
G1 X154.518 Y85.444 E.02618
G1 X155.259 Y85.036 E.02651
G1 X156.034 Y84.676 E.02681
G1 X156.835 Y84.375 E.02681
G1 X157.645 Y84.133 E.02651
G1 X158.222 Y83.996 E.01859
G1 X157.2 Y83.706 E.0333
G1 X156.404 Y83.41 E.02661
G1 X155.633 Y83.055 E.02662
G1 X154.897 Y82.653 E.02631
G1 X154.193 Y82.214 E.02599
G1 X153.511 Y81.743 E.02599
G1 X152.245 Y80.769 E.05009
G1 X150.917 Y79.67 E.05403
G1 X149.828 Y78.327 E.05424
G1 X148.863 Y77.045 E.05029
G1 X148.397 Y76.356 E.02608
G1 X147.963 Y75.647 E.02608
G1 X147.566 Y74.904 E.0264
G1 X147.215 Y74.128 E.0267
G1 X146.923 Y73.328 E.02669
G1 X146.688 Y72.52 E.02639
G1 X146.501 Y71.71 E.02607
G1 X146.352 Y70.892 E.02607
G1 X146.144 Y69.302 E.05029
G1 X145.987 Y67.659 E.05173
G1 X145.987 Y64.212 E.10807
G1 X179.626 Y64.212 E1.05471
G1 X179.626 Y67.843 E.11385
G1 X179.393 Y70.234 E.07532
G1 X179.281 Y71.041 E.02552
G1 X179.14 Y71.841 E.02548
G1 X178.961 Y72.643 E.02576
G1 X178.735 Y73.443 E.02607
G1 X178.453 Y74.236 E.02639
G1 X178.114 Y75.007 E.02642
G1 X177.727 Y75.746 E.02613
G1 X177.305 Y76.452 E.0258
G1 X176.85 Y77.138 E.0258
G1 X175.908 Y78.413 E.04971
G1 X174.835 Y79.762 E.05405
G1 X172.903 Y81.333 E.07808
G1 X172.25 Y81.82 E.02553
G1 X171.58 Y82.28 E.02549
G1 X170.88 Y82.712 E.02579
G1 X170.147 Y83.108 E.02612
G1 X169.38 Y83.456 E.02642
G1 X168.589 Y83.745 E.02639
G1 X167.791 Y83.977 E.02607
G1 X167.414 Y84.064 E.01212
G1 X168.485 Y84.361 E.03484
G1 X169.303 Y84.66 E.02733
G1 X170.098 Y85.02 E.02736
G1 X170.858 Y85.43 E.02706
G1 X171.584 Y85.877 E.02674
G1 X172.28 Y86.354 E.02646
G1 X172.96 Y86.857 E.0265
G1 X174.972 Y88.484 E.08115
G1 X176.585 Y90.521 E.08146
G1 X177.084 Y91.207 E.0266
G1 X177.556 Y91.911 E.02655
G1 X177.998 Y92.643 E.02683
G1 X178.403 Y93.409 E.02715
G1 X178.759 Y94.208 E.02744
G1 X179.054 Y95.031 E.02742
G1 X179.292 Y95.862 E.02711
G1 X179.48 Y96.696 E.0268
G1 X179.628 Y97.529 E.02653
G1 X179.746 Y98.369 E.02658
G1 X180 Y100.943 E.08112
G1 X179.731 Y103.439 E.07871
G1 X179.608 Y104.254 E.02583
G1 X179.454 Y105.061 E.02578
G1 X179.26 Y105.87 E.02607
G1 X179.015 Y106.675 E.02639
G1 X178.712 Y107.471 E.0267
G1 X178.349 Y108.242 E.0267
G1 X177.938 Y108.976 E.02639
G1 X177.491 Y109.677 E.02607
G1 X177.016 Y110.348 E.02578
G1 X176.515 Y111.002 E.02583
G1 X174.902 Y112.93 E.07882
G1 X172.911 Y114.488 E.07927
G1 X172.24 Y114.971 E.02594
G1 X171.552 Y115.428 E.0259
G1 X170.836 Y115.858 E.02618
G1 X170.089 Y116.252 E.02649
G1 X169.308 Y116.6 E.02679
G1 X168.505 Y116.89 E.02678
G1 X167.693 Y117.124 E.02648
G1 X166.88 Y117.31 E.02617
G1 X166.067 Y117.457 E.02589
G1 X165.248 Y117.575 E.02593
G1 X162.735 Y117.833 E.07921
G1 X160.218 Y117.566 E.07938
G1 X159.397 Y117.444 E.02601
G1 X158.583 Y117.292 E.02597
G1 X157.768 Y117.1 E.02625
G1 X156.956 Y116.859 E.02657
G1 X156.152 Y116.56 E.02687
G1 X155.373 Y116.203 E.02687
G1 X154.629 Y115.798 E.02657
G1 X153.918 Y115.356 E.02625
G1 X153.235 Y114.887 E.02597
G1 X152.569 Y114.392 E.02601
G1 X150.601 Y112.797 E.07944
G1 X149.003 Y110.82 E.0797
G1 X148.508 Y110.152 E.0261
G1 X148.038 Y109.466 E.02605
G1 X147.596 Y108.752 E.02634
G1 X147.191 Y108.004 E.02666
G1 X146.834 Y107.222 E.02696
G1 X146.535 Y106.416 E.02695
G1 X146.295 Y105.601 E.02665
G1 X146.103 Y104.783 E.02633
G1 X145.952 Y103.966 E.02605
G1 X145.831 Y103.143 E.0261
G1 X145.573 Y100.559 E.08141
G1 X145.954 Y100.538 F9000
G1 F1200
G1 X146.202 Y98.149 E.07532
G1 X146.319 Y97.344 E.0255
G1 X146.466 Y96.546 E.02543
G1 X146.65 Y95.751 E.02559
G1 X146.88 Y94.962 E.02579
G1 X147.165 Y94.183 E.02599
G1 X147.505 Y93.428 E.02599
G1 X147.893 Y92.703 E.02579
G1 X148.317 Y92.005 E.02559
G1 X148.771 Y91.333 E.02543
G1 X149.25 Y90.676 E.0255
G1 X150.794 Y88.732 E.07783
G1 X152.707 Y87.156 E.07772
G1 X153.355 Y86.667 E.02547
G1 X154.02 Y86.203 E.0254
G1 X154.71 Y85.769 E.02556
G1 X155.429 Y85.373 E.02576
G1 X156.18 Y85.024 E.02596
G1 X156.955 Y84.733 E.02596
G1 X157.742 Y84.497 E.02576
G1 X158.536 Y84.309 E.02556
G1 X159.332 Y84.159 E.0254
G1 X160.368 Y84.014 E.03282
G1 X159.678 Y83.912 E.02186
G1 X158.888 Y83.765 E.0252
G1 X158.101 Y83.58 E.02536
G1 X157.319 Y83.348 E.02556
G1 X156.549 Y83.061 E.02577
G1 X155.803 Y82.717 E.02577
G1 X155.087 Y82.327 E.02557
G1 X154.4 Y81.899 E.02537
G1 X153.733 Y81.438 E.02541
G1 X152.48 Y80.475 E.04958
G1 X151.187 Y79.404 E.05264
G1 X150.125 Y78.094 E.05285
G1 X149.17 Y76.826 E.04978
G1 X148.714 Y76.152 E.02551
G1 X148.29 Y75.459 E.02547
G1 X147.904 Y74.737 E.02567
G1 X147.565 Y73.986 E.02587
G1 X147.282 Y73.211 E.02586
G1 X147.053 Y72.425 E.02566
G1 X146.871 Y71.634 E.02546
G1 X146.725 Y70.834 E.0255
G1 X146.518 Y69.259 E.04979
G1 X146.365 Y67.641 E.05096
G1 X146.365 Y64.59 E.09569
G1 X179.249 Y64.59 E1.03106
G1 X179.249 Y67.825 E.10145
G1 X179.019 Y70.19 E.07451
G1 X178.908 Y70.982 E.02507
G1 X178.77 Y71.767 E.025
G1 X178.595 Y72.551 E.02516
G1 X178.375 Y73.329 E.02536
G1 X178.102 Y74.097 E.02556
G1 X177.774 Y74.844 E.02558
G1 X177.398 Y75.561 E.02539
G1 X176.986 Y76.251 E.02519
G1 X176.541 Y76.921 E.02522
G1 X175.609 Y78.183 E.0492
G1 X174.566 Y79.495 E.05256
G1 X172.672 Y81.036 E.07654
G1 X172.031 Y81.513 E.02506
G1 X171.374 Y81.964 E.02499
G1 X170.691 Y82.386 E.02516
G1 X169.98 Y82.77 E.02536
G1 X169.237 Y83.107 E.02556
G1 X168.472 Y83.387 E.02554
G1 X167.696 Y83.612 E.02533
G1 X166.915 Y83.791 E.02513
G1 X166.125 Y83.934 E.02518
G1 X165.193 Y84.053 E.02946
G1 X165.93 Y84.149 E.02333
G1 X166.751 Y84.298 E.02615
G1 X167.562 Y84.485 E.0261
G1 X168.367 Y84.719 E.02629
G1 X169.161 Y85.009 E.02649
G1 X169.931 Y85.359 E.02651
G1 X170.669 Y85.757 E.02631
G1 X171.378 Y86.194 E.02612
G1 X172.062 Y86.661 E.02595
G1 X172.729 Y87.155 E.02603
G1 X174.702 Y88.751 E.07959
G1 X176.285 Y90.749 E.0799
G1 X176.774 Y91.423 E.02613
G1 X177.237 Y92.113 E.02606
G1 X177.67 Y92.829 E.02622
G1 X178.064 Y93.574 E.02641
G1 X178.409 Y94.349 E.0266
G1 X178.695 Y95.147 E.02659
G1 X178.926 Y95.956 E.02638
G1 X179.11 Y96.771 E.0262
G1 X179.256 Y97.589 E.02604
G1 X179.372 Y98.414 E.02612
G1 X179.621 Y100.942 E.07965
G1 X179.357 Y103.391 E.07724
G1 X179.236 Y104.19 E.02535
G1 X179.086 Y104.982 E.02527
G1 X178.896 Y105.771 E.02544
G1 X178.658 Y106.553 E.02564
G1 X178.365 Y107.323 E.02584
G1 X178.013 Y108.069 E.02584
G1 X177.614 Y108.783 E.02564
G1 X177.178 Y109.467 E.02544
G1 X176.712 Y110.124 E.02527
G1 X176.221 Y110.766 E.02535
G1 X174.638 Y112.658 E.07732
G1 X172.685 Y114.187 E.07778
G1 X172.025 Y114.661 E.02548
G1 X171.35 Y115.11 E.02541
G1 X170.651 Y115.53 E.02557
G1 X169.924 Y115.913 E.02577
G1 X169.168 Y116.25 E.02597
G1 X168.389 Y116.531 E.02596
G1 X167.599 Y116.759 E.02577
G1 X166.804 Y116.941 E.02557
G1 X166.007 Y117.085 E.02541
G1 X165.202 Y117.201 E.02548
G1 X162.736 Y117.453 E.07773
G1 X160.265 Y117.192 E.0779
G1 X159.459 Y117.072 E.02555
G1 X158.661 Y116.923 E.02547
G1 X157.865 Y116.736 E.02564
G1 X157.075 Y116.501 E.02583
G1 X156.297 Y116.212 E.02603
G1 X155.542 Y115.865 E.02603
G1 X154.819 Y115.472 E.02583
G1 X154.124 Y115.041 E.02563
G1 X153.455 Y114.58 E.02547
G1 X152.801 Y114.095 E.02554
G1 X150.869 Y112.529 E.07795
G1 X149.301 Y110.589 E.0782
G1 X148.815 Y109.933 E.02563
G1 X148.354 Y109.26 E.02556
G1 X147.922 Y108.563 E.02572
G1 X147.529 Y107.836 E.02592
G1 X147.182 Y107.078 E.02612
G1 X146.893 Y106.297 E.02611
G1 X146.659 Y105.504 E.02591
G1 X146.472 Y104.706 E.02572
G1 X146.324 Y103.904 E.02556
G1 X146.205 Y103.096 E.02563
G1 X145.948 Y100.598 E.07873
G1 X146.329 Y100.577 F9000
G1 F1200
G1 X146.576 Y98.195 E.07507
G1 X146.691 Y97.405 E.02504
G1 X146.835 Y96.623 E.02494
G1 X147.015 Y95.847 E.02498
G1 X147.238 Y95.08 E.02506
G1 X147.514 Y94.326 E.02516
G1 X147.844 Y93.595 E.02516
G1 X148.22 Y92.89 E.02506
G1 X148.635 Y92.209 E.02498
G1 X149.08 Y91.55 E.02494
G1 X149.55 Y90.904 E.02504
G1 X151.064 Y88.998 E.07634
G1 X152.94 Y87.452 E.07622
G1 X153.577 Y86.972 E.025
G1 X154.228 Y86.518 E.0249
G1 X154.901 Y86.094 E.02494
G1 X155.6 Y85.709 E.02501
G1 X156.326 Y85.372 E.02511
G1 X157.076 Y85.09 E.02511
G1 X157.84 Y84.861 E.02501
G1 X158.614 Y84.678 E.02494
G1 X159.394 Y84.531 E.0249
G1 X160.182 Y84.413 E.02498
G1 X162.599 Y84.158 E.07618
G1 X164.272 Y84.314 E.05271
G1 X165.872 Y84.522 E.05059
G1 X166.675 Y84.667 E.02558
G1 X167.467 Y84.85 E.02548
G1 X168.249 Y85.077 E.02555
G1 X169.018 Y85.359 E.02565
G1 X169.763 Y85.697 E.02566
G1 X170.481 Y86.083 E.02556
G1 X171.173 Y86.51 E.02549
G1 X171.843 Y86.968 E.02545
G1 X172.498 Y87.453 E.02556
G1 X174.433 Y89.018 E.07802
G1 X175.985 Y90.977 E.07834
G1 X176.465 Y91.639 E.02566
G1 X176.919 Y92.316 E.02556
G1 X177.342 Y93.015 E.0256
G1 X177.724 Y93.738 E.02567
G1 X178.058 Y94.489 E.02577
G1 X178.336 Y95.262 E.02576
G1 X178.561 Y96.049 E.02566
G1 X178.741 Y96.845 E.02559
G1 X178.883 Y97.648 E.02556
G1 X178.998 Y98.458 E.02566
G1 X179.242 Y100.94 E.07819
G1 X178.983 Y103.342 E.07576
G1 X178.865 Y104.127 E.02487
G1 X178.717 Y104.903 E.02477
G1 X178.532 Y105.672 E.02481
G1 X178.301 Y106.431 E.02488
G1 X178.017 Y107.176 E.02498
G1 X177.678 Y107.897 E.02498
G1 X177.291 Y108.589 E.02488
G1 X176.865 Y109.256 E.02481
G1 X176.409 Y109.901 E.02477
G1 X175.926 Y110.531 E.02487
G1 X174.375 Y112.385 E.07582
G1 X172.459 Y113.885 E.07629
G1 X171.811 Y114.351 E.02502
G1 X171.149 Y114.791 E.02493
G1 X170.466 Y115.201 E.02497
G1 X169.759 Y115.573 E.02505
G1 X169.027 Y115.9 E.02515
G1 X168.272 Y116.172 E.02515
G1 X167.505 Y116.393 E.02505
G1 X166.728 Y116.571 E.02497
G1 X165.946 Y116.713 E.02493
G1 X165.156 Y116.827 E.02502
G1 X162.737 Y117.074 E.07626
G1 X160.313 Y116.818 E.07642
G1 X159.522 Y116.7 E.02508
G1 X158.739 Y116.554 E.02498
G1 X157.962 Y116.371 E.02502
G1 X157.195 Y116.144 E.02509
G1 X156.442 Y115.863 E.02519
G1 X155.711 Y115.528 E.02519
G1 X155.008 Y115.146 E.02509
G1 X154.33 Y114.725 E.02502
G1 X153.674 Y114.274 E.02498
G1 X153.032 Y113.797 E.02508
G1 X151.138 Y112.261 E.07645
G1 X149.6 Y110.359 E.07671
G1 X149.122 Y109.714 E.02516
G1 X148.67 Y109.054 E.02506
G1 X148.249 Y108.373 E.0251
G1 X147.866 Y107.667 E.02518
G1 X147.531 Y106.934 E.02528
G1 X147.251 Y106.178 E.02528
G1 X147.024 Y105.408 E.02518
G1 X146.842 Y104.629 E.0251
G1 X146.696 Y103.843 E.02506
G1 X146.579 Y103.049 E.02516
G1 X146.327 Y100.637 E.07603
G1 X146.704 Y100.616 F9000
;TYPE:External perimeter
G1 F1200
G1 X146.95 Y98.242 E.07483
G1 X147.064 Y97.467 E.02457
G1 X147.204 Y96.7 E.02445
G1 X147.38 Y95.942 E.02438
G1 X147.597 Y95.197 E.02433
G1 X147.863 Y94.468 E.02433
G1 X148.183 Y93.761 E.02433
G1 X148.548 Y93.077 E.02433
G1 X148.952 Y92.413 E.02438
G1 X149.388 Y91.766 E.02445
G1 X149.85 Y91.133 E.02457
G1 X151.335 Y89.264 E.07484
G1 X153.174 Y87.748 E.07472
G1 X153.798 Y87.277 E.02453
G1 X154.436 Y86.832 E.0244
G1 X155.093 Y86.419 E.02431
G1 X155.771 Y86.046 E.02426
G1 X156.472 Y85.72 E.02426
G1 X157.197 Y85.448 E.02426
G1 X157.938 Y85.226 E.02426
G1 X158.692 Y85.047 E.02431
G1 X159.457 Y84.903 E.0244
G1 X160.23 Y84.787 E.02452
G1 X162.6 Y84.537 E.0747
G1 X164.231 Y84.689 E.05137
G1 X165.814 Y84.895 E.05008
G1 X166.599 Y85.037 E.025
G1 X167.372 Y85.215 E.02487
G1 X168.132 Y85.436 E.02481
G1 X168.875 Y85.708 E.02481
G1 X169.596 Y86.035 E.02481
G1 X170.292 Y86.41 E.02481
G1 X170.967 Y86.826 E.02487
G1 X171.624 Y87.276 E.02495
G1 X172.267 Y87.752 E.02508
G1 X174.163 Y89.285 E.07646
G1 X175.684 Y91.205 E.07678
G1 X176.156 Y91.855 E.02519
G1 X176.601 Y92.519 E.02506
G1 X177.013 Y93.2 E.02498
G1 X177.385 Y93.903 E.02493
G1 X177.708 Y94.63 E.02493
G1 X177.977 Y95.378 E.02493
G1 X178.195 Y96.143 E.02493
G1 X178.371 Y96.92 E.02499
G1 X178.511 Y97.707 E.02507
G1 X178.623 Y98.503 E.0252
G1 X178.863 Y100.938 E.07672
G1 X178.609 Y103.294 E.07429
G1 X178.493 Y104.063 E.02439
G1 X178.348 Y104.823 E.02426
G1 X178.168 Y105.573 E.02418
G1 X177.944 Y106.309 E.02412
G1 X177.67 Y107.028 E.02412
G1 X177.342 Y107.724 E.02412
G1 X176.967 Y108.396 E.02413
G1 X176.552 Y109.046 E.02418
G1 X176.105 Y109.677 E.02426
G1 X175.632 Y110.295 E.02439
G1 X174.111 Y112.113 E.07432
G1 X172.232 Y113.583 E.0748
G1 X171.596 Y114.04 E.02456
G1 X170.947 Y114.472 E.02444
G1 X170.281 Y114.872 E.02437
G1 X169.594 Y115.234 E.02433
G1 X168.886 Y115.55 E.02433
G1 X168.156 Y115.813 E.02433
G1 X167.41 Y116.028 E.02433
G1 X166.653 Y116.202 E.02437
G1 X165.886 Y116.341 E.02444
G1 X165.11 Y116.452 E.02456
G1 X162.737 Y116.695 E.07479
