; generated by PrusaSlicer 2.4.2+win64 on 2022-08-02 at 22:26:25 UTC

; 

; external perimeters extrusion width = 0.45mm
; perimeters extrusion width = 0.45mm
; infill extrusion width = 0.45mm
; solid infill extrusion width = 0.45mm
; top infill extrusion width = 0.40mm
; first layer extrusion width = 0.42mm

M107
;TYPE:Custom
G90 ; use absolute coordinates
M83 ; extruder relative mode
M140 S110 ; set final bed temp
M104 S170 ; set temporary nozzle temp to prevent oozing during homing
G4 S10 ; allow partial nozzle warmup
G28 ; home all axis
G1 Z50 F300
G1 X10 Y10 F3000
M190 S99 ; wait for bed temp to stabilize at 90%
M140 S110 ; set final bed temp
M104 S245 ; set final nozzle temp
M109 S245 ; wait for nozzle temp to stabilize
G1 Z0.28 F240
G92 E0
G1 Y180 E10 F1500 ; prime the nozzle
G1 X10.3 F5000
G92 E0
G1 Y10 E10 F1200 ; prime the nozzle
G92 E0
G21 ; set units to millimeters
G90 ; use absolute coordinates
M83 ; use relative distances for extrusion
; Filament gcode
M107
;LAYER_CHANGE
;Z:0.2
;HEIGHT:0.2
;BEFORE_LAYER_CHANGE
G92 E0
;0.2


G1 E-5 F3600
G1 Z.2 F9000
;AFTER_LAYER_CHANGE
;0.2
G1 X36.872 Y25.828
G1 E5 F2400
M204 P500
;TYPE:Skirt/Brim
;WIDTH:0.42
G1 F1200
G1 X37.982 Y24.402 E.05665
G1 X39.594 Y23.587 E.05665
G1 X40.608 Y23.46 E.03204
G1 X178.608 Y23.46 E4.32689
G1 X180.371 Y23.855 E.05665
G1 X181.797 Y24.965 E.05665
G1 X182.613 Y26.578 E.05665
G1 X182.739 Y27.591 E.03204
G1 X182.739 Y130.591 E3.22949
G1 X182.344 Y132.355 E.05665
G1 X181.234 Y133.781 E.05665
G1 X179.622 Y134.596 E.05665
G1 X178.608 Y134.723 E.03204
G1 X40.608 Y134.723 E4.32689
G1 X38.845 Y134.328 E.05665
G1 X37.419 Y133.218 E.05665
G1 X36.603 Y131.605 E.05665
G1 X36.477 Y130.591 E.03204
G1 X36.477 Y27.591 E3.22949
G1 X36.859 Y25.887 E.05477
G1 X37.235 Y25.975 F9000
G1 F1200
G1 X37.249 Y25.916 E.00191
G1 X38.35 Y24.593 E.05397
G1 X40.608 Y23.837 E.07467
G1 X178.608 Y23.837 E4.32689
G1 X180.284 Y24.232 E.05397
G1 X181.607 Y25.333 E.05397
G1 X182.362 Y27.591 E.07467
G1 X182.362 Y130.591 E3.22949
G1 X181.968 Y132.267 E.05397
G1 X180.866 Y133.59 E.05397
G1 X178.608 Y134.346 E.07467
G1 X40.608 Y134.346 E4.32689
G1 X38.932 Y133.951 E.05397
G1 X37.609 Y132.85 E.05397
G1 X36.854 Y130.591 E.07467
G1 X36.854 Y27.591 E3.22949
G1 X37.221 Y26.034 E.05018
G1 X37.595 Y26.127 F9000
G1 F1200
G1 X37.625 Y26.008 E.00383
G1 X38.715 Y24.795 E.05115
G1 X40.608 Y24.214 E.06207
G1 X178.608 Y24.214 E4.32689
G1 X180.191 Y24.608 E.05115
G1 X181.405 Y25.699 E.05115
G1 X181.985 Y27.591 E.06207
G1 X181.985 Y130.591 E3.22949
G1 X181.591 Y132.175 E.05115
G1 X180.501 Y133.388 E.05115
G1 X178.608 Y133.969 E.06207
G1 X40.608 Y133.969 E4.32689
G1 X39.025 Y133.574 E.05115
G1 X37.811 Y132.484 E.05115
G1 X37.231 Y130.591 E.06207
G1 X37.231 Y27.591 E3.22949
G1 X37.581 Y26.185 E.04544
G1 E-3.5 F3600
;WIPE_START
G1 F7200
G1 X37.625 Y26.008 E-.08659
G1 X38.715 Y24.795 E-.77494
G1 X39.849 Y24.447 E-.56347
;WIPE_END
G1 E-.075 F3600
G1 X106.89 Y68.349 F9000
G1 E5 F2400
;TYPE:Perimeter
G1 F1200
G1 X108.828 Y66.813 E.07753
G1 X109.515 Y66.314 E.0266
G1 X110.218 Y65.843 E.02655
G1 X110.95 Y65.4 E.02683
G1 X111.716 Y64.995 E.02715
G1 X112.516 Y64.639 E.02744
G1 X113.338 Y64.344 E.02742
G1 X114.17 Y64.106 E.02711
G1 X115.004 Y63.918 E.0268
G1 X115.837 Y63.77 E.02653
G1 X116.675 Y63.652 E.02654
G1 X119.251 Y63.399 E.08115
G1 X120.964 Y63.57 E.054
G1 X122.552 Y63.788 E.05024
G1 X123.369 Y63.944 E.02607
G1 X124.177 Y64.138 E.02607
G1 X124.983 Y64.383 E.0264
G1 X125.779 Y64.686 E.0267
G1 X126.549 Y65.049 E.0267
G1 X127.284 Y65.46 E.02639
G1 X127.984 Y65.907 E.02607
G1 X128.656 Y66.382 E.02578
G1 X129.309 Y66.883 E.02583
G1 X131.237 Y68.496 E.07882
G1 X132.796 Y70.487 E.07927
G1 X133.278 Y71.159 E.02594
G1 X133.736 Y71.846 E.0259
G1 X134.166 Y72.562 E.02618
G1 X134.56 Y73.309 E.02649
G1 X134.907 Y74.09 E.02679
G1 X135.197 Y74.893 E.02678
G1 X135.431 Y75.705 E.02648
G1 X135.617 Y76.518 E.02617
G1 X135.765 Y77.331 E.02589
G1 X135.883 Y78.15 E.02593
G1 X136.14 Y80.663 E.07921
G1 X135.874 Y83.18 E.07938
G1 X135.752 Y84.001 E.02601
G1 X135.6 Y84.815 E.02597
G1 X135.408 Y85.63 E.02625
G1 X135.167 Y86.443 E.02657
G1 X134.868 Y87.246 E.02687
G1 X134.51 Y88.025 E.02687
G1 X134.105 Y88.769 E.02657
G1 X133.664 Y89.48 E.02625
G1 X133.195 Y90.163 E.02597
G1 X132.7 Y90.829 E.02601
G1 X131.104 Y92.797 E.07944
G1 X129.128 Y94.395 E.0797
G1 X128.459 Y94.891 E.0261
G1 X127.773 Y95.36 E.02605
G1 X127.059 Y95.802 E.02634
G1 X126.312 Y96.207 E.02666
G1 X125.53 Y96.565 E.02696
G1 X124.723 Y96.863 E.02695
G1 X123.908 Y97.104 E.02665
G1 X123.09 Y97.295 E.02633
G1 X122.273 Y97.446 E.02605
G1 X121.45 Y97.567 E.0261
G1 X118.924 Y97.831 E.07964
G1 X116.409 Y97.571 E.07926
G1 X115.59 Y97.451 E.02596
G1 X114.777 Y97.302 E.02592
G1 X113.963 Y97.113 E.0262
G1 X113.152 Y96.877 E.02651
G1 X112.348 Y96.583 E.02681
G1 X111.569 Y96.231 E.02681
G1 X110.823 Y95.833 E.02652
G1 X110.109 Y95.398 E.0262
G1 X109.424 Y94.936 E.02592
G1 X108.755 Y94.449 E.02596
G1 X106.774 Y92.875 E.07932
G1 X105.167 Y90.925 E.07922
G1 X104.669 Y90.264 E.02595
G1 X104.196 Y89.587 E.0259
G1 X103.752 Y88.88 E.02619
G1 X103.344 Y88.139 E.02651
G1 X102.983 Y87.364 E.02682
G1 X102.682 Y86.563 E.02681
G1 X102.44 Y85.753 E.02651
G1 X102.303 Y85.177 E.01859
G1 X102.013 Y86.198 E.0333
G1 X101.717 Y86.994 E.02661
G1 X101.362 Y87.765 E.02662
G1 X100.96 Y88.501 E.02631
G1 X100.522 Y89.205 E.02599
G1 X100.056 Y89.879 E.0257
G1 X99.564 Y90.537 E.02574
G1 X97.981 Y92.478 E.07852
G1 X96.634 Y93.57 E.05439
G1 X95.353 Y94.535 E.05029
G1 X94.664 Y95.002 E.02608
G1 X93.954 Y95.435 E.02608
G1 X93.211 Y95.832 E.0264
G1 X92.435 Y96.183 E.0267
G1 X91.636 Y96.475 E.02669
G1 X90.828 Y96.71 E.02639
G1 X90.018 Y96.897 E.02607
G1 X89.199 Y97.046 E.02607
G1 X87.609 Y97.255 E.05029
G1 X85.967 Y97.411 E.05173
G1 X82.52 Y97.411 E.10807
G1 X82.52 Y63.772 E1.05471
G1 X86.146 Y63.772 E.11369
G1 X87.767 Y63.918 E.05102
G1 X89.339 Y64.116 E.04969
G1 X90.149 Y64.258 E.02576
G1 X90.95 Y64.437 E.02576
G1 X91.751 Y64.663 E.02607
G1 X92.544 Y64.945 E.02639
G1 X93.315 Y65.284 E.02642
G1 X94.053 Y65.671 E.02613
G1 X94.759 Y66.093 E.0258
G1 X95.445 Y66.548 E.0258
G1 X96.72 Y67.49 E.04971
G1 X98.069 Y68.563 E.05405
G1 X99.641 Y70.495 E.07808
G1 X100.127 Y71.148 E.02553
G1 X100.587 Y71.818 E.02549
G1 X101.02 Y72.518 E.02579
G1 X101.416 Y73.251 E.02612
G1 X101.764 Y74.018 E.02642
G1 X102.053 Y74.809 E.02639
G1 X102.285 Y75.607 E.02607
G1 X102.371 Y75.984 E.01212
G1 X102.668 Y74.913 E.03484
G1 X102.968 Y74.095 E.02733
G1 X103.328 Y73.3 E.02735
G1 X103.737 Y72.54 E.02706
G1 X104.185 Y71.814 E.02674
G1 X104.661 Y71.118 E.02646
G1 X105.164 Y70.439 E.0265
G1 X106.792 Y68.426 E.08115
G1 X106.843 Y68.386 E.00205
G1 X107.124 Y68.644 F9000
G1 F1200
G1 X109.056 Y67.113 E.07728
G1 X109.73 Y66.624 E.02613
G1 X110.421 Y66.161 E.02606
G1 X111.136 Y65.728 E.02622
G1 X111.881 Y65.334 E.02641
G1 X112.656 Y64.99 E.0266
G1 X113.454 Y64.703 E.02659
G1 X114.263 Y64.472 E.02638
G1 X115.078 Y64.288 E.0262
G1 X115.896 Y64.142 E.02604
G1 X116.72 Y64.026 E.02609
G1 X119.249 Y63.778 E.07968
G1 X120.92 Y63.945 E.05266
G1 X122.491 Y64.161 E.04972
G1 X123.289 Y64.313 E.02548
G1 X124.078 Y64.502 E.02544
G1 X124.861 Y64.74 E.02564
G1 X125.631 Y65.034 E.02584
G1 X126.376 Y65.385 E.02584
G1 X127.09 Y65.784 E.02564
G1 X127.774 Y66.22 E.02544
G1 X128.432 Y66.686 E.02527
G1 X129.074 Y67.177 E.02535
G1 X130.965 Y68.76 E.07732
G1 X132.494 Y70.713 E.07778
G1 X132.968 Y71.373 E.02548
G1 X133.417 Y72.048 E.02541
G1 X133.837 Y72.747 E.02557
G1 X134.22 Y73.474 E.02577
G1 X134.557 Y74.231 E.02597
G1 X134.838 Y75.01 E.02596
G1 X135.066 Y75.799 E.02577
G1 X135.248 Y76.594 E.02557
G1 X135.392 Y77.392 E.02541
G1 X135.508 Y78.196 E.02548
G1 X135.761 Y80.662 E.07773
G1 X135.5 Y83.133 E.0779
G1 X135.38 Y83.939 E.02555
G1 X135.231 Y84.737 E.02547
G1 X135.043 Y85.533 E.02564
G1 X134.809 Y86.323 E.02583
G1 X134.519 Y87.101 E.02603
G1 X134.173 Y87.856 E.02603
G1 X133.779 Y88.579 E.02583
G1 X133.348 Y89.274 E.02563
G1 X132.888 Y89.944 E.02547
G1 X132.402 Y90.597 E.02554
G1 X130.836 Y92.529 E.07795
G1 X128.897 Y94.097 E.0782
G1 X128.24 Y94.584 E.02563
G1 X127.568 Y95.044 E.02556
G1 X126.87 Y95.476 E.02572
G1 X126.143 Y95.869 E.02592
G1 X125.386 Y96.216 E.02612
G1 X124.604 Y96.505 E.02611
G1 X123.812 Y96.739 E.02591
G1 X123.013 Y96.926 E.02572
G1 X122.212 Y97.074 E.02556
G1 X121.403 Y97.193 E.02563
G1 X118.924 Y97.452 E.07816
G1 X116.456 Y97.196 E.07778
G1 X115.651 Y97.079 E.0255
G1 X114.854 Y96.933 E.02543
G1 X114.059 Y96.749 E.02559
G1 X113.269 Y96.518 E.02579
G1 X112.491 Y96.234 E.02599
G1 X111.735 Y95.893 E.02599
G1 X111.01 Y95.505 E.02579
G1 X110.313 Y95.081 E.02559
G1 X109.64 Y94.627 E.02543
G1 X108.983 Y94.148 E.0255
G1 X107.04 Y92.604 E.07783
G1 X105.463 Y90.691 E.07772
G1 X104.974 Y90.043 E.02547
G1 X104.511 Y89.378 E.0254
G1 X104.077 Y88.688 E.02556
G1 X103.68 Y87.969 E.02576
G1 X103.331 Y87.218 E.02596
G1 X103.04 Y86.443 E.02596
G1 X102.804 Y85.656 E.02576
G1 X102.616 Y84.863 E.02556
G1 X102.467 Y84.066 E.0254
G1 X102.318 Y82.989 E.03409
G1 X102.221 Y83.713 E.0229
G1 X102.072 Y84.51 E.02541
G1 X101.887 Y85.297 E.02536
G1 X101.655 Y86.079 E.02556
G1 X101.368 Y86.849 E.02577
G1 X101.025 Y87.596 E.02577
G1 X100.634 Y88.311 E.02557
G1 X100.206 Y88.998 E.02537
G1 X99.749 Y89.659 E.0252
G1 X99.267 Y90.305 E.02527
G1 X97.714 Y92.209 E.07705
G1 X96.402 Y93.273 E.05296
G1 X95.133 Y94.228 E.04978
G1 X94.46 Y94.684 E.02551
G1 X93.767 Y95.108 E.02547
G1 X93.045 Y95.494 E.02567
G1 X92.293 Y95.833 E.02587
G1 X91.518 Y96.116 E.02586
G1 X90.733 Y96.345 E.02566
G1 X89.941 Y96.528 E.02546
G1 X89.141 Y96.673 E.0255
G1 X87.567 Y96.88 E.04979
G1 X85.949 Y97.034 E.05096
G1 X82.897 Y97.034 E.09569
G1 X82.897 Y64.149 E1.03106
G1 X86.129 Y64.149 E.10134
G1 X87.726 Y64.293 E.05029
G1 X89.283 Y64.489 E.0492
G1 X90.075 Y64.628 E.0252
G1 X90.858 Y64.803 E.02516
G1 X91.636 Y65.023 E.02536
G1 X92.404 Y65.296 E.02556
G1 X93.151 Y65.624 E.02558
G1 X93.869 Y66 E.02539
G1 X94.558 Y66.412 E.02519
G1 X95.229 Y66.857 E.02522
G1 X96.491 Y67.789 E.0492
G1 X97.803 Y68.833 E.05256
G1 X99.343 Y70.726 E.07654
G1 X99.82 Y71.368 E.02506
G1 X100.271 Y72.024 E.02499
G1 X100.693 Y72.707 E.02516
G1 X101.078 Y73.419 E.02536
G1 X101.414 Y74.161 E.02556
G1 X101.694 Y74.926 E.02554
G1 X101.919 Y75.702 E.02533
G1 X102.098 Y76.483 E.02513
G1 X102.241 Y77.273 E.02518
G1 X102.356 Y78.169 E.0283
G1 X102.458 Y77.461 E.02241
G1 X102.605 Y76.647 E.02594
G1 X102.792 Y75.836 E.0261
G1 X103.026 Y75.031 E.02629
G1 X103.317 Y74.238 E.02649
G1 X103.666 Y73.468 E.02651
G1 X104.064 Y72.729 E.02631
G1 X104.501 Y72.02 E.02611
G1 X104.968 Y71.337 E.02595
G1 X105.462 Y70.669 E.02603
G1 X107.077 Y68.681 E.0803
G1 X107.358 Y68.94 F9000
G1 F1200
G1 X109.284 Y67.414 E.07703
G1 X109.946 Y66.933 E.02566
G1 X110.623 Y66.479 E.02556
G1 X111.322 Y66.056 E.0256
G1 X112.046 Y65.674 E.02567
G1 X112.797 Y65.34 E.02577
G1 X113.57 Y65.062 E.02576
G1 X114.357 Y64.837 E.02566
G1 X115.153 Y64.657 E.02559
G1 X115.955 Y64.515 E.02556
G1 X116.765 Y64.401 E.02564
G1 X119.247 Y64.156 E.0782
G1 X120.875 Y64.319 E.05131
G1 X122.43 Y64.533 E.0492
G1 X123.21 Y64.681 E.02489
G1 X123.979 Y64.866 E.02481
G1 X124.739 Y65.097 E.02488
G1 X125.483 Y65.381 E.02498
G1 X126.204 Y65.72 E.02498
G1 X126.897 Y66.107 E.02488
G1 X127.563 Y66.533 E.02481
G1 X128.208 Y66.99 E.02477
G1 X128.838 Y67.472 E.02487
G1 X130.692 Y69.024 E.07582
G1 X132.192 Y70.939 E.07629
G1 X132.658 Y71.587 E.02502
G1 X133.098 Y72.249 E.02493
G1 X133.508 Y72.932 E.02497
G1 X133.881 Y73.639 E.02505
G1 X134.207 Y74.372 E.02515
G1 X134.48 Y75.126 E.02515
G1 X134.701 Y75.893 E.02505
G1 X134.878 Y76.67 E.02497
G1 X135.02 Y77.452 E.02493
G1 X135.134 Y78.242 E.02502
G1 X135.382 Y80.662 E.07626
G1 X135.125 Y83.085 E.07642
G1 X135.008 Y83.876 E.02508
G1 X134.862 Y84.66 E.02498
G1 X134.679 Y85.436 E.02502
G1 X134.451 Y86.204 E.02509
G1 X134.171 Y86.957 E.02519
G1 X133.835 Y87.687 E.02519
G1 X133.453 Y88.39 E.02509
G1 X133.032 Y89.068 E.02502
G1 X132.581 Y89.724 E.02498
G1 X132.104 Y90.366 E.02508
G1 X130.569 Y92.26 E.07645
G1 X128.666 Y93.799 E.07671
G1 X128.021 Y94.276 E.02516
G1 X127.362 Y94.728 E.02506
G1 X126.681 Y95.149 E.0251
G1 X125.975 Y95.532 E.02518
G1 X125.242 Y95.867 E.02528
G1 X124.486 Y96.147 E.02528
G1 X123.715 Y96.374 E.02518
G1 X122.936 Y96.556 E.0251
G1 X122.15 Y96.702 E.02506
G1 X121.356 Y96.819 E.02516
G1 X118.923 Y97.073 E.07668
G1 X116.503 Y96.822 E.0763
G1 X115.713 Y96.707 E.02504
G1 X114.93 Y96.563 E.02494
G1 X114.154 Y96.384 E.02498
G1 X113.387 Y96.16 E.02506
G1 X112.633 Y95.884 E.02516
G1 X111.902 Y95.554 E.02516
G1 X111.197 Y95.178 E.02506
G1 X110.516 Y94.763 E.02498
G1 X109.857 Y94.319 E.02494
G1 X109.212 Y93.848 E.02504
G1 X107.305 Y92.334 E.07634
G1 X105.76 Y90.458 E.07622
G1 X105.279 Y89.821 E.025
G1 X104.825 Y89.17 E.0249
G1 X104.402 Y88.497 E.02494
G1 X104.017 Y87.798 E.02501
G1 X103.679 Y87.072 E.02511
G1 X103.397 Y86.322 E.02511
G1 X103.169 Y85.558 E.02501
G1 X102.985 Y84.784 E.02494
G1 X102.838 Y84.004 E.0249
G1 X102.721 Y83.215 E.025
G1 X102.465 Y80.8 E.07617
G1 X102.714 Y78.329 E.07787
G1 X102.83 Y77.522 E.02556
G1 X102.975 Y76.723 E.02545
G1 X103.157 Y75.931 E.02548
G1 X103.385 Y75.149 E.02555
G1 X103.666 Y74.38 E.02565
G1 X104.004 Y73.635 E.02566
G1 X104.391 Y72.917 E.02556
G1 X104.817 Y72.225 E.02549
G1 X105.276 Y71.555 E.02545
G1 X105.761 Y70.9 E.02556
G1 X107.314 Y68.98 E.07745
G1 X107.593 Y69.235 F9000
;TYPE:External perimeter
G1 F1200
G1 X109.512 Y67.714 E.07678
G1 X110.162 Y67.242 E.02519
G1 X110.826 Y66.797 E.02506
G1 X111.508 Y66.385 E.02498
G1 X112.211 Y66.013 E.02493
G1 X112.937 Y65.69 E.02493
G1 X113.685 Y65.421 E.02493
G1 X114.45 Y65.203 E.02493
G1 X115.227 Y65.027 E.02499
G1 X116.015 Y64.887 E.02507
G1 X116.81 Y64.775 E.02519
G1 X119.246 Y64.535 E.07673
G1 X120.831 Y64.694 E.04996
G1 X122.369 Y64.905 E.04868
G1 X123.131 Y65.05 E.02431
G1 X123.88 Y65.23 E.02418
G1 X124.616 Y65.454 E.02413
G1 X125.335 Y65.728 E.02412
G1 X126.031 Y66.056 E.02412
G1 X126.703 Y66.431 E.02413
G1 X127.353 Y66.846 E.02418
G1 X127.985 Y67.293 E.02426
G1 X128.602 Y67.766 E.02439
G1 X130.42 Y69.287 E.07432
G1 X131.891 Y71.166 E.0748
G1 X132.348 Y71.802 E.02456
G1 X132.779 Y72.451 E.02444
G1 X133.18 Y73.117 E.02437
G1 X133.541 Y73.804 E.02433
G1 X133.857 Y74.513 E.02433
G1 X134.121 Y75.242 E.02433
G1 X134.336 Y75.988 E.02433
G1 X134.509 Y76.746 E.02437
G1 X134.648 Y77.513 E.02444
G1 X134.76 Y78.288 E.02456
G1 X135.003 Y80.661 E.07479
G1 X134.751 Y83.038 E.07494
G1 X134.636 Y83.814 E.02461
G1 X134.493 Y84.582 E.02448
G1 X134.314 Y85.339 E.0244
G1 X134.093 Y86.084 E.02436
G1 X133.822 Y86.812 E.02435
G1 X133.498 Y87.518 E.02435
G1 X133.127 Y88.2 E.02436
G1 X132.716 Y88.861 E.0244
G1 X132.274 Y89.505 E.02448
G1 X131.806 Y90.135 E.02461
G1 X130.301 Y91.992 E.07496
G1 X128.435 Y93.5 E.07522
G1 X127.802 Y93.969 E.0247
G1 X127.156 Y94.412 E.02457
G1 X126.492 Y94.823 E.02449
G1 X125.806 Y95.194 E.02444
G1 X125.098 Y95.518 E.02444
G1 X124.367 Y95.789 E.02444
G1 X123.619 Y96.009 E.02444
G1 X122.859 Y96.187 E.02449
G1 X122.088 Y96.33 E.02457
G1 X121.309 Y96.445 E.0247
G1 X118.923 Y96.694 E.0752
G1 X116.55 Y96.448 E.07483
G1 X115.774 Y96.335 E.02457
G1 X115.007 Y96.194 E.02445
G1 X114.249 Y96.019 E.02438
G1 X113.505 Y95.801 E.02433
G1 X112.776 Y95.535 E.02433
G1 X112.068 Y95.216 E.02433
G1 X111.384 Y94.85 E.02433
G1 X110.72 Y94.446 E.02438
G1 X110.073 Y94.01 E.02445
G1 X109.44 Y93.548 E.02457
G1 X107.571 Y92.063 E.07484
G1 X106.056 Y90.224 E.07472
G1 X105.585 Y89.6 E.02453
G1 X105.139 Y88.962 E.02439
G1 X104.727 Y88.305 E.02431
G1 X104.353 Y87.628 E.02426
G1 X104.027 Y86.926 E.02426
G1 X103.755 Y86.202 E.02426
G1 X103.533 Y85.46 E.02426
G1 X103.354 Y84.706 E.02431
G1 X103.21 Y83.941 E.0244
G1 X103.095 Y83.168 E.02453
G1 X102.844 Y80.799 E.07469
G1 X103.088 Y78.374 E.0764
G1 X103.202 Y77.582 E.02509
G1 X103.344 Y76.799 E.02496
G1 X103.522 Y76.026 E.02487
G1 X103.743 Y75.266 E.02481
G1 X104.015 Y74.523 E.02481
G1 X104.342 Y73.803 E.02481
G1 X104.718 Y73.106 E.02481
G1 X105.134 Y72.431 E.02487
G1 X105.583 Y71.774 E.02495
G1 X106.059 Y71.131 E.02508
