; generated by PrusaSlicer 2.4.2+win64 on 2022-08-02 at 19:24:16 UTC

; 

; external perimeters extrusion width = 0.45mm
; perimeters extrusion width = 0.45mm
; infill extrusion width = 0.45mm
; solid infill extrusion width = 0.45mm
; top infill extrusion width = 0.40mm
; first layer extrusion width = 0.40mm

M107
;TYPE:Custom
G90 ; use absolute coordinates
M83 ; extruder relative mode
M140 S110 ; set final bed temp
M104 S150 ; set temporary nozzle temp to prevent oozing during homing
G4 S10 ; allow partial nozzle warmup
G28 ; home all axis
G1 Z50 F240
G1 X2 Y10 F3000
M104 S245 ; set final nozzle temp
M190 S110 ; wait for bed temp to stabilize
M109 S245 ; wait for nozzle temp to stabilize
G1 Z0.28 F240
G92 E0
G1 Y140 E10 F1500 ; prime the nozzle
G1 X2.3 F5000
G92 E0
G1 Y10 E10 F1200 ; prime the nozzle
G92 E0
G21 ; set units to millimeters
G90 ; use absolute coordinates
M83 ; use relative distances for extrusion
; Filament gcode
M107
;LAYER_CHANGE
;Z:0.2
;HEIGHT:0.2
;BEFORE_LAYER_CHANGE
G92 E0
;0.2


G1 E-5 F3600
G1 Z.2 F9000
;AFTER_LAYER_CHANGE
;0.2
G1 X104.355 Y52.739
G1 E5 F2400
M204 S500
;TYPE:Skirt/Brim
;WIDTH:0.4
G1 F1200
G1 X104.793 Y51.872 E.02883
G1 X106.541 Y50.638 E.06353
G1 X193.527 Y18.992 E2.74836
G1 X195.306 Y18.765 E.05325
G1 X197.01 Y19.325 E.05325
G1 X198.308 Y20.563 E.05325
G1 X198.743 Y21.421 E.02857
G1 X213.464 Y61.88 E1.27832
G1 X213.71 Y63.272 E.04197
G1 X213.71 Y93.216 E.88908
G1 X213.62 Y94.78 E.04652
G1 X212.815 Y99.35 E.13779
G1 X212.351 Y100.879 E.04743
G1 X211.893 Y101.807 E.03074
G1 X211.159 Y102.874 E.03844
G1 X210.41 Y103.676 E.03258
G1 X209.387 Y104.489 E.03882
G1 X208.01 Y105.228 E.04639
G1 X205.018 Y106.3 E.09436
G1 X203.478 Y106.571 E.04641
G1 X201.916 Y106.541 E.04639
G1 X106.467 Y93.186 E2.86161
G1 X104.719 Y92.748 E.05351
G1 X103.131 Y91.948 E.0528
G1 X99.614 Y89.384 E.12923
G1 X98.889 Y88.685 E.02991
G1 X98.257 Y87.904 E.02981
G1 X97.395 Y86.353 E.05269
G1 X96.9 Y84.685 E.05166
G1 X96.774 Y82.9 E.05314
G1 X96.983 Y81.381 E.04554
G1 X103.984 Y53.473 E.85429
G1 X104.328 Y52.792 E.02265
G1 X104.643 Y52.956 F9000
G1 F1200
G1 X105.118 Y52.04 E.03063
G1 X106.663 Y50.973 E.05572
G1 X193.649 Y19.327 E2.74836
G1 X195.35 Y19.129 E.05083
G1 X196.959 Y19.714 E.05083
G1 X198.407 Y21.544 E.06929
G1 X213.129 Y62.002 E1.2783
G1 X213.353 Y63.272 E.03829
G1 X213.353 Y93.216 E.88908
G1 X213.265 Y94.748 E.04558
G1 X212.466 Y99.276 E.13651
G1 X212.024 Y100.736 E.04529
G1 X211.586 Y101.624 E.02939
G1 X210.878 Y102.654 E.03711
G1 X210.163 Y103.419 E.03108
G1 X209.194 Y104.189 E.03677
G1 X207.878 Y104.896 E.04435
G1 X204.927 Y105.955 E.0931
G1 X203.456 Y106.215 E.04434
G1 X201.964 Y106.187 E.04431
G1 X106.521 Y92.832 E2.86144
G1 X104.839 Y92.412 E.05148
G1 X103.33 Y91.652 E.05017
G1 X99.849 Y89.115 E.12788
G1 X98.989 Y88.261 E.03597
G1 X98.409 Y87.496 E.02852
G1 X97.722 Y86.21 E.04328
G1 X97.252 Y84.625 E.04908
G1 X97.131 Y82.909 E.05109
G1 X97.332 Y81.458 E.04349
G1 X104.33 Y53.56 E.85399
G1 X104.616 Y53.009 E.01842
G1 X104.928 Y53.176 F9000
G1 F1200
G1 X105.443 Y52.212 E.03244
G1 X106.785 Y51.309 E.04803
G1 X193.771 Y19.663 E2.74835
G1 X195.389 Y19.494 E.04829
G1 X196.896 Y20.105 E.04829
G1 X198.072 Y21.666 E.05803
G1 X212.793 Y62.124 E1.27829
G1 X212.996 Y63.272 E.0346
G1 X212.996 Y93.216 E.88908
G1 X212.909 Y94.717 E.04464
G1 X212.116 Y99.202 E.13523
G1 X211.697 Y100.593 E.04316
G1 X211.28 Y101.441 E.02804
G1 X210.597 Y102.434 E.03577
G1 X209.916 Y103.161 E.02958
G1 X209.001 Y103.889 E.03472
G1 X207.746 Y104.564 E.0423
G1 X204.835 Y105.61 E.09183
G1 X203.434 Y105.858 E.04227
G1 X202.011 Y105.833 E.04224
G1 X106.574 Y92.479 E2.86126
G1 X104.958 Y92.075 E.04945
G1 X103.528 Y91.355 E.04754
G1 X100.084 Y88.846 E.12654
G1 X99.256 Y88.023 E.03465
G1 X98.703 Y87.293 E.0272
G1 X98.049 Y86.066 E.04126
G1 X97.604 Y84.565 E.0465
G1 X97.482 Y83.167 E.04165
G1 X97.627 Y81.776 E.04152
G1 X104.676 Y53.647 E.86104
G1 X104.9 Y53.229 E.01407
G1 E-3.5 F3600
;WIPE_START
G1 F7200
G1 X105.443 Y52.212 E-.54752
G1 X106.785 Y51.309 E-.76833
G1 X107.001 Y51.23 E-.10915
;WIPE_END
G1 E-.075 F3600
G1 X110.615 Y58.349 F9000
G1 E5 F2400
;TYPE:Perimeter
G1 F1200
G1 X110.499 Y58.544 E.00673
G1 X110.277 Y59.016 E.01549
G1 X110.167 Y59.32 E.00959
G1 X110.031 Y59.856 E.01644
G1 X109.969 Y60.391 E.01598
G1 X109.962 Y60.717 E.00967
G1 X110 Y61.245 E.01575
G1 X110.058 Y61.566 E.00968
G1 X110.199 Y62.077 E.01574
G1 X110.319 Y62.382 E.00972
G1 X110.561 Y62.863 E.01599
G1 X110.88 Y63.334 E.01689
G1 X111.245 Y63.743 E.01626
G1 X111.481 Y63.963 E.0096
G1 X111.901 Y64.283 E.01568
G1 X110.766 Y64.283 E.03371
G1 X110.361 Y64.322 E.01208
G1 X109.853 Y64.487 E.01588
G1 X109.534 Y64.66 E.01077
G1 X109.179 Y64.94 E.01344
G1 X108.808 Y65.389 E.01728
G1 X108.576 Y65.898 E.0166
G1 X105.235 Y79.201 E.40725
G1 X103.337 Y78.935 E.05689
G1 X102.767 Y84.842 E.17618
G1 X102.623 Y84.645 E.00722
G1 X102.454 Y84.338 E.01041
G1 X102.291 Y83.878 E.01448
G1 X102.234 Y83.589 E.00877
G1 X102.211 Y83.222 E.01091
G1 X102.255 Y82.752 E.01402
G1 X109.086 Y55.503 E.83407
G1 X109.523 Y55.344 E.01383
G1 X110.595 Y58.293 E.09315
G1 X110.928 Y58.164 F9000
G1 F1200
G1 X111.287 Y58.033 E.01134
G1 X110.965 Y58.459 E.01585
G1 X110.815 Y58.712 E.00872
G1 X110.607 Y59.153 E.01448
G1 X110.508 Y59.424 E.00857
G1 X110.383 Y59.921 E.0152
G1 X110.326 Y60.415 E.01478
G1 X110.32 Y60.708 E.00868
G1 X110.355 Y61.201 E.01469
G1 X110.406 Y61.487 E.00863
G1 X110.538 Y61.964 E.01468
G1 X110.646 Y62.236 E.00868
G1 X110.87 Y62.682 E.01483
G1 X111.163 Y63.114 E.01551
G1 X111.5 Y63.493 E.01506
G1 X111.712 Y63.69 E.00858
G1 X112.115 Y63.996 E.01503
G1 X112.555 Y64.249 E.01506
G1 X112.821 Y64.369 E.00868
G1 X113.304 Y64.53 E.01511
G1 X113.814 Y64.629 E.01543
G1 X113.985 Y64.641 E.00509
G1 X110.783 Y64.64 E.09505
G1 X110.434 Y64.673 E.01041
G1 X109.994 Y64.816 E.01373
G1 X109.731 Y64.96 E.00889
G1 X109.43 Y65.197 E.01141
G1 X109.114 Y65.58 E.01474
G1 X108.915 Y66.017 E.01424
G1 X105.503 Y79.599 E.41581
G1 X103.657 Y79.341 E.05535
G1 X103.051 Y85.618 E.18724
G1 X102.787 Y85.402 E.01011
G1 X102.549 Y85.148 E.01035
G1 X102.321 Y84.838 E.01142
G1 X102.07 Y84.352 E.01623
G1 X101.946 Y83.973 E.01185
G1 X101.879 Y83.63 E.01037
G1 X101.857 Y83.069 E.01667
G1 X101.904 Y82.687 E.01144
G1 X108.785 Y55.233 E.84037
G1 X109.737 Y54.887 E.03007
G1 X110.907 Y58.107 E.10174
G1 X111.556 Y58.268 F9000
G1 F1200
G1 X111.87 Y57.943 E.0134
G1 X112.234 Y57.653 E.01382
G1 X112.654 Y57.399 E.01458
G1 X113.062 Y57.218 E.01326
G1 X187.006 Y30.318 E2.33625
G1 X187.662 Y30.124 E.02031
G1 X188.02 Y30.055 E.01083
G1 X188.382 Y30.008 E.01083
G1 X189.076 Y29.984 E.02062
G1 X189.789 Y30.047 E.02127
G1 X190.475 Y30.199 E.02087
G1 X190.831 Y30.313 E.0111
G1 X191.478 Y30.59 E.02088
G1 X192.091 Y30.95 E.02112
G1 X192.653 Y31.385 E.0211
G1 X193.157 Y31.887 E.02113
G1 X193.594 Y32.446 E.02105
G1 X193.958 Y33.059 E.02117
G1 X194.235 Y33.691 E.02049
G1 X202.708 Y57.075 E.73849
G1 X202.867 Y57.784 E.02156
G1 X202.932 Y58.493 E.02115
G1 X202.932 Y58.873 E.01128
G1 X202.861 Y59.576 E.02097
G1 X202.787 Y59.949 E.01128
G1 X202.584 Y60.626 E.02101
G1 X202.439 Y60.975 E.0112
G1 X202.113 Y61.6 E.02093
G1 X201.903 Y61.92 E.01135
G1 X201.462 Y62.469 E.02092
G1 X201.205 Y62.733 E.01094
G1 X200.93 Y62.983 E.01104
G1 X200.357 Y63.41 E.02123
G1 X199.734 Y63.758 E.0212
G1 X199.387 Y63.913 E.01128
G1 X198.716 Y64.134 E.02096
G1 X198.354 Y64.217 E.01103
G1 X197.989 Y64.275 E.01097
G1 X197.295 Y64.321 E.02067
G1 X114.312 Y64.305 E2.46385
G1 X113.86 Y64.274 E.01347
G1 X113.395 Y64.184 E.01406
G1 X112.951 Y64.036 E.01388
G1 X112.717 Y63.93 E.00763
G1 X112.312 Y63.698 E.01385
G1 X111.942 Y63.416 E.01382
G1 X111.755 Y63.243 E.00756
G1 X111.445 Y62.894 E.01385
G1 X111.179 Y62.501 E.01412
G1 X110.972 Y62.089 E.01367
G1 X110.877 Y61.85 E.00764
G1 X110.755 Y61.408 E.01362
G1 X110.71 Y61.157 E.00758
G1 X110.677 Y60.699 E.01363
G1 X110.683 Y60.44 E.00769
G1 X110.735 Y59.985 E.01358
G1 X110.85 Y59.529 E.01396
G1 X110.937 Y59.29 E.00754
G1 X111.13 Y58.88 E.01348
G1 X111.263 Y58.658 E.00767
G1 X111.518 Y58.314 E.01272
G1 X111.813 Y58.516 F9000
;TYPE:External perimeter
G1 F1200
G1 X112.11 Y58.207 E.01271
G1 X112.442 Y57.943 E.0126
G1 X112.814 Y57.718 E.01291
G1 X113.196 Y57.549 E.01238
G1 X187.117 Y30.657 E2.33556
G1 X187.747 Y30.472 E.01948
G1 X188.077 Y30.407 E.00998
G1 X188.411 Y30.365 E.01
G1 X189.066 Y30.341 E.01947
G1 X189.734 Y30.401 E.01992
G1 X190.382 Y30.544 E.0197
G1 X190.706 Y30.648 E.0101
G1 X191.316 Y30.91 E.01971
G1 X191.891 Y31.247 E.01978
G1 X192.417 Y31.654 E.01975
G1 X192.89 Y32.125 E.01981
G1 X193.298 Y32.648 E.01972
G1 X193.64 Y33.223 E.01985
G1 X193.904 Y33.824 E.01949
G1 X202.365 Y57.175 E.73746
G1 X202.513 Y57.839 E.0202
G1 X202.575 Y58.51 E.01998
G1 X202.575 Y58.855 E.01026
G1 X202.507 Y59.523 E.01994
G1 X202.44 Y59.863 E.01026
G1 X202.247 Y60.506 E.01995
G1 X202.115 Y60.824 E.0102
G1 X201.805 Y61.419 E.01994
G1 X201.614 Y61.709 E.01031
G1 X201.194 Y62.232 E.0199
G1 X200.957 Y62.476 E.0101
G1 X200.703 Y62.707 E.0102
G1 X200.162 Y63.11 E.02002
G1 X199.574 Y63.439 E.02002
G1 X199.258 Y63.579 E.01026
G1 X198.62 Y63.789 E.01994
G1 X198.286 Y63.866 E.01018
G1 X197.949 Y63.92 E.01012
G1 X197.283 Y63.964 E.01983
G1 X114.324 Y63.948 E2.46315
G1 X113.906 Y63.92 E.01245
G1 X113.486 Y63.838 E.0127
G1 X113.082 Y63.703 E.01265
G1 X112.879 Y63.612 E.00658
G1 X112.51 Y63.4 E.01264
G1 X112.172 Y63.143 E.01262
G1 X112.011 Y62.993 E.00653
G1 X111.728 Y62.675 E.01265
G1 X111.487 Y62.32 E.01273
G1 X111.298 Y61.943 E.01251
G1 X111.216 Y61.737 E.0066
G1 X111.103 Y61.329 E.01257
G1 X111.065 Y61.112 E.00653
G1 X111.034 Y60.69 E.01258
G1 X111.039 Y60.464 E.00671
G1 X111.087 Y60.05 E.01239
G1 X111.192 Y59.634 E.01272
G1 X111.267 Y59.428 E.00652
G1 X111.446 Y59.048 E.01248
G1 X111.56 Y58.856 E.00662
G1 X111.777 Y58.564 E.01082
G1 X111.682 Y58.138 F9000
G1 E-3.5 F3600
;WIPE_START
G1 F7200
G1 X112.11 Y58.207 E-.23157
G1 X112.442 Y57.943 E-.20162
G1 X112.814 Y57.718 E-.20652
G1 X113.196 Y57.549 E-.1981
G1 X114.357 Y57.126 E-.5872
;WIPE_END
G1 E-.075 F3600
G1 X190.701 Y29.521 F9000
G1 E5 F2400
;TYPE:Perimeter
G1 F1200
G1 X192.014 Y29.043 E.04151
G1 X192.493 Y30.358 E.04154
G1 X191.8 Y29.952 E.02384
G1 X191.082 Y29.643 E.02322
G1 X190.758 Y29.54 E.01009
G1 X190.649 Y29.88 F9000
G1 F1200
G1 X189.844 Y29.694 E.02454
G1 X189.313 Y29.646 E.01583
G1 X192.228 Y28.586 E.09211
G1 X193.296 Y31.522 E.09276
G1 X192.889 Y31.117 E.01705
G1 X192.292 Y30.654 E.02244
G1 X191.639 Y30.271 E.02247
G1 X190.956 Y29.978 E.02205
G1 X190.706 Y29.898 E.0078
G1 E-3.5 F3600
;WIPE_START
G1 F7200
G1 X189.844 Y29.694 E-.42104
G1 X189.313 Y29.646 E-.25318
G1 X190.798 Y29.106 E-.75078
;WIPE_END
G1 E-.075 F3600
G1 X203.409 Y60.361 F9000
G1 E5 F2400
G1 F1200
G1 X204.499 Y63.357 E.09465
G1 X207.776 Y62.164 E.10355
G1 X208.267 Y63.513 E.04263
G1 X208.267 Y93.193 E.88123
G1 X208.253 Y93.635 E.01313
G1 X205.888 Y93.305 E.0709
G1 X205.888 Y66.609 E.79262
G1 X205.849 Y66.229 E.01135
G1 X205.759 Y65.895 E.01028
G1 X205.575 Y65.488 E.01327
G1 X205.302 Y65.11 E.01383
G1 X204.98 Y64.806 E.01314
G1 X204.686 Y64.61 E.01049
G1 X204.28 Y64.425 E.01326
G1 X203.806 Y64.315 E.01443
G1 X200.203 Y64.314 E.10698
G1 X200.746 Y64.011 E.01847
G1 X201.384 Y63.534 E.02364
G1 X201.701 Y63.247 E.01271
G1 X201.998 Y62.943 E.0126
G1 X202.482 Y62.34 E.02294
G1 X202.73 Y61.962 E.01343
G1 X203.087 Y61.277 E.02292
G1 X203.257 Y60.867 E.0132
G1 X203.392 Y60.418 E.0139
G1 X202.92 Y60.746 F9000
G1 F1200
G1 X203.134 Y60.035 E.02206
G1 X203.214 Y59.629 E.0123
G1 X203.281 Y58.965 E.0198
G1 X204.713 Y62.899 E.12429
G1 X207.99 Y61.707 E.10355
G1 X208.624 Y63.451 E.0551
G1 X208.624 Y93.199 E.88327
G1 X208.606 Y93.76 E.01666
G1 X208.557 Y94.303 E.0162
G1 X208.472 Y94.855 E.01657
G1 X207.841 Y98.291 E.10372
G1 X207.735 Y98.712 E.01288
G1 X207.508 Y99.228 E.01675
G1 X207.297 Y99.557 E.01162
G1 X207.082 Y99.812 E.0099
G1 X208.153 Y93.982 E.17601
G1 X205.531 Y93.615 E.07862
G1 X205.531 Y66.628 E.8013
G1 X205.496 Y66.295 E.00995
G1 X205.421 Y66.016 E.00858
G1 X205.265 Y65.667 E.01134
G1 X205.032 Y65.347 E.01175
G1 X204.757 Y65.087 E.01125
G1 X204.512 Y64.923 E.00874
G1 X204.164 Y64.765 E.01135
G1 X203.765 Y64.673 E.01216
G1 X197.423 Y64.67 E.18831
G1 X198.029 Y64.63 E.01804
G1 X198.423 Y64.568 E.01183
G1 X198.812 Y64.478 E.01188
G1 X199.515 Y64.247 E.02198
G1 X199.894 Y64.078 E.0123
G1 X200.552 Y63.71 E.02237
G1 X201.157 Y63.259 E.02243
G1 X201.73 Y62.706 E.02364
G1 X202.192 Y62.13 E.02193
G1 X202.422 Y61.781 E.01239
G1 X202.763 Y61.126 E.02193
G1 X202.897 Y60.802 E.01042
G1 E-3.5 F3600
;WIPE_START
G1 F7200
G1 X203.134 Y60.035 E-.38125
G1 X203.214 Y59.629 E-.19676
G1 X203.281 Y58.965 E-.31677
G1 X203.663 Y60.014 E-.53022
;WIPE_END
G1 E-.075 F3600
G1 X111.141 Y57.706 F9000
G1 E5 F2400
G1 F1200
G1 X192.441 Y28.128 E2.56869
G1 X204.926 Y62.441 E1.08414
G1 X208.016 Y61.317 E.09762
G1 X195.532 Y27.003 E1.08416
G1 X195.719 Y26.935 E.00591
G1 X208.981 Y63.388 E1.15173
G1 X208.981 Y93.205 E.88532
G1 X208.962 Y93.782 E.01713
G1 X208.912 Y94.346 E.01684
G1 X208.825 Y94.914 E.01706
G1 X208.19 Y98.366 E.10421
G1 X208.078 Y98.815 E.01374
G1 X208.01 Y99.003 E.00592
G1 X207.821 Y99.402 E.01311
G1 X207.585 Y99.769 E.01297
G1 X207.306 Y100.101 E.01286
G1 X206.977 Y100.4 E.0132
G1 X206.811 Y100.524 E.00614
G1 X206.637 Y100.636 E.00615
G1 X206.243 Y100.841 E.0132
G1 X203.783 Y101.736 E.07771
G1 X203.593 Y101.786 E.00585
G1 X203.163 Y101.852 E.01292
G1 X202.529 Y101.852 E.01881
G1 X202.1 Y101.781 E.01293
G1 X201.689 Y101.657 E.01274
G1 X201.247 Y101.454 E.01445
G1 X202.194 Y101.592 E.02842
G1 X206.693 Y99.957 E.14213
G1 X207.735 Y94.284 E.17125
G1 X205.174 Y93.926 E.07678
G1 X205.174 Y66.646 E.80998
G1 X205.144 Y66.36 E.00855
G1 X205.084 Y66.136 E.00688
G1 X204.954 Y65.847 E.00941
G1 X204.763 Y65.583 E.00967
G1 X204.534 Y65.367 E.00936
G1 X204.338 Y65.236 E.00699
G1 X204.049 Y65.105 E.00943
G1 X203.724 Y65.03 E.00989
G1 X110.8 Y64.997 E2.75904
G1 X110.507 Y65.025 E.00874
G1 X110.136 Y65.145 E.01159
G1 X109.929 Y65.259 E.00702
G1 X109.681 Y65.454 E.00938
G1 X109.419 Y65.771 E.0122
G1 X109.253 Y66.135 E.01188
G1 X105.771 Y79.997 E.42437
G1 X103.976 Y79.746 E.0538
G1 X103.422 Y85.485 E.17118
G1 X107.296 Y88.297 E.14213
G1 X108.308 Y88.433 E.0303
G1 X107.792 Y88.516 E.01552
G1 X107.363 Y88.522 E.01274
G1 X106.94 Y88.474 E.01263
G1 X106.524 Y88.37 E.01272
G1 X106.124 Y88.215 E.01274
G1 X105.748 Y88.009 E.01275
G1 X102.89 Y85.948 E.10461
G1 X102.547 Y85.666 E.01319
G1 X102.271 Y85.373 E.01196
G1 X102.02 Y85.03 E.01262
G1 X101.737 Y84.48 E.01837
G1 X101.601 Y84.067 E.01289
G1 X101.524 Y83.672 E.01197
G1 X101.496 Y83.236 E.01296
G1 X101.501 Y83.044 E.00572
G1 X101.552 Y82.622 E.01262
G1 X108.485 Y54.962 E.84666
G1 X191.25 Y24.851 E2.61496
G1 X191.318 Y25.039 E.00591
G1 X110.019 Y54.616 E2.56866
G1 X111.121 Y57.649 E.09583
G1 X111.355 Y57.248 F9000
;TYPE:External perimeter
G1 F1200
G1 X192.655 Y27.671 E2.56869
G1 X205.14 Y61.984 E1.08414
G1 X207.558 Y61.104 E.07641
G1 X195.074 Y26.79 E1.08416
G1 X195.933 Y26.478 E.02712
G1 X209.339 Y63.325 E1.16419
G1 X209.339 Y93.211 E.88736
G1 X209.319 Y93.803 E.01761
G1 X209.267 Y94.39 E.01747
G1 X209.177 Y94.974 E.01755
G1 X208.539 Y98.442 E.1047
G1 X208.42 Y98.919 E.0146
G1 X208.341 Y99.14 E.00697
G1 X208.134 Y99.576 E.01432
G1 X207.873 Y99.982 E.01433
G1 X207.564 Y100.349 E.01425
G1 X207.204 Y100.675 E.01442
G1 X206.817 Y100.945 E.01402
G1 X206.387 Y101.169 E.01438
G1 X203.89 Y102.077 E.07889
G1 X203.666 Y102.136 E.00689
G1 X203.195 Y102.209 E.01414
G1 X202.72 Y102.222 E.01413
G1 X202.489 Y102.207 E.00686
G1 X202.019 Y102.129 E.01416
G1 X201.565 Y101.992 E.01407
G1 X201.13 Y101.8 E.01412
G1 X200.096 Y101.186 E.0357
G1 X199.569 Y100.762 E.02008
G1 X200.227 Y100.854 E.01973
G1 X200.676 Y100.984 E.01388
G1 X201.149 Y101.079 E.01434
G1 X202.156 Y101.225 E.03021
G1 X206.379 Y99.691 E.13338
G1 X207.316 Y94.586 E.15411
G1 X204.817 Y94.237 E.07494
G1 X204.817 Y66.664 E.81866
G1 X204.792 Y66.425 E.00715
G1 X204.746 Y66.257 E.00518
G1 X204.643 Y66.027 E.00748
G1 X204.493 Y65.82 E.00759
G1 X204.311 Y65.647 E.00746
