; generated by PrusaSlicer 2.4.2+win64 on 2022-08-02 at 19:23:43 UTC

; 

; external perimeters extrusion width = 0.45mm
; perimeters extrusion width = 0.45mm
; infill extrusion width = 0.45mm
; solid infill extrusion width = 0.45mm
; top infill extrusion width = 0.40mm
; first layer extrusion width = 0.40mm

; external perimeters extrusion width = 0.45mm
; perimeters extrusion width = 0.45mm
; infill extrusion width = 0.45mm
; solid infill extrusion width = 0.45mm
; top infill extrusion width = 0.40mm
; first layer extrusion width = 0.40mm

; external perimeters extrusion width = 0.45mm
; perimeters extrusion width = 0.45mm
; infill extrusion width = 0.45mm
; solid infill extrusion width = 0.45mm
; top infill extrusion width = 0.40mm
; first layer extrusion width = 0.40mm

; external perimeters extrusion width = 0.45mm
; perimeters extrusion width = 0.45mm
; infill extrusion width = 0.45mm
; solid infill extrusion width = 0.45mm
; top infill extrusion width = 0.40mm
; first layer extrusion width = 0.40mm

; external perimeters extrusion width = 0.45mm
; perimeters extrusion width = 0.45mm
; infill extrusion width = 0.45mm
; solid infill extrusion width = 0.45mm
; top infill extrusion width = 0.40mm
; first layer extrusion width = 0.40mm

; external perimeters extrusion width = 0.45mm
; perimeters extrusion width = 0.45mm
; infill extrusion width = 0.45mm
; solid infill extrusion width = 0.45mm
; top infill extrusion width = 0.40mm
; first layer extrusion width = 0.40mm

M107
;TYPE:Custom
G90 ; use absolute coordinates
M83 ; extruder relative mode
M140 S110 ; set final bed temp
M104 S150 ; set temporary nozzle temp to prevent oozing during homing
G4 S10 ; allow partial nozzle warmup
G28 ; home all axis
G1 Z50 F240
G1 X2 Y10 F3000
M104 S245 ; set final nozzle temp
M190 S110 ; wait for bed temp to stabilize
M109 S245 ; wait for nozzle temp to stabilize
G1 Z0.28 F240
G92 E0
G1 Y140 E10 F1500 ; prime the nozzle
G1 X2.3 F5000
G92 E0
G1 Y10 E10 F1200 ; prime the nozzle
G92 E0
G21 ; set units to millimeters
G90 ; use absolute coordinates
M83 ; use relative distances for extrusion
; Filament gcode
M107
;LAYER_CHANGE
;Z:0.2
;HEIGHT:0.2
;BEFORE_LAYER_CHANGE
G92 E0
;0.2


G1 E-5 F3600
G1 Z.2 F9000
;AFTER_LAYER_CHANGE
;0.2
G1 X45.961 Y32.884
G1 E5 F2400
M204 S500
;TYPE:Skirt/Brim
;WIDTH:0.4
G1 F1200
G1 X46.772 Y31.874 E.03844
G1 X47.565 Y31.203 E.03084
G1 X48.534 Y30.643 E.03324
G1 X49.509 Y30.292 E.03077
G1 X50.604 Y30.104 E.03298
G1 X194.599 Y18.759 E4.28863
G1 X196.374 Y19.016 E.05325
G1 X197.867 Y20.01 E.05325
G1 X198.743 Y21.421 E.04932
G1 X213.464 Y61.88 E1.27832
G1 X213.71 Y63.272 E.04197
G1 X213.71 Y93.216 E.88908
G1 X213.62 Y94.78 E.04652
G1 X202.532 Y203.43 E3.24271
G1 X201.962 Y205.13 E.05325
G1 X200.716 Y206.42 E.05325
G1 X198.836 Y207.072 E.05906
G1 X126.196 Y213.418 E2.16501
G1 X125.078 Y213.44 E.03321
G1 X28.834 Y200.002 E2.8853
G1 X27.58 Y199.689 E.03838
G1 X26.164 Y199.055 E.04605
G1 X22.719 Y196.62 E.12527
G1 X21.826 Y195.869 E.03464
G1 X20.734 Y194.553 E.05077
G1 X19.908 Y192.941 E.0538
G1 X19.477 Y191.294 E.05053
G1 X19.406 Y189.519 E.05274
G1 X27.989 Y85.198 E3.10791
G1 X28.249 Y84.157 E.03184
G1 X45.337 Y34.17 E1.56851
G1 X45.935 Y32.938 E.04066
G1 X46.254 Y33.092 F9000
G1 F1200
G1 X47.023 Y32.128 E.03663
G1 X47.769 Y31.496 E.02903
G1 X48.686 Y30.967 E.03143
G1 X49.604 Y30.636 E.02896
G1 X50.632 Y30.46 E.03098
G1 X194.627 Y19.115 E4.28863
G1 X196.319 Y19.378 E.05083
G1 X197.713 Y20.371 E.05083
G1 X198.407 Y21.544 E.04046
G1 X213.129 Y62.002 E1.2783
G1 X213.353 Y63.272 E.03829
G1 X213.318 Y94.144 E.91665
G1 X202.177 Y203.394 E3.26057
G1 X201.615 Y205.011 E.05083
G1 X200.388 Y206.204 E.05083
G1 X198.805 Y206.716 E.04938
G1 X126.165 Y213.062 E2.16501
G1 X125.1 Y213.083 E.03162
G1 X28.888 Y199.649 E2.88438
G1 X27.458 Y199.266 E.04395
G1 X26.126 Y198.618 E.04398
G1 X22.929 Y196.331 E.11671
G1 X22.08 Y195.618 E.03291
G1 X21.028 Y194.35 E.04891
G1 X20.244 Y192.821 E.05103
G1 X19.829 Y191.234 E.0487
G1 X19.762 Y189.548 E.05008
G1 X28.342 Y85.251 E3.10719
G1 X28.587 Y84.273 E.02994
G1 X45.675 Y34.285 E1.56851
G1 X46.228 Y33.146 E.03759
G1 X46.547 Y33.301 F9000
G1 F1200
G1 X47.274 Y32.382 E.03482
G1 X47.974 Y31.789 E.02722
G1 X48.838 Y31.29 E.02963
G1 X49.698 Y30.98 E.02715
G1 X50.66 Y30.816 E.02898
G1 X194.655 Y19.471 E4.28863
G1 X196.259 Y19.74 E.04829
G1 X197.549 Y20.731 E.04829
G1 X198.072 Y21.666 E.03182
G1 X212.793 Y62.124 E1.27829
G1 X212.996 Y63.272 E.0346
G1 X212.963 Y94.113 E.91571
G1 X201.822 Y203.357 E3.26043
G1 X201.27 Y204.887 E.04829
G1 X200.063 Y205.978 E.04829
G1 X198.774 Y206.361 E.03992
G1 X126.134 Y212.707 E2.16501
G1 X125.122 Y212.727 E.03004
G1 X28.941 Y199.296 E2.88345
G1 X27.577 Y198.93 E.04192
G1 X26.308 Y198.311 E.04194
G1 X23.138 Y196.042 E.11572
G1 X22.334 Y195.367 E.03118
G1 X21.322 Y194.147 E.04706
G1 X20.581 Y192.701 E.04827
G1 X20.181 Y191.173 E.04687
G1 X20.118 Y189.578 E.04742
G1 X28.695 Y85.304 E3.10648
G1 X28.925 Y84.388 E.02804
G1 X46.013 Y34.401 E1.56851
G1 X46.52 Y33.355 E.03452
G1 E-3.5 F3600
;WIPE_START
G1 F7200
G1 X47.274 Y32.382 E-.58484
G1 X47.974 Y31.789 E-.43539
G1 X48.711 Y31.363 E-.40478
;WIPE_END
G1 E-.075 F3600
G1 X110.048 Y59.787 F9000
G1 E5 F2400
;TYPE:Perimeter
G1 F1200
G1 X109.969 Y60.391 E.01808
G1 X109.962 Y60.717 E.00967
G1 X110 Y61.245 E.01575
G1 X110.058 Y61.566 E.00968
G1 X110.199 Y62.077 E.01574
G1 X110.319 Y62.382 E.00972
G1 X110.561 Y62.863 E.01599
G1 X110.88 Y63.334 E.01689
G1 X111.245 Y63.743 E.01626
G1 X111.481 Y63.963 E.0096
G1 X111.901 Y64.283 E.01568
G1 X110.766 Y64.283 E.03371
G1 X110.361 Y64.322 E.01208
G1 X109.853 Y64.487 E.01588
G1 X109.534 Y64.66 E.01077
G1 X109.179 Y64.94 E.01344
G1 X108.808 Y65.389 E.01728
G1 X108.576 Y65.898 E.0166
G1 X105.235 Y79.201 E.40725
G1 X103.337 Y78.935 E.05689
G1 X102.767 Y84.842 E.17618
G1 X102.623 Y84.645 E.00722
G1 X102.454 Y84.338 E.01041
G1 X102.291 Y83.878 E.01448
G1 X102.234 Y83.589 E.00877
G1 X102.211 Y83.222 E.01091
G1 X102.255 Y82.752 E.01402
G1 X109.086 Y55.503 E.83407
G1 X109.523 Y55.344 E.01383
G1 X110.615 Y58.349 E.09493
G1 X110.499 Y58.544 E.00673
G1 X110.277 Y59.016 E.01549
G1 X110.167 Y59.32 E.00959
G1 X110.063 Y59.729 E.01254
G1 X110.395 Y59.875 F9000
G1 F1200
G1 X110.326 Y60.415 E.01618
G1 X110.32 Y60.708 E.00868
G1 X110.355 Y61.201 E.01469
G1 X110.406 Y61.487 E.00863
G1 X110.538 Y61.964 E.01468
G1 X110.646 Y62.236 E.00868
G1 X110.87 Y62.682 E.01483
G1 X111.163 Y63.114 E.01551
G1 X111.5 Y63.493 E.01506
G1 X111.712 Y63.69 E.00858
G1 X112.115 Y63.996 E.01503
G1 X112.555 Y64.249 E.01506
G1 X112.821 Y64.369 E.00868
G1 X113.304 Y64.53 E.01511
G1 X113.814 Y64.629 E.01543
G1 X113.985 Y64.641 E.00509
G1 X110.783 Y64.64 E.09505
G1 X110.434 Y64.673 E.01041
G1 X109.994 Y64.816 E.01373
G1 X109.731 Y64.96 E.00889
G1 X109.43 Y65.197 E.01141
G1 X109.114 Y65.58 E.01474
G1 X108.915 Y66.017 E.01424
G1 X105.503 Y79.599 E.41581
G1 X103.657 Y79.341 E.05535
G1 X103.051 Y85.618 E.18724
G1 X102.787 Y85.402 E.01011
G1 X102.549 Y85.148 E.01035
G1 X102.321 Y84.838 E.01142
G1 X102.07 Y84.352 E.01623
G1 X101.946 Y83.973 E.01185
G1 X101.879 Y83.63 E.01037
G1 X101.857 Y83.069 E.01667
G1 X101.904 Y82.687 E.01144
G1 X108.785 Y55.233 E.84037
G1 X109.737 Y54.887 E.03007
G1 X110.928 Y58.164 E.10352
G1 X111.287 Y58.033 E.01134
G1 X110.965 Y58.459 E.01585
G1 X110.815 Y58.712 E.00872
G1 X110.607 Y59.153 E.01448
G1 X110.508 Y59.424 E.00857
G1 X110.409 Y59.816 E.01201
G1 X110.741 Y59.962 F9000
G1 F1200
G1 X110.85 Y59.529 E.01325
G1 X110.937 Y59.29 E.00754
G1 X111.13 Y58.88 E.01348
G1 X111.263 Y58.658 E.00767
G1 X111.54 Y58.284 E.01382
G1 X111.87 Y57.943 E.01408
G1 X112.234 Y57.653 E.01382
G1 X112.654 Y57.399 E.01458
G1 X113.062 Y57.218 E.01326
G1 X187.006 Y30.318 E2.33625
G1 X187.662 Y30.124 E.02031
G1 X188.02 Y30.055 E.01083
G1 X188.382 Y30.008 E.01083
G1 X189.076 Y29.984 E.02062
G1 X189.789 Y30.047 E.02127
G1 X190.475 Y30.199 E.02087
G1 X190.831 Y30.313 E.0111
G1 X191.478 Y30.59 E.02088
G1 X192.091 Y30.95 E.02112
G1 X192.653 Y31.385 E.0211
G1 X193.157 Y31.887 E.02113
G1 X193.594 Y32.446 E.02105
G1 X193.958 Y33.059 E.02117
G1 X194.235 Y33.691 E.02049
G1 X202.708 Y57.075 E.73849
G1 X202.867 Y57.784 E.02156
G1 X202.932 Y58.493 E.02115
G1 X202.932 Y58.873 E.01128
G1 X202.861 Y59.576 E.02097
G1 X202.787 Y59.949 E.01128
G1 X202.584 Y60.626 E.02101
G1 X202.439 Y60.975 E.0112
G1 X202.113 Y61.6 E.02093
G1 X201.903 Y61.92 E.01135
G1 X201.462 Y62.469 E.02092
G1 X200.93 Y62.983 E.02197
G1 X200.357 Y63.41 E.02123
G1 X199.734 Y63.758 E.0212
G1 X199.387 Y63.913 E.01128
G1 X198.716 Y64.134 E.02096
G1 X198.354 Y64.217 E.01103
G1 X197.989 Y64.275 E.01097
G1 X197.295 Y64.321 E.02067
G1 X114.312 Y64.305 E2.46385
G1 X113.86 Y64.274 E.01347
G1 X113.395 Y64.184 E.01406
G1 X112.951 Y64.036 E.01388
G1 X112.717 Y63.93 E.00763
G1 X112.312 Y63.698 E.01385
G1 X111.942 Y63.416 E.01382
G1 X111.755 Y63.243 E.00756
G1 X111.445 Y62.894 E.01385
G1 X111.179 Y62.501 E.01412
G1 X110.972 Y62.089 E.01367
G1 X110.877 Y61.85 E.00764
G1 X110.755 Y61.408 E.01362
G1 X110.71 Y61.157 E.00758
G1 X110.677 Y60.699 E.01363
G1 X110.683 Y60.44 E.00769
G1 X110.731 Y60.021 E.01251
G1 X111.087 Y60.05 F9000
;TYPE:External perimeter
G1 F1200
G1 X111.192 Y59.634 E.01272
G1 X111.267 Y59.428 E.00652
G1 X111.446 Y59.048 E.01248
G1 X111.56 Y58.856 E.00662
G1 X111.813 Y58.516 E.0126
G1 X112.11 Y58.207 E.01271
G1 X112.442 Y57.943 E.0126
G1 X112.814 Y57.718 E.01291
G1 X113.196 Y57.549 E.01238
G1 X187.117 Y30.657 E2.33556
G1 X187.747 Y30.472 E.01948
G1 X188.077 Y30.407 E.00998
G1 X188.411 Y30.365 E.01
G1 X189.066 Y30.341 E.01947
G1 X189.734 Y30.401 E.01992
G1 X190.382 Y30.544 E.0197
G1 X190.706 Y30.648 E.0101
G1 X191.316 Y30.91 E.01971
G1 X191.891 Y31.247 E.01978
G1 X192.417 Y31.654 E.01975
G1 X192.89 Y32.125 E.01981
G1 X193.298 Y32.648 E.01972
G1 X193.64 Y33.223 E.01985
G1 X193.904 Y33.824 E.01949
G1 X202.365 Y57.175 E.73746
G1 X202.513 Y57.839 E.0202
G1 X202.575 Y58.51 E.01998
G1 X202.575 Y58.855 E.01026
G1 X202.507 Y59.523 E.01994
G1 X202.44 Y59.863 E.01026
G1 X202.247 Y60.506 E.01995
G1 X202.115 Y60.824 E.0102
G1 X201.805 Y61.419 E.01994
G1 X201.614 Y61.709 E.01031
G1 X201.194 Y62.232 E.0199
G1 X200.703 Y62.707 E.0203
G1 X200.162 Y63.11 E.02002
G1 X199.574 Y63.439 E.02002
G1 X199.258 Y63.579 E.01026
G1 X198.62 Y63.789 E.01994
G1 X198.286 Y63.866 E.01018
G1 X197.949 Y63.92 E.01012
G1 X197.283 Y63.964 E.01983
G1 X114.324 Y63.948 E2.46315
G1 X113.906 Y63.92 E.01245
G1 X113.486 Y63.838 E.0127
G1 X113.082 Y63.703 E.01265
G1 X112.879 Y63.612 E.00658
G1 X112.51 Y63.4 E.01264
G1 X112.172 Y63.143 E.01262
G1 X112.011 Y62.993 E.00653
G1 X111.728 Y62.675 E.01265
G1 X111.487 Y62.32 E.01273
G1 X111.298 Y61.943 E.01251
G1 X111.216 Y61.737 E.0066
G1 X111.103 Y61.329 E.01257
G1 X111.065 Y61.112 E.00653
G1 X111.034 Y60.69 E.01258
G1 X111.039 Y60.464 E.00671
G1 X111.08 Y60.109 E.01061
G1 X110.785 Y59.787 F9000
G1 E-3.5 F3600
;WIPE_START
G1 F7200
G1 X111.192 Y59.634 E-.23179
G1 X111.267 Y59.428 E-.1043
G1 X111.446 Y59.048 E-.19964
G1 X111.56 Y58.856 E-.10584
G1 X111.813 Y58.516 E-.20158
G1 X112.11 Y58.207 E-.20327
G1 X112.442 Y57.943 E-.20162
G1 X112.761 Y57.75 E-.17695
;WIPE_END
G1 E-.075 F3600
G1 X190.701 Y29.521 F9000
G1 E5 F2400
;TYPE:Perimeter
G1 F1200
G1 X192.014 Y29.043 E.04151
G1 X192.493 Y30.358 E.04154
G1 X191.8 Y29.952 E.02384
G1 X191.082 Y29.643 E.02322
G1 X190.758 Y29.54 E.01009
G1 X190.649 Y29.88 F9000
G1 F1200
G1 X189.844 Y29.694 E.02454
G1 X189.313 Y29.646 E.01583
G1 X192.228 Y28.586 E.09211
G1 X193.296 Y31.522 E.09276
G1 X192.889 Y31.117 E.01705
G1 X192.292 Y30.654 E.02244
G1 X191.639 Y30.271 E.02247
G1 X190.956 Y29.978 E.02205
G1 X190.706 Y29.898 E.0078
G1 E-3.5 F3600
;WIPE_START
G1 F7200
G1 X189.844 Y29.694 E-.42104
G1 X189.313 Y29.646 E-.25318
G1 X190.798 Y29.106 E-.75078
;WIPE_END
G1 E-.075 F3600
G1 X203.409 Y60.361 F9000
G1 E5 F2400
G1 F1200
G1 X204.499 Y63.357 E.09465
G1 X207.776 Y62.164 E.10355
G1 X208.267 Y63.513 E.04263
G1 X208.267 Y93.193 E.88123
G1 X208.253 Y93.635 E.01313
G1 X205.888 Y93.305 E.0709
G1 X205.888 Y66.609 E.79262
G1 X205.849 Y66.229 E.01135
G1 X205.759 Y65.895 E.01028
G1 X205.575 Y65.488 E.01327
G1 X205.302 Y65.11 E.01383
G1 X204.98 Y64.806 E.01314
G1 X204.686 Y64.61 E.01049
G1 X204.28 Y64.425 E.01326
G1 X203.806 Y64.315 E.01443
G1 X200.203 Y64.314 E.10698
G1 X200.746 Y64.011 E.01847
G1 X201.384 Y63.534 E.02364
G1 X201.701 Y63.247 E.01271
G1 X201.998 Y62.943 E.0126
G1 X202.482 Y62.34 E.02294
G1 X202.73 Y61.962 E.01343
G1 X203.087 Y61.277 E.02292
G1 X203.257 Y60.867 E.0132
G1 X203.392 Y60.418 E.0139
G1 X202.92 Y60.746 F9000
G1 F1200
G1 X203.134 Y60.035 E.02206
G1 X203.214 Y59.629 E.0123
G1 X203.281 Y58.965 E.0198
G1 X204.713 Y62.899 E.12429
G1 X207.99 Y61.707 E.10355
G1 X208.624 Y63.451 E.0551
G1 X208.624 Y93.199 E.88327
G1 X208.606 Y93.76 E.01666
G1 X208.557 Y94.303 E.0162
G1 X208.472 Y94.855 E.01657
G1 X207.841 Y98.291 E.10372
G1 X207.735 Y98.712 E.01288
G1 X207.508 Y99.228 E.01675
G1 X207.297 Y99.557 E.01162
G1 X207.082 Y99.812 E.0099
G1 X208.153 Y93.982 E.17601
G1 X205.531 Y93.615 E.07862
G1 X205.531 Y66.628 E.8013
G1 X205.496 Y66.295 E.00995
G1 X205.421 Y66.016 E.00858
G1 X205.265 Y65.667 E.01134
G1 X205.032 Y65.347 E.01175
G1 X204.757 Y65.087 E.01125
G1 X204.512 Y64.923 E.00874
G1 X204.164 Y64.765 E.01135
G1 X203.765 Y64.673 E.01216
G1 X197.423 Y64.67 E.18831
G1 X198.029 Y64.63 E.01804
G1 X198.423 Y64.568 E.01183
G1 X198.812 Y64.478 E.01188
G1 X199.515 Y64.247 E.02198
G1 X199.894 Y64.078 E.0123
G1 X200.552 Y63.71 E.02237
G1 X201.157 Y63.259 E.02243
G1 X201.73 Y62.706 E.02364
G1 X202.192 Y62.13 E.02193
G1 X202.422 Y61.781 E.01239
G1 X202.763 Y61.126 E.02193
G1 X202.897 Y60.802 E.01042
G1 E-3.5 F3600
;WIPE_START
G1 F7200
G1 X203.134 Y60.035 E-.38125
G1 X203.214 Y59.629 E-.19676
G1 X203.281 Y58.965 E-.31677
G1 X203.663 Y60.014 E-.53022
;WIPE_END
G1 E-.075 F3600
G1 X111.141 Y57.706 F9000
G1 E5 F2400
G1 F1200
G1 X192.441 Y28.128 E2.56869
G1 X204.926 Y62.441 E1.08414
G1 X208.016 Y61.317 E.09762
G1 X195.532 Y27.003 E1.08416
G1 X195.719 Y26.935 E.00591
G1 X208.981 Y63.388 E1.15173
G1 X208.981 Y93.205 E.88532
G1 X208.962 Y93.782 E.01713
G1 X208.912 Y94.346 E.01684
G1 X208.825 Y94.914 E.01706
G1 X208.19 Y98.366 E.10421
G1 X208.078 Y98.815 E.01374
G1 X208.01 Y99.003 E.00592
G1 X207.821 Y99.402 E.01311
G1 X207.585 Y99.769 E.01297
G1 X207.306 Y100.101 E.01286
G1 X206.977 Y100.4 E.0132
G1 X206.811 Y100.524 E.00614
G1 X206.637 Y100.636 E.00615
G1 X206.243 Y100.841 E.0132
G1 X203.783 Y101.736 E.07771
G1 X203.593 Y101.786 E.00585
G1 X203.163 Y101.852 E.01292
G1 X202.529 Y101.852 E.01881
G1 X202.1 Y101.781 E.01293
G1 X201.689 Y101.657 E.01274
G1 X201.247 Y101.454 E.01445
G1 X202.194 Y101.592 E.02842
G1 X206.693 Y99.957 E.14213
G1 X207.735 Y94.284 E.17125
G1 X205.174 Y93.926 E.07678
G1 X205.174 Y66.646 E.80998
G1 X205.144 Y66.36 E.00855
G1 X205.084 Y66.136 E.00688
G1 X204.954 Y65.847 E.00941
G1 X204.763 Y65.583 E.00967
G1 X204.534 Y65.367 E.00936
G1 X204.338 Y65.236 E.00699
G1 X204.049 Y65.105 E.00943
G1 X203.724 Y65.03 E.00989
G1 X110.8 Y64.997 E2.75904
G1 X110.507 Y65.025 E.00874
G1 X110.136 Y65.145 E.01159
G1 X109.929 Y65.259 E.00702
G1 X109.681 Y65.454 E.00938
G1 X109.419 Y65.771 E.0122
G1 X109.253 Y66.135 E.01188
G1 X105.771 Y79.997 E.42437
G1 X103.976 Y79.746 E.0538
G1 X103.422 Y85.485 E.17118
G1 X107.296 Y88.297 E.14213
G1 X108.308 Y88.433 E.0303
G1 X107.792 Y88.516 E.01552
G1 X107.363 Y88.522 E.01274
G1 X106.94 Y88.474 E.01263
G1 X106.524 Y88.37 E.01272
G1 X106.124 Y88.215 E.01274
G1 X105.748 Y88.009 E.01275
G1 X102.89 Y85.948 E.10461
G1 X102.547 Y85.666 E.01319
G1 X102.271 Y85.373 E.01196
G1 X102.02 Y85.03 E.01262
G1 X101.737 Y84.48 E.01837
G1 X101.601 Y84.067 E.01289
G1 X101.524 Y83.672 E.01197
G1 X101.496 Y83.236 E.01296
G1 X101.501 Y83.044 E.00572
G1 X101.552 Y82.622 E.01262
G1 X108.485 Y54.962 E.84666
G1 X191.25 Y24.851 E2.61496
G1 X191.318 Y25.039 E.00591
G1 X110.019 Y54.616 E2.56866
G1 X111.121 Y57.649 E.09583
G1 X111.355 Y57.248 F9000
;TYPE:External perimeter
G1 F1200
G1 X192.655 Y27.671 E2.56869
G1 X205.14 Y61.984 E1.08414
