; generated by PrusaSlicer 2.4.2+win64 on 2022-08-04 at 04:06:28 UTC

; 

; external perimeters extrusion width = 0.45mm
; perimeters extrusion width = 0.45mm
; infill extrusion width = 0.45mm
; solid infill extrusion width = 0.45mm
; top infill extrusion width = 0.40mm
; support material extrusion width = 0.38mm
; first layer extrusion width = 0.42mm

M107
;TYPE:Custom
G90 ; use absolute coordinates
M83 ; extruder relative mode
M140 S110 ; set final bed temp
M104 S170 ; set temporary nozzle temp to prevent oozing during homing
G4 S10 ; allow partial nozzle warmup
G28 ; home all axis
G1 Z50 F300
G1 X10 Y10 F3000
M190 S104.5 ; wait for bed temp to stabilize at 90%
M140 S110 ; set final bed temp
M104 S245 ; set final nozzle temp
M109 S245 ; wait for nozzle temp to stabilize
G1 Z0.28 F240
G92 E0
G1 Y180 E10 F1500 ; prime the nozzle
G1 X10.3 F5000
G92 E0
G1 Y10 E10 F1200 ; prime the nozzle
G92 E0
G21 ; set units to millimeters
G90 ; use absolute coordinates
M83 ; use relative distances for extrusion
; Filament gcode
M107
;LAYER_CHANGE
;Z:0.2
;HEIGHT:0.2
;BEFORE_LAYER_CHANGE
G92 E0
;0.2


G1 E-5 F3600
G1 Z.2 F9000
;AFTER_LAYER_CHANGE
;0.2
G1 X80.392 Y88.116
G1 E5 F2400
M204 P500
;TYPE:Skirt/Brim
;WIDTH:0.42
G1 F1200
G1 X81.469 Y87.643 E.03688
G1 X92.739 Y84.512 E.36674
G1 X93.845 Y84.361 E.03499
G1 X137.155 Y84.361 E1.35796
G1 X138.261 Y84.512 E.03499
G1 X149.531 Y87.643 E.36674
G1 X151.124 Y88.495 E.05665
G1 X152.201 Y89.946 E.05665
G1 X152.52 Y91.079 E.03688
G1 X158.399 Y135.279 E1.39808
G1 X158.544 Y136.818 E.04848
G1 X158.542 Y137.964 E.03591
G1 X158.358 Y139.726 E.05555
G1 X158.026 Y141.202 E.04744
G1 X157.672 Y142.291 E.03591
G1 X157.07 Y143.679 E.04744
G1 X156.518 Y144.682 E.03591
G1 X155.508 Y146.138 E.05555
G1 X154.507 Y147.272 E.04744
G1 X153.673 Y148.056 E.03591
G1 X152.477 Y148.984 E.04744
G1 X151.511 Y149.598 E.03591
G1 X150.163 Y150.285 E.04744
G1 X149.099 Y150.708 E.03591
G1 X147.646 Y151.131 E.04744
G1 X146.521 Y151.347 E.03591
G1 X144.756 Y151.499 E.05555
G1 X85.985 Y151.491 E1.84274
G1 X84.479 Y151.347 E.04744
G1 X83.354 Y151.131 E.03591
G1 X81.901 Y150.708 E.04744
G1 X80.837 Y150.285 E.03591
G1 X78.737 Y149.13 E.07516
G1 X77.81 Y148.456 E.03591
G1 X76.676 Y147.456 E.04744
G1 X75.492 Y146.138 E.05555
G1 X74.819 Y145.211 E.03591
G1 X74.048 Y143.909 E.04744
G1 X73.56 Y142.874 E.03591
G1 X72.974 Y141.202 E.05555
G1 X72.642 Y139.725 E.04744
G1 X72.498 Y138.589 E.03591
G1 X72.456 Y136.818 E.05555
G1 X72.601 Y135.279 E.04848
G1 X78.48 Y91.079 E1.39808
G1 X79.104 Y89.383 E.05665
G1 X80.349 Y88.158 E.05477
G1 X80.622 Y88.454 F9000
G1 F1200
G1 X80.732 Y88.353 E.00467
G1 X81.57 Y88.006 E.02845
G1 X92.84 Y84.875 E.36674
G1 X93.845 Y84.738 E.0318
G1 X137.155 Y84.738 E1.35796
G1 X138.16 Y84.875 E.0318
G1 X149.43 Y88.006 E.36674
G1 X150.939 Y88.835 E.05397
G1 X151.919 Y90.25 E.05397
G1 X152.146 Y91.128 E.02845
G1 X158.026 Y135.329 E1.39808
G1 X158.168 Y136.842 E.04764
G1 X158.166 Y137.939 E.03443
G1 X157.987 Y139.654 E.05407
G1 X157.661 Y141.108 E.04669
G1 X157.321 Y142.151 E.03442
G1 X156.729 Y143.518 E.0467
G1 X156.199 Y144.48 E.03443
G1 X155.218 Y145.897 E.05407
G1 X154.233 Y147.014 E.0467
G1 X153.432 Y147.766 E.03442
G1 X152.256 Y148.679 E.0467
G1 X151.329 Y149.268 E.03442
G1 X150.002 Y149.944 E.0467
G1 X148.982 Y150.349 E.03442
G1 X147.552 Y150.766 E.0467
G1 X146.474 Y150.973 E.03442
G1 X144.756 Y151.122 E.05406
G1 X86.009 Y151.114 E1.84197
G1 X84.526 Y150.973 E.0467
G1 X83.448 Y150.766 E.03442
G1 X82.018 Y150.349 E.0467
G1 X80.998 Y149.944 E.03442
G1 X78.939 Y148.811 E.07368
G1 X78.051 Y148.166 E.03442
G1 X76.934 Y147.181 E.04669
G1 X75.782 Y145.897 E.05406
G1 X75.137 Y145.009 E.03443
G1 X74.378 Y143.728 E.04669
G1 X73.91 Y142.735 E.03442
G1 X73.405 Y141.334 E.04669
G1 X73.013 Y139.654 E.05407
G1 X72.874 Y138.565 E.03443
G1 X72.832 Y136.842 E.05406
G1 X72.974 Y135.329 E.04764
G1 X78.854 Y91.128 E1.39808
G1 X79.466 Y89.519 E.05397
G1 X80.578 Y88.494 E.04742
G1 X80.879 Y88.924 F9000
G1 F1200
G1 X81.671 Y88.369 E.03032
G1 X92.941 Y85.239 E.36674
G1 X93.845 Y85.116 E.0286
G1 X137.155 Y85.116 E1.35796
G1 X138.059 Y85.239 E.0286
G1 X149.329 Y88.369 E.36674
G1 X150.749 Y89.173 E.05115
G1 X151.773 Y91.178 E.07059
G1 X157.652 Y135.378 E1.39808
G1 X157.791 Y136.865 E.0468
G1 X157.79 Y137.915 E.03294
G1 X157.65 Y139.374 E.04595
G1 X157.452 Y140.406 E.03294
G1 X156.971 Y142.012 E.05258
G1 X156.388 Y143.357 E.04595
G1 X155.881 Y144.278 E.03294
G1 X154.927 Y145.657 E.05258
G1 X153.958 Y146.756 E.04595
G1 X153.192 Y147.475 E.03294
G1 X152.034 Y148.374 E.04595
G1 X151.147 Y148.937 E.03294
G1 X149.842 Y149.603 E.04595
G1 X148.865 Y149.991 E.03294
G1 X147.458 Y150.401 E.04595
G1 X146.426 Y150.599 E.03294
G1 X144.755 Y150.745 E.05258
G1 X86.033 Y150.738 E1.8412
G1 X84.574 Y150.599 E.04595
G1 X83.542 Y150.401 E.03294
G1 X82.135 Y149.991 E.04595
G1 X81.158 Y149.603 E.03294
G1 X79.141 Y148.493 E.0722
G1 X78.291 Y147.875 E.03294
G1 X77.192 Y146.906 E.04595
G1 X76.073 Y145.657 E.05258
G1 X75.455 Y144.807 E.03294
G1 X74.709 Y143.546 E.04595
G1 X74.261 Y142.595 E.03294
G1 X73.763 Y141.217 E.04595
G1 X73.383 Y139.583 E.05258
G1 X73.25 Y138.541 E.03294
G1 X73.209 Y136.865 E.05258
G1 X73.348 Y135.378 E.0468
G1 X79.227 Y91.178 E1.39808
G1 X79.827 Y89.661 E.05115
G1 X80.83 Y88.958 E.03839
G1 E-3.5 F3600
;WIPE_START
G1 F7200
G1 X81.671 Y88.369 E-.4879
G1 X83.572 Y87.841 E-.9371
;WIPE_END
G1 E-.075 F3600
G1 X137.155 Y103.758 F9000
G1 E5 F2400
;TYPE:Support material
G1 F1200
G1 X93.845 Y103.758 E1.35796
G1 X93.845 Y88.493 E.47863
G1 X137.155 Y88.493 E1.35796
G1 X137.155 Y103.701 E.47686
G1 X136.449 Y103.588 F9000
G1 F1200
G1 X136.449 Y88.832 E.46267
G1 X136.03 Y88.832 E.01314
G1 X136.03 Y103.418 E.45735
G1 X135.611 Y103.418 E.01314
G1 X135.611 Y88.832 E.45735
G1 X135.192 Y88.832 E.01314
G1 X135.192 Y103.418 E.45735
G1 X134.773 Y103.418 E.01314
G1 X134.773 Y88.832 E.45735
G1 X134.354 Y88.832 E.01314
G1 X134.354 Y103.418 E.45735
G1 X133.935 Y103.418 E.01314
G1 X133.935 Y88.832 E.45735
G1 X133.516 Y88.832 E.01314
G1 X133.516 Y103.418 E.45735
G1 X133.097 Y103.418 E.01314
G1 X133.097 Y88.832 E.45735
G1 X132.678 Y88.832 E.01314
G1 X132.678 Y103.418 E.45735
G1 X132.259 Y103.418 E.01314
G1 X132.259 Y88.832 E.45735
G1 X131.84 Y88.832 E.01314
G1 X131.84 Y103.418 E.45735
G1 X131.421 Y103.418 E.01314
G1 X131.421 Y88.832 E.45735
G1 X131.002 Y88.832 E.01314
G1 X131.002 Y103.418 E.45735
G1 X130.583 Y103.418 E.01314
G1 X130.583 Y88.832 E.45735
G1 X130.164 Y88.832 E.01314
G1 X130.164 Y103.418 E.45735
G1 X129.745 Y103.418 E.01314
G1 X129.745 Y88.832 E.45735
G1 X129.326 Y88.832 E.01314
G1 X129.326 Y103.418 E.45735
G1 X128.907 Y103.418 E.01314
G1 X128.907 Y88.832 E.45735
G1 X128.488 Y88.832 E.01314
G1 X128.488 Y103.418 E.45735
G1 X128.069 Y103.418 E.01314
G1 X128.069 Y88.832 E.45735
G1 X127.65 Y88.832 E.01314
G1 X127.65 Y103.418 E.45735
G1 X127.231 Y103.418 E.01314
G1 X127.231 Y88.832 E.45735
G1 X126.812 Y88.832 E.01314
G1 X126.812 Y103.418 E.45735
G1 X126.393 Y103.418 E.01314
G1 X126.393 Y88.832 E.45735
G1 X125.974 Y88.832 E.01314
G1 X125.974 Y103.418 E.45735
G1 X125.555 Y103.418 E.01314
G1 X125.555 Y88.832 E.45735
G1 X125.136 Y88.832 E.01314
G1 X125.136 Y103.418 E.45735
G1 X124.717 Y103.418 E.01314
G1 X124.717 Y88.832 E.45735
G1 X124.299 Y88.832 E.01314
G1 X124.299 Y103.418 E.45735
G1 X123.88 Y103.418 E.01314
G1 X123.88 Y88.832 E.45735
G1 X123.461 Y88.832 E.01314
G1 X123.461 Y103.418 E.45735
G1 X123.042 Y103.418 E.01314
G1 X123.042 Y88.832 E.45735
G1 X122.623 Y88.832 E.01314
G1 X122.623 Y103.418 E.45735
G1 X122.204 Y103.418 E.01314
G1 X122.204 Y88.832 E.45735
G1 X121.785 Y88.832 E.01314
G1 X121.785 Y103.418 E.45735
G1 X121.366 Y103.418 E.01314
G1 X121.366 Y88.832 E.45735
G1 X120.947 Y88.832 E.01314
G1 X120.947 Y103.418 E.45735
G1 X120.528 Y103.418 E.01314
G1 X120.528 Y88.832 E.45735
G1 X120.109 Y88.832 E.01314
G1 X120.109 Y103.418 E.45735
G1 X119.69 Y103.418 E.01314
G1 X119.69 Y88.832 E.45735
G1 X119.271 Y88.832 E.01314
G1 X119.271 Y103.418 E.45735
G1 X118.852 Y103.418 E.01314
G1 X118.852 Y88.832 E.45735
G1 X118.433 Y88.832 E.01314
G1 X118.433 Y103.418 E.45735
G1 X118.014 Y103.418 E.01314
G1 X118.014 Y88.832 E.45735
G1 X117.595 Y88.832 E.01314
G1 X117.595 Y103.418 E.45735
G1 X117.176 Y103.418 E.01314
G1 X117.176 Y88.832 E.45735
G1 X116.757 Y88.832 E.01314
G1 X116.757 Y103.418 E.45735
G1 X116.338 Y103.418 E.01314
G1 X116.338 Y88.832 E.45735
G1 X115.919 Y88.832 E.01314
G1 X115.919 Y103.418 E.45735
G1 X115.5 Y103.418 E.01314
G1 X115.5 Y88.832 E.45735
G1 X115.081 Y88.832 E.01314
G1 X115.081 Y103.418 E.45735
G1 X114.662 Y103.418 E.01314
G1 X114.662 Y88.832 E.45735
G1 X114.243 Y88.832 E.01314
G1 X114.243 Y103.418 E.45735
G1 X113.824 Y103.418 E.01314
G1 X113.824 Y88.832 E.45735
G1 X113.405 Y88.832 E.01314
G1 X113.405 Y103.418 E.45735
G1 X112.986 Y103.418 E.01314
G1 X112.986 Y88.832 E.45735
G1 X112.567 Y88.832 E.01314
G1 X112.567 Y103.418 E.45735
G1 X112.148 Y103.418 E.01314
G1 X112.148 Y88.832 E.45735
G1 X111.729 Y88.832 E.01314
G1 X111.729 Y103.418 E.45735
G1 X111.31 Y103.418 E.01314
G1 X111.31 Y88.832 E.45735
G1 X110.891 Y88.832 E.01314
G1 X110.891 Y103.418 E.45735
G1 X110.472 Y103.418 E.01314
G1 X110.472 Y88.832 E.45735
G1 X110.053 Y88.832 E.01314
G1 X110.053 Y103.418 E.45735
G1 X109.634 Y103.418 E.01314
G1 X109.634 Y88.832 E.45735
G1 X109.215 Y88.832 E.01314
G1 X109.215 Y103.418 E.45735
G1 X108.796 Y103.418 E.01314
G1 X108.796 Y88.832 E.45735
G1 X108.377 Y88.832 E.01314
G1 X108.377 Y103.418 E.45735
G1 X107.958 Y103.418 E.01314
G1 X107.958 Y88.832 E.45735
G1 X107.539 Y88.832 E.01314
G1 X107.539 Y103.418 E.45735
G1 X107.12 Y103.418 E.01314
G1 X107.12 Y88.832 E.45735
G1 X106.701 Y88.832 E.01314
G1 X106.701 Y103.418 E.45735
G1 X106.283 Y103.418 E.01314
G1 X106.283 Y88.832 E.45735
G1 X105.864 Y88.832 E.01314
G1 X105.864 Y103.418 E.45735
G1 X105.445 Y103.418 E.01314
G1 X105.445 Y88.832 E.45735
G1 X105.026 Y88.832 E.01314
G1 X105.026 Y103.418 E.45735
G1 X104.607 Y103.418 E.01314
G1 X104.607 Y88.832 E.45735
G1 X104.188 Y88.832 E.01314
G1 X104.188 Y103.418 E.45735
G1 X103.769 Y103.418 E.01314
G1 X103.769 Y88.832 E.45735
G1 X103.35 Y88.832 E.01314
G1 X103.35 Y103.418 E.45735
G1 X102.931 Y103.418 E.01314
G1 X102.931 Y88.832 E.45735
G1 X102.512 Y88.832 E.01314
G1 X102.512 Y103.418 E.45735
G1 X102.093 Y103.418 E.01314
G1 X102.093 Y88.832 E.45735
G1 X101.674 Y88.832 E.01314
G1 X101.674 Y103.418 E.45735
G1 X101.255 Y103.418 E.01314
G1 X101.255 Y88.832 E.45735
G1 X100.836 Y88.832 E.01314
G1 X100.836 Y103.418 E.45735
G1 X100.417 Y103.418 E.01314
G1 X100.417 Y88.832 E.45735
G1 X99.998 Y88.832 E.01314
G1 X99.998 Y103.418 E.45735
G1 X99.579 Y103.418 E.01314
G1 X99.579 Y88.832 E.45735
G1 X99.16 Y88.832 E.01314
G1 X99.16 Y103.418 E.45735
G1 X98.741 Y103.418 E.01314
G1 X98.741 Y88.832 E.45735
G1 X98.322 Y88.832 E.01314
G1 X98.322 Y103.418 E.45735
G1 X97.903 Y103.418 E.01314
G1 X97.903 Y88.832 E.45735
G1 X97.484 Y88.832 E.01314
G1 X97.484 Y103.418 E.45735
G1 X97.065 Y103.418 E.01314
G1 X97.065 Y88.832 E.45735
G1 X96.646 Y88.832 E.01314
G1 X96.646 Y103.418 E.45735
G1 X96.227 Y103.418 E.01314
G1 X96.227 Y88.832 E.45735
G1 X95.808 Y88.832 E.01314
G1 X95.808 Y103.418 E.45735
G1 X95.389 Y103.418 E.01314
G1 X95.389 Y88.832 E.45735
G1 X94.97 Y88.832 E.01314
G1 X94.97 Y103.418 E.45735
G1 X94.551 Y103.418 E.01314
G1 X94.551 Y88.662 E.46267
G1 E-3.5 F3600
;WIPE_START
G1 F7200
G1 X94.551 Y91.662 E-1.425
;WIPE_END
G1 E-.075 F3600
G1 X123.133 Y134.14 F9000
G1 E5 F2400
G1 F1200
G1 X98.519 Y134.14 E.77174
G1 X98.519 Y109.526 E.77174
G1 X123.133 Y109.526 E.77174
G1 X123.133 Y134.083 E.76997
G1 X122.623 Y133.97 F9000
G1 F1200
G1 X122.623 Y109.866 E.75578
G1 X122.204 Y109.866 E.01314
G1 X122.204 Y133.8 E.75046
G1 X121.785 Y133.8 E.01314
G1 X121.785 Y109.866 E.75046
G1 X121.366 Y109.866 E.01314
G1 X121.366 Y133.8 E.75046
G1 X120.947 Y133.8 E.01314
G1 X120.947 Y109.866 E.75046
G1 X120.528 Y109.866 E.01314
G1 X120.528 Y133.8 E.75046
G1 X120.109 Y133.8 E.01314
G1 X120.109 Y109.866 E.75046
G1 X119.69 Y109.866 E.01314
G1 X119.69 Y133.8 E.75046
G1 X119.271 Y133.8 E.01314
G1 X119.271 Y109.866 E.75046
G1 X118.852 Y109.866 E.01314
G1 X118.852 Y133.8 E.75046
G1 X118.433 Y133.8 E.01314
G1 X118.433 Y109.866 E.75046
G1 X118.014 Y109.866 E.01314
G1 X118.014 Y133.8 E.75046
G1 X117.595 Y133.8 E.01314
G1 X117.595 Y109.866 E.75046
G1 X117.176 Y109.866 E.01314
G1 X117.176 Y133.8 E.75046
G1 X116.757 Y133.8 E.01314
G1 X116.757 Y109.866 E.75046
G1 X116.338 Y109.866 E.01314
G1 X116.338 Y133.8 E.75046
G1 X115.919 Y133.8 E.01314
G1 X115.919 Y109.866 E.75046
G1 X115.5 Y109.866 E.01314
G1 X115.5 Y133.8 E.75046
G1 X115.081 Y133.8 E.01314
G1 X115.081 Y109.866 E.75046
G1 X114.662 Y109.866 E.01314
G1 X114.662 Y133.8 E.75046
G1 X114.243 Y133.8 E.01314
G1 X114.243 Y109.866 E.75046
G1 X113.824 Y109.866 E.01314
G1 X113.824 Y133.8 E.75046
G1 X113.405 Y133.8 E.01314
G1 X113.405 Y109.866 E.75046
G1 X112.986 Y109.866 E.01314
G1 X112.986 Y133.8 E.75046
G1 X112.567 Y133.8 E.01314
G1 X112.567 Y109.866 E.75046
G1 X112.148 Y109.866 E.01314
G1 X112.148 Y133.8 E.75046
G1 X111.729 Y133.8 E.01314
G1 X111.729 Y109.866 E.75046
G1 X111.31 Y109.866 E.01314
G1 X111.31 Y133.8 E.75046
G1 X110.891 Y133.8 E.01314
G1 X110.891 Y109.866 E.75046
G1 X110.472 Y109.866 E.01314
G1 X110.472 Y133.8 E.75046
G1 X110.053 Y133.8 E.01314
G1 X110.053 Y109.866 E.75046
G1 X109.634 Y109.866 E.01314
G1 X109.634 Y133.8 E.75046
G1 X109.215 Y133.8 E.01314
G1 X109.215 Y109.866 E.75046
G1 X108.796 Y109.866 E.01314
G1 X108.796 Y133.8 E.75046
G1 X108.377 Y133.8 E.01314
G1 X108.377 Y109.866 E.75046
G1 X107.958 Y109.866 E.01314
G1 X107.958 Y133.8 E.75046
G1 X107.539 Y133.8 E.01314
G1 X107.539 Y109.866 E.75046
G1 X107.12 Y109.866 E.01314
G1 X107.12 Y133.8 E.75046
G1 X106.701 Y133.8 E.01314
G1 X106.701 Y109.866 E.75046
G1 X106.283 Y109.866 E.01314
G1 X106.283 Y133.8 E.75046
G1 X105.864 Y133.8 E.01314
G1 X105.864 Y109.866 E.75046
G1 X105.445 Y109.866 E.01314
G1 X105.445 Y133.8 E.75046
G1 X105.026 Y133.8 E.01314
G1 X105.026 Y109.866 E.75046
G1 X104.607 Y109.866 E.01314
G1 X104.607 Y133.8 E.75046
G1 X104.188 Y133.8 E.01314
G1 X104.188 Y109.866 E.75046
G1 X103.769 Y109.866 E.01314
G1 X103.769 Y133.8 E.75046
G1 X103.35 Y133.8 E.01314
G1 X103.35 Y109.866 E.75046
G1 X102.931 Y109.866 E.01314
G1 X102.931 Y133.8 E.75046
G1 X102.512 Y133.8 E.01314
G1 X102.512 Y109.866 E.75046
G1 X102.093 Y109.866 E.01314
G1 X102.093 Y133.8 E.75046
G1 X101.674 Y133.8 E.01314
G1 X101.674 Y109.866 E.75046
G1 X101.255 Y109.866 E.01314
G1 X101.255 Y133.8 E.75046
G1 X100.836 Y133.8 E.01314
G1 X100.836 Y109.866 E.75046
G1 X100.417 Y109.866 E.01314
G1 X100.417 Y133.8 E.75046
G1 X99.998 Y133.8 E.01314
G1 X99.998 Y109.866 E.75046
G1 X99.579 Y109.866 E.01314
G1 X99.579 Y133.8 E.75046
G1 X99.16 Y133.8 E.01314
G1 X99.16 Y109.696 E.75578
G1 E-3.5 F3600
;WIPE_START
G1 F7200
G1 X99.16 Y112.696 E-1.425
;WIPE_END
G1 E-.075 F3600
G1 X147.738 Y128.643 F9000
G1 E5 F2400
;TYPE:Perimeter
G1 F1200
G1 X148.678 Y129.088 E.03262
G1 X149.189 Y129.371 E.01832
G1 X149.681 Y129.686 E.01831
G1 X150.153 Y130.03 E.01831
G1 X150.602 Y130.404 E.01831
G1 X151.026 Y130.805 E.01831
G1 X151.425 Y131.232 E.01831
G1 X151.797 Y131.682 E.01831
G1 X152.139 Y132.156 E.01831
G1 X152.451 Y132.65 E.01831
G1 X152.731 Y133.162 E.01831
G1 X152.979 Y133.691 E.01831
G1 X153.193 Y134.235 E.01831
G1 X153.372 Y134.79 E.01832
G1 X153.517 Y135.356 E.01831
G1 X153.625 Y135.93 E.01831
G1 X153.697 Y136.51 E.01831
G1 X153.733 Y137.093 E.01831
G1 X153.733 Y137.677 E.01831
G1 X153.695 Y138.26 E.01831
G1 X153.621 Y138.839 E.01831
G1 X153.511 Y139.413 E.01831
G1 X153.366 Y139.979 E.01831
G1 X153.185 Y140.534 E.01831
G1 X152.969 Y141.077 E.01832
G1 X152.72 Y141.605 E.01831
G1 X152.439 Y142.117 E.01832
G1 X152.126 Y142.61 E.01831
G1 X151.782 Y143.082 E.01831
G1 X151.41 Y143.532 E.01831
G1 X151.01 Y143.958 E.01831
G1 X150.584 Y144.358 E.01831
G1 X150.134 Y144.73 E.01831
G1 X149.662 Y145.074 E.01831
G1 X149.169 Y145.387 E.01831
G1 X148.657 Y145.669 E.01831
G1 X148.129 Y145.918 E.01831
G1 X147.586 Y146.133 E.01831
G1 X147.03 Y146.314 E.01831
