; generated by PrusaSlicer 2.4.2+win64 on 2022-08-04 at 13:05:15 UTC

; 

; external perimeters extrusion width = 0.45mm
; perimeters extrusion width = 0.45mm
; infill extrusion width = 0.45mm
; solid infill extrusion width = 0.45mm
; top infill extrusion width = 0.40mm
; support material extrusion width = 0.38mm
; first layer extrusion width = 0.42mm

M107
;TYPE:Custom
G90 ; use absolute coordinates
M83 ; extruder relative mode
M140 S110 ; set final bed temp
M104 S170 ; set temporary nozzle temp to prevent oozing during homing
G4 S10 ; allow partial nozzle warmup
G28 ; home all axis
G1 Z50 F300
G1 X10 Y10 F3000
M190 S104.5 ; wait for bed temp to stabilize at 90%
M140 S110 ; set final bed temp
M104 S245 ; set final nozzle temp
M109 S245 ; wait for nozzle temp to stabilize
G1 Z0.28 F240
G92 E0
G1 Y180 E10 F1500 ; prime the nozzle
G1 X10.3 F5000
G92 E0
G1 Y10 E10 F1200 ; prime the nozzle
G92 E0
G21 ; set units to millimeters
G90 ; use absolute coordinates
M83 ; use relative distances for extrusion
; Filament gcode
M107
;LAYER_CHANGE
;Z:0.2
;HEIGHT:0.2
;BEFORE_LAYER_CHANGE
G92 E0
;0.2


G1 E-5 F3600
G1 Z.2 F9000
;AFTER_LAYER_CHANGE
;0.2
G1 X79.091 Y87.403
G1 E5 F2400
M204 P500
;TYPE:Skirt/Brim
;WIDTH:0.42
G1 F1200
G1 X80.727 Y85.928 E.06904
G1 X89.66 Y81.461 E.31316
G1 X91.508 Y81.024 E.05954
G1 X139.492 Y81.024 E1.50452
G1 X141.34 Y81.461 E.05954
G1 X150.273 Y85.928 E.31316
G1 X151.673 Y87.071 E.05665
G1 X152.523 Y89.102 E.06904
G1 X158.544 Y136.812 E1.50779
G1 X158.503 Y138.581 E.05547
G1 X158.359 Y139.717 E.03591
G1 X158.026 Y141.202 E.04771
G1 X157.674 Y142.282 E.03563
G1 X157.074 Y143.671 E.04744
G1 X156.518 Y144.682 E.03618
G1 X155.508 Y146.138 E.05555
G1 X154.514 Y147.266 E.04716
G1 X153.679 Y148.051 E.03591
G1 X152.477 Y148.984 E.04771
G1 X151.518 Y149.593 E.03563
G1 X150.169 Y150.283 E.04752
G1 X149.099 Y150.708 E.0361
G1 X147.649 Y151.13 E.04736
G1 X145.908 Y151.425 E.05535
G1 X144.765 Y151.499 E.03591
G1 X85.994 Y151.491 E1.84274
G1 X83.609 Y151.188 E.07536
G1 X82.498 Y150.902 E.03599
G1 X81.077 Y150.389 E.04736
G1 X80.047 Y149.904 E.03571
G1 X78.742 Y149.133 E.04752
G1 X77.818 Y148.462 E.03583
G1 X76.678 Y147.457 E.04763
G1 X75.898 Y146.627 E.03571
G1 X74.964 Y145.426 E.04771
G1 X74.049 Y143.912 E.05547
G1 X73.56 Y142.874 E.03599
G1 X73.046 Y141.45 E.04744
G1 X72.642 Y139.725 E.05555
G1 X72.458 Y137.972 E.05527
G1 X72.456 Y136.818 E.03618
G1 X78.477 Y89.102 E1.50798
G1 X79.071 Y87.459 E.05477
G1 X79.433 Y87.594 F9000
G1 F1200
G1 X79.454 Y87.537 E.00191
G1 X80.896 Y86.266 E.06027
G1 X89.829 Y81.798 E.31316
G1 X91.508 Y81.401 E.0541
G1 X139.492 Y81.401 E1.50452
G1 X141.171 Y81.798 E.0541
G1 X150.104 Y86.266 E.31316
G1 X151.426 Y87.368 E.05397
G1 X152.149 Y89.149 E.06027
G1 X158.167 Y136.835 E1.50702
G1 X158.127 Y138.557 E.05399
G1 X157.989 Y139.646 E.03443
G1 X157.661 Y141.108 E.04696
G1 X157.324 Y142.143 E.03415
G1 X156.732 Y143.51 E.04669
G1 X156.199 Y144.48 E.03469
G1 X155.218 Y145.897 E.05407
G1 X154.239 Y147.008 E.04642
G1 X153.439 Y147.76 E.03442
G1 X152.256 Y148.679 E.04696
G1 X151.336 Y149.263 E.03416
G1 X150.008 Y149.942 E.04677
G1 X148.982 Y150.349 E.03462
G1 X147.554 Y150.765 E.04662
G1 X145.86 Y151.051 E.05387
G1 X144.764 Y151.122 E.03442
G1 X86.017 Y151.115 E1.84197
G1 X83.68 Y150.818 E.07387
G1 X82.615 Y150.543 E.0345
G1 X81.216 Y150.039 E.04662
G1 X80.228 Y149.574 E.03423
G1 X78.944 Y148.815 E.04677
G1 X78.058 Y148.171 E.03435
G1 X76.936 Y147.182 E.04689
G1 X76.188 Y146.387 E.03423
G1 X75.269 Y145.204 E.04696
G1 X74.379 Y143.73 E.05399
G1 X73.91 Y142.735 E.0345
G1 X73.405 Y141.334 E.0467
G1 X73.013 Y139.654 E.05407
G1 X72.834 Y137.948 E.0538
G1 X72.832 Y136.842 E.03469
G1 X78.851 Y89.149 E1.50721
G1 X79.411 Y87.65 E.05018
G1 X79.771 Y87.79 F9000
G1 F1200
G1 X79.816 Y87.676 E.00383
G1 X81.064 Y86.603 E.05163
G1 X89.997 Y82.135 E.31316
G1 X91.508 Y81.778 E.04867
G1 X139.492 Y81.778 E1.50452
G1 X141.003 Y82.135 E.04867
G1 X149.936 Y86.603 E.31316
G1 X151.175 Y87.664 E.05115
G1 X151.775 Y89.197 E.05163
G1 X157.791 Y136.858 E1.50625
G1 X157.75 Y138.533 E.05252
G1 X157.618 Y139.575 E.03294
G1 X157.296 Y141.014 E.04621
G1 X156.973 Y142.005 E.03268
G1 X156.391 Y143.35 E.04595
G1 X155.881 Y144.278 E.03321
G1 X154.927 Y145.657 E.05258
G1 X153.963 Y146.75 E.04569
G1 X153.198 Y147.47 E.03294
G1 X152.034 Y148.374 E.04621
G1 X151.154 Y148.933 E.03268
G1 X149.847 Y149.601 E.04602
G1 X148.865 Y149.991 E.03314
G1 X147.46 Y150.4 E.04589
G1 X145.812 Y150.677 E.05239
G1 X144.764 Y150.745 E.03294
G1 X86.041 Y150.738 E1.8412
G1 X83.751 Y150.447 E.07239
G1 X82.731 Y150.185 E.03301
G1 X81.355 Y149.688 E.04589
G1 X80.41 Y149.243 E.03275
G1 X79.146 Y148.496 E.04602
G1 X78.298 Y147.88 E.03288
G1 X77.194 Y146.907 E.04615
G1 X76.478 Y146.146 E.03274
G1 X75.574 Y144.982 E.04621
G1 X74.71 Y143.548 E.05252
G1 X74.261 Y142.595 E.03301
G1 X73.763 Y141.217 E.04595
G1 X73.383 Y139.583 E.05258
G1 X73.211 Y137.924 E.05232
G1 X73.209 Y136.865 E.0332
G1 X79.225 Y89.197 E1.50644
G1 X79.75 Y87.846 E.04544
G1 E-3.5 F3600
;WIPE_START
G1 F7200
G1 X79.816 Y87.676 E-.08659
G1 X81.064 Y86.603 E-.78212
G1 X82.112 Y86.079 E-.55629
;WIPE_END
G1 E-.075 F3600
G1 X139.492 Y102.758 F9000
G1 E5 F2400
;TYPE:Support material
G1 F1200
G1 X91.508 Y102.758 E1.50452
G1 X91.508 Y85.156 E.55191
G1 X139.492 Y85.156 E1.50452
G1 X139.492 Y102.701 E.55013
G1 X138.963 Y102.588 F9000
G1 F1200
G1 X138.963 Y85.495 E.53595
G1 X138.544 Y85.495 E.01314
G1 X138.544 Y102.418 E.53063
G1 X138.125 Y102.418 E.01314
G1 X138.125 Y85.495 E.53063
G1 X137.706 Y85.495 E.01314
G1 X137.706 Y102.418 E.53063
G1 X137.287 Y102.418 E.01314
G1 X137.287 Y85.495 E.53063
G1 X136.868 Y85.495 E.01314
G1 X136.868 Y102.418 E.53063
G1 X136.449 Y102.418 E.01314
G1 X136.449 Y85.495 E.53063
G1 X136.03 Y85.495 E.01314
G1 X136.03 Y102.418 E.53063
G1 X135.611 Y102.418 E.01314
G1 X135.611 Y85.495 E.53063
G1 X135.192 Y85.495 E.01314
G1 X135.192 Y102.418 E.53063
G1 X134.773 Y102.418 E.01314
G1 X134.773 Y85.495 E.53063
G1 X134.354 Y85.495 E.01314
G1 X134.354 Y102.418 E.53063
G1 X133.935 Y102.418 E.01314
G1 X133.935 Y85.495 E.53063
G1 X133.516 Y85.495 E.01314
G1 X133.516 Y102.418 E.53063
G1 X133.097 Y102.418 E.01314
G1 X133.097 Y85.495 E.53063
G1 X132.678 Y85.495 E.01314
G1 X132.678 Y102.418 E.53063
G1 X132.259 Y102.418 E.01314
G1 X132.259 Y85.495 E.53063
G1 X131.84 Y85.495 E.01314
G1 X131.84 Y102.418 E.53063
G1 X131.421 Y102.418 E.01314
G1 X131.421 Y85.495 E.53063
G1 X131.002 Y85.495 E.01314
G1 X131.002 Y102.418 E.53063
G1 X130.583 Y102.418 E.01314
G1 X130.583 Y85.495 E.53063
G1 X130.164 Y85.495 E.01314
G1 X130.164 Y102.418 E.53063
G1 X129.745 Y102.418 E.01314
G1 X129.745 Y85.495 E.53063
G1 X129.326 Y85.495 E.01314
G1 X129.326 Y102.418 E.53063
G1 X128.907 Y102.418 E.01314
G1 X128.907 Y85.495 E.53063
G1 X128.488 Y85.495 E.01314
G1 X128.488 Y102.418 E.53063
G1 X128.069 Y102.418 E.01314
G1 X128.069 Y85.495 E.53063
G1 X127.65 Y85.495 E.01314
G1 X127.65 Y102.418 E.53063
G1 X127.231 Y102.418 E.01314
G1 X127.231 Y85.495 E.53063
G1 X126.812 Y85.495 E.01314
G1 X126.812 Y102.418 E.53063
G1 X126.393 Y102.418 E.01314
G1 X126.393 Y85.495 E.53063
G1 X125.974 Y85.495 E.01314
G1 X125.974 Y102.418 E.53063
G1 X125.555 Y102.418 E.01314
G1 X125.555 Y85.495 E.53063
G1 X125.136 Y85.495 E.01314
G1 X125.136 Y102.418 E.53063
G1 X124.717 Y102.418 E.01314
G1 X124.717 Y85.495 E.53063
G1 X124.299 Y85.495 E.01314
G1 X124.299 Y102.418 E.53063
G1 X123.88 Y102.418 E.01314
G1 X123.88 Y85.495 E.53063
G1 X123.461 Y85.495 E.01314
G1 X123.461 Y102.418 E.53063
G1 X123.042 Y102.418 E.01314
G1 X123.042 Y85.495 E.53063
G1 X122.623 Y85.495 E.01314
G1 X122.623 Y102.418 E.53063
G1 X122.204 Y102.418 E.01314
G1 X122.204 Y85.495 E.53063
G1 X121.785 Y85.495 E.01314
G1 X121.785 Y102.418 E.53063
G1 X121.366 Y102.418 E.01314
G1 X121.366 Y85.495 E.53063
G1 X120.947 Y85.495 E.01314
G1 X120.947 Y102.418 E.53063
G1 X120.528 Y102.418 E.01314
G1 X120.528 Y85.495 E.53063
G1 X120.109 Y85.495 E.01314
G1 X120.109 Y102.418 E.53063
G1 X119.69 Y102.418 E.01314
G1 X119.69 Y85.495 E.53063
G1 X119.271 Y85.495 E.01314
G1 X119.271 Y102.418 E.53063
G1 X118.852 Y102.418 E.01314
G1 X118.852 Y85.495 E.53063
G1 X118.433 Y85.495 E.01314
G1 X118.433 Y102.418 E.53063
G1 X118.014 Y102.418 E.01314
G1 X118.014 Y85.495 E.53063
G1 X117.595 Y85.495 E.01314
G1 X117.595 Y102.418 E.53063
G1 X117.176 Y102.418 E.01314
G1 X117.176 Y85.495 E.53063
G1 X116.757 Y85.495 E.01314
G1 X116.757 Y102.418 E.53063
G1 X116.338 Y102.418 E.01314
G1 X116.338 Y85.495 E.53063
G1 X115.919 Y85.495 E.01314
G1 X115.919 Y102.418 E.53063
G1 X115.5 Y102.418 E.01314
G1 X115.5 Y85.495 E.53063
G1 X115.081 Y85.495 E.01314
G1 X115.081 Y102.418 E.53063
G1 X114.662 Y102.418 E.01314
G1 X114.662 Y85.495 E.53063
G1 X114.243 Y85.495 E.01314
G1 X114.243 Y102.418 E.53063
G1 X113.824 Y102.418 E.01314
G1 X113.824 Y85.495 E.53063
G1 X113.405 Y85.495 E.01314
G1 X113.405 Y102.418 E.53063
G1 X112.986 Y102.418 E.01314
G1 X112.986 Y85.495 E.53063
G1 X112.567 Y85.495 E.01314
G1 X112.567 Y102.418 E.53063
G1 X112.148 Y102.418 E.01314
G1 X112.148 Y85.495 E.53063
G1 X111.729 Y85.495 E.01314
G1 X111.729 Y102.418 E.53063
G1 X111.31 Y102.418 E.01314
G1 X111.31 Y85.495 E.53063
G1 X110.891 Y85.495 E.01314
G1 X110.891 Y102.418 E.53063
G1 X110.472 Y102.418 E.01314
G1 X110.472 Y85.495 E.53063
G1 X110.053 Y85.495 E.01314
G1 X110.053 Y102.418 E.53063
G1 X109.634 Y102.418 E.01314
G1 X109.634 Y85.495 E.53063
G1 X109.215 Y85.495 E.01314
G1 X109.215 Y102.418 E.53063
G1 X108.796 Y102.418 E.01314
G1 X108.796 Y85.495 E.53063
G1 X108.377 Y85.495 E.01314
G1 X108.377 Y102.418 E.53063
G1 X107.958 Y102.418 E.01314
G1 X107.958 Y85.495 E.53063
G1 X107.539 Y85.495 E.01314
G1 X107.539 Y102.418 E.53063
G1 X107.12 Y102.418 E.01314
G1 X107.12 Y85.495 E.53063
G1 X106.701 Y85.495 E.01314
G1 X106.701 Y102.418 E.53063
G1 X106.283 Y102.418 E.01314
G1 X106.283 Y85.495 E.53063
G1 X105.864 Y85.495 E.01314
G1 X105.864 Y102.418 E.53063
G1 X105.445 Y102.418 E.01314
G1 X105.445 Y85.495 E.53063
G1 X105.026 Y85.495 E.01314
G1 X105.026 Y102.418 E.53063
G1 X104.607 Y102.418 E.01314
G1 X104.607 Y85.495 E.53063
G1 X104.188 Y85.495 E.01314
G1 X104.188 Y102.418 E.53063
G1 X103.769 Y102.418 E.01314
G1 X103.769 Y85.495 E.53063
G1 X103.35 Y85.495 E.01314
G1 X103.35 Y102.418 E.53063
G1 X102.931 Y102.418 E.01314
G1 X102.931 Y85.495 E.53063
G1 X102.512 Y85.495 E.01314
G1 X102.512 Y102.418 E.53063
G1 X102.093 Y102.418 E.01314
G1 X102.093 Y85.495 E.53063
G1 X101.674 Y85.495 E.01314
G1 X101.674 Y102.418 E.53063
G1 X101.255 Y102.418 E.01314
G1 X101.255 Y85.495 E.53063
G1 X100.836 Y85.495 E.01314
G1 X100.836 Y102.418 E.53063
G1 X100.417 Y102.418 E.01314
G1 X100.417 Y85.495 E.53063
G1 X99.998 Y85.495 E.01314
G1 X99.998 Y102.418 E.53063
G1 X99.579 Y102.418 E.01314
G1 X99.579 Y85.495 E.53063
G1 X99.16 Y85.495 E.01314
G1 X99.16 Y102.418 E.53063
G1 X98.741 Y102.418 E.01314
G1 X98.741 Y85.495 E.53063
G1 X98.322 Y85.495 E.01314
G1 X98.322 Y102.418 E.53063
G1 X97.903 Y102.418 E.01314
G1 X97.903 Y85.495 E.53063
G1 X97.484 Y85.495 E.01314
G1 X97.484 Y102.418 E.53063
G1 X97.065 Y102.418 E.01314
G1 X97.065 Y85.495 E.53063
G1 X96.646 Y85.495 E.01314
G1 X96.646 Y102.418 E.53063
G1 X96.227 Y102.418 E.01314
G1 X96.227 Y85.495 E.53063
G1 X95.808 Y85.495 E.01314
G1 X95.808 Y102.418 E.53063
G1 X95.389 Y102.418 E.01314
G1 X95.389 Y85.495 E.53063
G1 X94.97 Y85.495 E.01314
G1 X94.97 Y102.418 E.53063
G1 X94.551 Y102.418 E.01314
G1 X94.551 Y85.495 E.53063
G1 X94.132 Y85.495 E.01314
G1 X94.132 Y102.418 E.53063
G1 X93.713 Y102.418 E.01314
G1 X93.713 Y85.495 E.53063
G1 X93.294 Y85.495 E.01314
G1 X93.294 Y102.418 E.53063
G1 X92.875 Y102.418 E.01314
G1 X92.875 Y85.495 E.53063
G1 X92.456 Y85.495 E.01314
G1 X92.456 Y102.418 E.53063
G1 X92.037 Y102.418 E.01314
G1 X92.037 Y85.325 E.53595
G1 E-3.5 F3600
;WIPE_START
G1 F7200
G1 X92.037 Y88.325 E-1.425
;WIPE_END
G1 E-.075 F3600
G1 X123.133 Y133.14 F9000
G1 E5 F2400
G1 F1200
G1 X98.519 Y133.14 E.77174
G1 X98.519 Y108.526 E.77174
G1 X123.133 Y108.526 E.77174
G1 X123.133 Y133.083 E.76997
G1 X122.623 Y132.97 F9000
G1 F1200
G1 X122.623 Y108.866 E.75578
G1 X122.204 Y108.866 E.01314
G1 X122.204 Y132.8 E.75046
G1 X121.785 Y132.8 E.01314
G1 X121.785 Y108.866 E.75046
G1 X121.366 Y108.866 E.01314
G1 X121.366 Y132.8 E.75046
G1 X120.947 Y132.8 E.01314
G1 X120.947 Y108.866 E.75046
G1 X120.528 Y108.866 E.01314
G1 X120.528 Y132.8 E.75046
G1 X120.109 Y132.8 E.01314
G1 X120.109 Y108.866 E.75046
G1 X119.69 Y108.866 E.01314
G1 X119.69 Y132.8 E.75046
G1 X119.271 Y132.8 E.01314
G1 X119.271 Y108.866 E.75046
G1 X118.852 Y108.866 E.01314
G1 X118.852 Y132.8 E.75046
G1 X118.433 Y132.8 E.01314
G1 X118.433 Y108.866 E.75046
G1 X118.014 Y108.866 E.01314
G1 X118.014 Y132.8 E.75046
G1 X117.595 Y132.8 E.01314
G1 X117.595 Y108.866 E.75046
G1 X117.176 Y108.866 E.01314
G1 X117.176 Y132.8 E.75046
G1 X116.757 Y132.8 E.01314
G1 X116.757 Y108.866 E.75046
G1 X116.338 Y108.866 E.01314
G1 X116.338 Y132.8 E.75046
G1 X115.919 Y132.8 E.01314
G1 X115.919 Y108.866 E.75046
G1 X115.5 Y108.866 E.01314
G1 X115.5 Y132.8 E.75046
G1 X115.081 Y132.8 E.01314
G1 X115.081 Y108.866 E.75046
G1 X114.662 Y108.866 E.01314
G1 X114.662 Y132.8 E.75046
G1 X114.243 Y132.8 E.01314
G1 X114.243 Y108.866 E.75046
G1 X113.824 Y108.866 E.01314
G1 X113.824 Y132.8 E.75046
G1 X113.405 Y132.8 E.01314
G1 X113.405 Y108.866 E.75046
G1 X112.986 Y108.866 E.01314
G1 X112.986 Y132.8 E.75046
G1 X112.567 Y132.8 E.01314
G1 X112.567 Y108.866 E.75046
G1 X112.148 Y108.866 E.01314
G1 X112.148 Y132.8 E.75046
G1 X111.729 Y132.8 E.01314
G1 X111.729 Y108.866 E.75046
G1 X111.31 Y108.866 E.01314
G1 X111.31 Y132.8 E.75046
G1 X110.891 Y132.8 E.01314
G1 X110.891 Y108.866 E.75046
G1 X110.472 Y108.866 E.01314
G1 X110.472 Y132.8 E.75046
G1 X110.053 Y132.8 E.01314
G1 X110.053 Y108.866 E.75046
G1 X109.634 Y108.866 E.01314
G1 X109.634 Y132.8 E.75046
G1 X109.215 Y132.8 E.01314
G1 X109.215 Y108.866 E.75046
G1 X108.796 Y108.866 E.01314
G1 X108.796 Y132.8 E.75046
G1 X108.377 Y132.8 E.01314
G1 X108.377 Y108.866 E.75046
G1 X107.958 Y108.866 E.01314
G1 X107.958 Y132.8 E.75046
G1 X107.539 Y132.8 E.01314
G1 X107.539 Y108.866 E.75046
G1 X107.12 Y108.866 E.01314
G1 X107.12 Y132.8 E.75046
G1 X106.701 Y132.8 E.01314
G1 X106.701 Y108.866 E.75046
G1 X106.283 Y108.866 E.01314
G1 X106.283 Y132.8 E.75046
G1 X105.864 Y132.8 E.01314
G1 X105.864 Y108.866 E.75046
G1 X105.445 Y108.866 E.01314
G1 X105.445 Y132.8 E.75046
G1 X105.026 Y132.8 E.01314
G1 X105.026 Y108.866 E.75046
G1 X104.607 Y108.866 E.01314
G1 X104.607 Y132.8 E.75046
G1 X104.188 Y132.8 E.01314
G1 X104.188 Y108.866 E.75046
G1 X103.769 Y108.866 E.01314
G1 X103.769 Y132.8 E.75046
G1 X103.35 Y132.8 E.01314
G1 X103.35 Y108.866 E.75046
G1 X102.931 Y108.866 E.01314
G1 X102.931 Y132.8 E.75046
G1 X102.512 Y132.8 E.01314
G1 X102.512 Y108.866 E.75046
G1 X102.093 Y108.866 E.01314
G1 X102.093 Y132.8 E.75046
G1 X101.674 Y132.8 E.01314
G1 X101.674 Y108.866 E.75046
G1 X101.255 Y108.866 E.01314
G1 X101.255 Y132.8 E.75046
G1 X100.836 Y132.8 E.01314
G1 X100.836 Y108.866 E.75046
G1 X100.417 Y108.866 E.01314
G1 X100.417 Y132.8 E.75046
G1 X99.998 Y132.8 E.01314
G1 X99.998 Y108.866 E.75046
G1 X99.579 Y108.866 E.01314
G1 X99.579 Y132.8 E.75046
G1 X99.16 Y132.8 E.01314
G1 X99.16 Y108.696 E.75578
G1 E-3.5 F3600
;WIPE_START
G1 F7200
G1 X99.16 Y111.696 E-1.425
;WIPE_END
G1 E-.075 F3600
G1 X147.738 Y128.643 F9000
G1 E5 F2400
;TYPE:Perimeter
G1 F1200
G1 X148.678 Y129.088 E.03262
G1 X149.189 Y129.371 E.01831
G1 X149.681 Y129.686 E.01831
G1 X150.153 Y130.03 E.01831
G1 X150.602 Y130.404 E.01831
G1 X151.026 Y130.805 E.01831
G1 X151.425 Y131.232 E.01831
G1 X151.797 Y131.682 E.01831
G1 X152.139 Y132.156 E.01831
G1 X152.451 Y132.65 E.01831
G1 X152.731 Y133.162 E.01831
G1 X152.979 Y133.691 E.01831
G1 X153.193 Y134.235 E.01832
G1 X153.371 Y134.787 E.01822
G1 X153.517 Y135.356 E.01841
G1 X153.625 Y135.93 E.01831
G1 X153.697 Y136.51 E.01831
G1 X153.733 Y137.093 E.01831
G1 X153.733 Y137.677 E.01831
G1 X153.695 Y138.26 E.01831
G1 X153.621 Y138.839 E.01831
G1 X153.511 Y139.413 E.01831
G1 X153.366 Y139.979 E.01831
G1 X153.185 Y140.534 E.01831
G1 X152.969 Y141.077 E.01831
