; generated by PrusaSlicer 2.4.2+win64 on 2022-08-04 at 01:20:17 UTC

; 

; external perimeters extrusion width = 0.45mm
; perimeters extrusion width = 0.45mm
; infill extrusion width = 0.45mm
; solid infill extrusion width = 0.45mm
; top infill extrusion width = 0.40mm
; support material extrusion width = 0.38mm
; first layer extrusion width = 0.42mm

M107
;TYPE:Custom
G90 ; use absolute coordinates
M83 ; extruder relative mode
M140 S110 ; set final bed temp
M104 S170 ; set temporary nozzle temp to prevent oozing during homing
G4 S10 ; allow partial nozzle warmup
G28 ; home all axis
G1 Z50 F300
G1 X10 Y10 F3000
M190 S104.5 ; wait for bed temp to stabilize at 90%
M140 S110 ; set final bed temp
M104 S245 ; set final nozzle temp
M109 S245 ; wait for nozzle temp to stabilize
G1 Z0.28 F240
G92 E0
G1 Y180 E10 F1500 ; prime the nozzle
G1 X10.3 F5000
G92 E0
G1 Y10 E10 F1200 ; prime the nozzle
G92 E0
G21 ; set units to millimeters
G90 ; use absolute coordinates
M83 ; use relative distances for extrusion
; Filament gcode
M107
;LAYER_CHANGE
;Z:0.2
;HEIGHT:0.2
;BEFORE_LAYER_CHANGE
G92 E0
;0.2


G1 E-5 F3600
G1 Z.2 F9000
;AFTER_LAYER_CHANGE
;0.2
G1 X78.204 Y82.846
G1 E5 F2400
M204 P500
;TYPE:Skirt/Brim
;WIDTH:0.42
G1 F1200
G1 X79.791 Y81.568 E.0639
G1 X80.531 Y81.107 E.02733
G1 X81.825 Y80.462 E.04533
G1 X83.761 Y79.825 E.0639
G1 X85.184 Y79.574 E.04533
G1 X86.053 Y79.505 E.02733
G1 X144.671 Y79.496 E1.83793
G1 X146.677 Y79.705 E.06323
G1 X147.527 Y79.897 E.02733
G1 X148.9 Y80.35 E.04533
G1 X150.725 Y81.258 E.0639
G1 X151.913 Y82.081 E.04533
G1 X152.579 Y82.643 E.02733
G1 X153.967 Y84.135 E.06389
G1 X154.79 Y85.324 E.04533
G1 X155.216 Y86.084 E.02733
G1 X155.898 Y87.687 E.05462
G1 X156.395 Y89.663 E.0639
G1 X156.548 Y91.196 E.04831
G1 X158.553 Y137.613 E1.45673
G1 X158.44 Y139.173 E.04902
G1 X158.24 Y140.339 E.0371
G1 X157.828 Y141.847 E.04901
G1 X157.406 Y142.953 E.0371
G1 X156.711 Y144.353 E.04902
G1 X156.084 Y145.356 E.0371
G1 X155.13 Y146.595 E.04902
G1 X154.321 Y147.459 E.0371
G1 X153.146 Y148.49 E.04902
G1 X152.408 Y149.032 E.02872
G1 X151.404 Y149.659 E.0371
G1 X150.005 Y150.355 E.04902
G1 X148.899 Y150.776 E.0371
G1 X147.391 Y151.188 E.04902
G1 X145.313 Y151.475 E.06577
G1 X86.5 Y151.504 E1.84404
G1 X84.776 Y151.388 E.05418
G1 X83.609 Y151.188 E.0371
G1 X82.101 Y150.776 E.04902
G1 X80.995 Y150.355 E.0371
G1 X79.596 Y149.659 E.04902
G1 X78.592 Y149.032 E.0371
G1 X77.353 Y148.079 E.04902
G1 X76.49 Y147.269 E.0371
G1 X75.295 Y145.882 E.0574
G1 X74.424 Y144.584 E.04902
G1 X73.863 Y143.542 E.0371
G1 X73.259 Y142.1 E.04902
G1 X72.911 Y140.969 E.0371
G1 X72.597 Y139.438 E.04902
G1 X72.473 Y138.261 E.0371
G1 X72.461 Y136.698 E.04902
G1 X74.526 Y90.233 E1.45832
G1 X74.777 Y88.809 E.04533
G1 X75.009 Y87.969 E.02733
G1 X75.784 Y86.084 E.06389
G1 X76.689 Y84.596 E.05462
G1 X77.219 Y83.904 E.02733
G1 X78.163 Y82.89 E.04345
G1 X78.439 Y83.146 F9000
G1 F1200
G1 X79.995 Y81.886 E.06279
G1 X80.711 Y81.438 E.02648
G1 X81.981 Y80.806 E.04448
G1 X83.839 Y80.194 E.06135
G1 X85.236 Y79.947 E.04448
G1 X86.078 Y79.881 E.02648
G1 X144.671 Y79.873 E1.83714
G1 X146.598 Y80.073 E.06075
G1 X147.422 Y80.259 E.02648
G1 X148.77 Y80.703 E.04448
G1 X150.521 Y81.575 E.06135
G1 X151.687 Y82.383 E.04448
G1 X152.332 Y82.928 E.02648
G1 X153.665 Y84.361 E.06135
G1 X154.473 Y85.527 E.04448
G1 X154.885 Y86.264 E.02648
G1 X155.544 Y87.818 E.05292
G1 X156.022 Y89.715 E.06135
G1 X156.172 Y91.213 E.04718
G1 X158.176 Y137.598 E1.45575
G1 X158.065 Y139.133 E.04825
G1 X157.873 Y140.251 E.03557
G1 X157.467 Y141.736 E.04825
G1 X157.063 Y142.796 E.03557
G1 X156.379 Y144.174 E.04825
G1 X155.777 Y145.136 E.03557
G1 X154.839 Y146.356 E.04825
G1 X154.063 Y147.184 E.03557
G1 X152.188 Y148.726 E.07613
G1 X151.226 Y149.327 E.03557
G1 X149.848 Y150.012 E.04825
G1 X148.788 Y150.416 E.03557
G1 X147.303 Y150.821 E.04825
G1 X145.298 Y151.098 E.06347
G1 X86.5 Y151.127 E1.84357
G1 X84.815 Y151.013 E.05294
G1 X83.697 Y150.821 E.03557
G1 X82.212 Y150.416 E.04825
G1 X81.152 Y150.012 E.03557
G1 X79.774 Y149.327 E.04825
G1 X78.812 Y148.726 E.03557
G1 X77.592 Y147.787 E.04825
G1 X76.765 Y147.011 E.03557
G1 X75.749 Y145.855 E.04825
G1 X74.744 Y144.384 E.05587
G1 X74.206 Y143.385 E.03557
G1 X73.612 Y141.966 E.04825
G1 X73.277 Y140.882 E.03557
G1 X72.969 Y139.374 E.04825
G1 X72.85 Y138.246 E.03557
G1 X72.838 Y136.707 E.04825
G1 X74.899 Y90.285 E1.45698
G1 X75.145 Y88.888 E.04448
G1 X75.371 Y88.074 E.02648
G1 X76.115 Y86.264 E.06135
G1 X76.991 Y84.821 E.05292
G1 X77.504 Y84.151 E.02648
G1 X78.398 Y83.19 E.04114
G1 X78.685 Y83.439 F9000
G1 F1200
G1 X78.737 Y83.379 E.00249
G1 X80.198 Y82.203 E.05881
G1 X82.137 Y81.149 E.06918
G1 X83.918 Y80.562 E.05881
G1 X86.103 Y80.257 E.06918
G1 X144.671 Y80.25 E1.83636
G1 X146.52 Y80.442 E.05827
G1 X148.639 Y81.057 E.06918
G1 X150.318 Y81.893 E.05881
G1 X152.085 Y83.214 E.06918
G1 X153.363 Y84.587 E.05881
G1 X154.553 Y86.444 E.06918
G1 X155.267 Y88.179 E.05881
G1 X155.728 Y90.337 E.06918
G1 X157.799 Y137.583 E1.48281
G1 X157.69 Y139.094 E.04748
G1 X157.506 Y140.164 E.03404
G1 X157.107 Y141.625 E.04748
G1 X156.721 Y142.639 E.03404
G1 X156.046 Y143.995 E.04748
G1 X155.471 Y144.916 E.03404
G1 X154.548 Y146.116 E.04748
G1 X153.805 Y146.908 E.03404
G1 X151.968 Y148.419 E.0746
G1 X151.047 Y148.995 E.03404
G1 X149.691 Y149.669 E.04748
G1 X148.676 Y150.055 E.03404
G1 X147.216 Y150.455 E.04748
G1 X145.283 Y150.721 E.06118
G1 X86.5 Y150.75 E1.8431
G1 X84.854 Y150.638 E.05171
G1 X83.784 Y150.455 E.03404
G1 X82.324 Y150.055 E.04748
G1 X81.309 Y149.669 E.03404
G1 X79.953 Y148.995 E.04748
G1 X79.032 Y148.419 E.03404
G1 X77.832 Y147.496 E.04748
G1 X77.04 Y146.754 E.03404
G1 X76.041 Y145.616 E.04748
G1 X75.063 Y144.185 E.05433
G1 X74.549 Y143.229 E.03404
G1 X73.964 Y141.832 E.04748
G1 X73.644 Y140.794 E.03404
G1 X73.34 Y139.311 E.04748
G1 X73.227 Y138.231 E.03404
G1 X73.215 Y136.717 E.04748
G1 X75.272 Y90.337 E1.45564
G1 X75.733 Y88.179 E.06918
G1 X76.447 Y86.444 E.05881
G1 X77.293 Y85.047 E.05122
G1 X78.646 Y83.484 E.06481
G1 E-3.5 F3600
;WIPE_START
G1 F7200
G1 X78.737 Y83.379 E-.06617
G1 X80.198 Y82.203 E-.8909
G1 X81.064 Y81.733 E-.46793
;WIPE_END
G1 E-.075 F3600
G1 X123.133 Y132.481 F9000
G1 E5 F2400
;TYPE:Support material
G1 F1200
G1 X98.519 Y132.481 E.77174
G1 X98.519 Y96.182 E1.13813
G1 X123.133 Y96.182 E.77174
G1 X123.133 Y132.424 E1.13635
G1 X122.623 Y132.311 F9000
G1 F1200
G1 X122.623 Y96.521 E1.12217
G1 X122.204 Y96.521 E.01314
G1 X122.204 Y132.142 E1.11685
G1 X121.785 Y132.142 E.01314
G1 X121.785 Y96.521 E1.11685
G1 X121.366 Y96.521 E.01314
G1 X121.366 Y132.142 E1.11685
G1 X120.947 Y132.142 E.01314
G1 X120.947 Y96.521 E1.11685
G1 X120.528 Y96.521 E.01314
G1 X120.528 Y132.142 E1.11685
G1 X120.109 Y132.142 E.01314
G1 X120.109 Y96.521 E1.11685
G1 X119.69 Y96.521 E.01314
G1 X119.69 Y132.142 E1.11685
G1 X119.271 Y132.142 E.01314
G1 X119.271 Y96.521 E1.11685
G1 X118.852 Y96.521 E.01314
G1 X118.852 Y132.142 E1.11685
G1 X118.433 Y132.142 E.01314
G1 X118.433 Y96.521 E1.11685
G1 X118.014 Y96.521 E.01314
G1 X118.014 Y132.142 E1.11685
G1 X117.595 Y132.142 E.01314
G1 X117.595 Y96.521 E1.11685
G1 X117.176 Y96.521 E.01314
G1 X117.176 Y132.142 E1.11685
G1 X116.757 Y132.142 E.01314
G1 X116.757 Y96.521 E1.11685
G1 X116.338 Y96.521 E.01314
G1 X116.338 Y132.142 E1.11685
G1 X115.919 Y132.142 E.01314
G1 X115.919 Y96.521 E1.11685
G1 X115.5 Y96.521 E.01314
G1 X115.5 Y132.142 E1.11685
G1 X115.081 Y132.142 E.01314
G1 X115.081 Y96.521 E1.11685
G1 X114.662 Y96.521 E.01314
G1 X114.662 Y132.142 E1.11685
G1 X114.243 Y132.142 E.01314
G1 X114.243 Y96.521 E1.11685
G1 X113.824 Y96.521 E.01314
G1 X113.824 Y132.142 E1.11685
G1 X113.405 Y132.142 E.01314
G1 X113.405 Y96.521 E1.11685
G1 X112.986 Y96.521 E.01314
G1 X112.986 Y132.142 E1.11685
G1 X112.567 Y132.142 E.01314
G1 X112.567 Y96.521 E1.11685
G1 X112.148 Y96.521 E.01314
G1 X112.148 Y132.142 E1.11685
G1 X111.729 Y132.142 E.01314
G1 X111.729 Y96.521 E1.11685
G1 X111.31 Y96.521 E.01314
G1 X111.31 Y132.142 E1.11685
G1 X110.891 Y132.142 E.01314
G1 X110.891 Y96.521 E1.11685
G1 X110.472 Y96.521 E.01314
G1 X110.472 Y132.142 E1.11685
G1 X110.053 Y132.142 E.01314
G1 X110.053 Y96.521 E1.11685
G1 X109.634 Y96.521 E.01314
G1 X109.634 Y132.142 E1.11685
G1 X109.215 Y132.142 E.01314
G1 X109.215 Y96.521 E1.11685
G1 X108.796 Y96.521 E.01314
G1 X108.796 Y132.142 E1.11685
G1 X108.377 Y132.142 E.01314
G1 X108.377 Y96.521 E1.11685
G1 X107.958 Y96.521 E.01314
G1 X107.958 Y132.142 E1.11685
G1 X107.539 Y132.142 E.01314
G1 X107.539 Y96.521 E1.11685
G1 X107.12 Y96.521 E.01314
G1 X107.12 Y132.142 E1.11685
G1 X106.701 Y132.142 E.01314
G1 X106.701 Y96.521 E1.11685
G1 X106.283 Y96.521 E.01314
G1 X106.283 Y132.142 E1.11685
G1 X105.864 Y132.142 E.01314
G1 X105.864 Y96.521 E1.11685
G1 X105.445 Y96.521 E.01314
G1 X105.445 Y132.142 E1.11685
G1 X105.026 Y132.142 E.01314
G1 X105.026 Y96.521 E1.11685
G1 X104.607 Y96.521 E.01314
G1 X104.607 Y132.142 E1.11685
G1 X104.188 Y132.142 E.01314
G1 X104.188 Y96.521 E1.11685
G1 X103.769 Y96.521 E.01314
G1 X103.769 Y132.142 E1.11685
G1 X103.35 Y132.142 E.01314
G1 X103.35 Y96.521 E1.11685
G1 X102.931 Y96.521 E.01314
G1 X102.931 Y132.142 E1.11685
G1 X102.512 Y132.142 E.01314
G1 X102.512 Y96.521 E1.11685
G1 X102.093 Y96.521 E.01314
G1 X102.093 Y132.142 E1.11685
G1 X101.674 Y132.142 E.01314
G1 X101.674 Y96.521 E1.11685
G1 X101.255 Y96.521 E.01314
G1 X101.255 Y132.142 E1.11685
G1 X100.836 Y132.142 E.01314
G1 X100.836 Y96.521 E1.11685
G1 X100.417 Y96.521 E.01314
G1 X100.417 Y132.142 E1.11685
G1 X99.998 Y132.142 E.01314
G1 X99.998 Y96.521 E1.11685
G1 X99.579 Y96.521 E.01314
G1 X99.579 Y132.142 E1.11685
G1 X99.16 Y132.142 E.01314
G1 X99.16 Y96.352 E1.12217
G1 E-3.5 F3600
;WIPE_START
G1 F7200
G1 X99.16 Y99.352 E-1.425
;WIPE_END
G1 E-.075 F3600
G1 X91.119 Y90.486 F9000
G1 E5 F2400
;TYPE:Perimeter
G1 F1200
G1 X139.881 Y90.486 E1.52889
G1 X139.986 Y90.115 E.01209
G1 X140.162 Y89.674 E.0149
G1 X140.381 Y89.251 E.01493
G1 X140.651 Y88.843 E.01532
G1 X140.942 Y88.486 E.01446
G1 X141.278 Y88.149 E.01492
G1 X141.657 Y87.84 E.01532
G1 X142.042 Y87.586 E.01446
G1 X142.463 Y87.365 E.01492
G1 X142.905 Y87.189 E.0149
G1 X143.362 Y87.057 E.01493
G1 X143.843 Y86.972 E.0153
G1 X144.303 Y86.937 E.01448
G1 X144.778 Y86.949 E.0149
G1 X145.25 Y87.008 E.0149
G1 X145.713 Y87.116 E.0149
G1 X146.163 Y87.269 E.0149
G1 X146.594 Y87.467 E.0149
G1 X147.004 Y87.709 E.0149
G1 X147.387 Y87.99 E.0149
G1 X147.74 Y88.308 E.0149
G1 X148.058 Y88.661 E.0149
G1 X148.34 Y89.044 E.0149
G1 X148.581 Y89.454 E.0149
G1 X148.779 Y89.886 E.0149
G1 X148.933 Y90.335 E.0149
G1 X149.04 Y90.798 E.0149
G1 X149.1 Y91.27 E.0149
G1 X149.111 Y91.745 E.0149
G1 X149.075 Y92.219 E.0149
G1 X148.991 Y92.687 E.0149
G1 X148.86 Y93.144 E.0149
G1 X148.683 Y93.585 E.0149
G1 X148.469 Y93.994 E.01448
G1 X148.2 Y94.402 E.01532
G1 X147.899 Y94.771 E.01493
G1 X147.562 Y95.106 E.0149
G1 X147.194 Y95.406 E.0149
G1 X146.796 Y95.667 E.0149
G1 X146.375 Y95.886 E.0149
G1 X145.933 Y96.062 E.0149
G1 X145.562 Y96.167 E.01209
G1 X145.562 Y130.784 E1.08539
G1 X146.071 Y130.891 E.01631
G1 X146.601 Y131.049 E.01733
G1 X147.115 Y131.251 E.01732
G1 X147.612 Y131.494 E.01733
G1 X148.086 Y131.777 E.01732
G1 X148.536 Y132.098 E.01733
G1 X148.957 Y132.455 E.01733
G1 X149.348 Y132.847 E.01734
G1 X149.71 Y133.276 E.01761
G1 X150.025 Y133.718 E.01703
G1 X150.308 Y134.193 E.01732
G1 X150.55 Y134.689 E.01732
G1 X150.751 Y135.204 E.01732
G1 X150.909 Y135.734 E.01733
G1 X151.022 Y136.275 E.01734
G1 X151.09 Y136.832 E.01761
G1 X151.113 Y137.375 E.01703
G1 X151.09 Y137.927 E.01733
G1 X151.021 Y138.475 E.01732
G1 X150.908 Y139.016 E.01732
G1 X150.75 Y139.546 E.01733
G1 X150.549 Y140.061 E.01734
G1 X150.301 Y140.565 E.01761
G1 X150.023 Y141.031 E.01703
G1 X149.702 Y141.481 E.01732
G1 X149.345 Y141.903 E.01733
G1 X148.955 Y142.293 E.01732
G1 X148.533 Y142.651 E.01733
G1 X148.083 Y142.972 E.01732
G1 X147.609 Y143.255 E.01733
G1 X147.112 Y143.497 E.01733
G1 X146.597 Y143.698 E.01732
G1 X146.068 Y143.856 E.01733
G1 X145.527 Y143.969 E.01733
G1 X144.979 Y144.038 E.01732
G1 X144.427 Y144.061 E.01733
G1 X143.875 Y144.038 E.01732
G1 X143.326 Y143.97 E.01733
G1 X142.785 Y143.857 E.01732
G1 X142.256 Y143.699 E.01733
G1 X141.741 Y143.499 E.01732
G1 X141.245 Y143.256 E.01732
G1 X140.77 Y142.974 E.01733
G1 X140.32 Y142.653 E.01733
G1 X139.898 Y142.296 E.01733
G1 X139.507 Y141.905 E.01732
G1 X139.15 Y141.484 E.01733
G1 X138.828 Y141.034 E.01732
G1 X138.545 Y140.56 E.01733
G1 X138.302 Y140.064 E.01733
G1 X138.101 Y139.549 E.01732
G1 X137.943 Y139.019 E.01732
G1 X137.836 Y138.51 E.01631
G1 X93.164 Y138.51 E1.40066
G1 X93.057 Y139.019 E.01631
G1 X92.899 Y139.549 E.01732
G1 X92.698 Y140.064 E.01732
G1 X92.455 Y140.56 E.01733
G1 X92.172 Y141.034 E.01732
G1 X91.85 Y141.484 E.01732
G1 X91.493 Y141.905 E.01733
G1 X91.102 Y142.296 E.01734
G1 X90.672 Y142.658 E.01761
G1 X90.23 Y142.974 E.01703
G1 X89.755 Y143.256 E.01732
G1 X89.259 Y143.499 E.01732
G1 X88.744 Y143.699 E.01732
G1 X88.215 Y143.857 E.01733
G1 X87.673 Y143.97 E.01734
G1 X87.116 Y144.039 E.01761
G1 X86.573 Y144.061 E.01703
G1 X86.021 Y144.038 E.01732
G1 X85.473 Y143.969 E.01732
G1 X84.932 Y143.856 E.01733
G1 X84.403 Y143.698 E.01733
G1 X83.888 Y143.497 E.01732
G1 X83.391 Y143.255 E.01732
G1 X82.917 Y142.972 E.01733
G1 X82.467 Y142.651 E.01732
G1 X82.045 Y142.293 E.01733
G1 X81.655 Y141.903 E.01732
G1 X81.298 Y141.481 E.01733
G1 X80.977 Y141.031 E.01732
G1 X80.694 Y140.557 E.01733
G1 X80.451 Y140.06 E.01732
G1 X80.25 Y139.546 E.01732
G1 X80.092 Y139.016 E.01733
G1 X79.979 Y138.475 E.01733
G1 X79.91 Y137.927 E.01732
G1 X79.887 Y137.375 E.01732
G1 X79.91 Y136.823 E.01732
G1 X79.978 Y136.275 E.01733
G1 X80.091 Y135.734 E.01732
G1 X80.249 Y135.204 E.01733
G1 X80.45 Y134.689 E.01732
G1 X80.692 Y134.193 E.01733
G1 X80.975 Y133.718 E.01732
G1 X81.296 Y133.268 E.01732
G1 X81.652 Y132.846 E.01733
G1 X82.043 Y132.455 E.01732
G1 X82.464 Y132.098 E.01733
G1 X82.914 Y131.777 E.01732
G1 X83.388 Y131.494 E.01732
G1 X83.885 Y131.251 E.01733
G1 X84.399 Y131.049 E.01732
G1 X84.929 Y130.891 E.01732
G1 X85.438 Y130.784 E.01631
G1 X85.438 Y96.167 E1.08539
G1 X85.067 Y96.062 E.01209
G1 X84.625 Y95.886 E.01493
G1 X84.192 Y95.66 E.01532
G1 X83.806 Y95.406 E.01446
G1 X83.437 Y95.106 E.01492
G1 X83.092 Y94.76 E.01532
G1 X82.8 Y94.403 E.01446
G1 X82.538 Y94.006 E.0149
G1 X82.317 Y93.585 E.01492
G1 X82.141 Y93.144 E.01488
G1 X82.009 Y92.687 E.01492
G1 X81.925 Y92.219 E.0149
G1 X81.889 Y91.745 E.0149
G1 X81.9 Y91.27 E.01489
G1 X81.96 Y90.798 E.01491
G1 X82.067 Y90.335 E.0149
G1 X82.221 Y89.886 E.0149
G1 X82.419 Y89.454 E.01491
G1 X82.661 Y89.043 E.01493
G1 X82.951 Y88.651 E.01531
G1 X83.26 Y88.308 E.01446
G1 X83.613 Y87.99 E.0149
G1 X83.996 Y87.709 E.0149
G1 X84.405 Y87.467 E.0149
G1 X84.825 Y87.275 E.01446
G1 X85.286 Y87.116 E.01531
G1 X85.75 Y87.008 E.01493
G1 X86.222 Y86.949 E.0149
G1 X86.697 Y86.937 E.01491
G1 X87.171 Y86.973 E.01489
G1 X87.638 Y87.058 E.0149
G1 X88.095 Y87.189 E.0149
G1 X88.537 Y87.366 E.01492
G1 X88.958 Y87.586 E.0149
G1 X89.343 Y87.84 E.01446
G1 X89.722 Y88.149 E.01532
G1 X90.058 Y88.486 E.01493
G1 X90.358 Y88.854 E.0149
G1 X90.611 Y89.24 E.01446
G1 X90.838 Y89.673 E.01532
G1 X91.014 Y90.115 E.01493
G1 X91.103 Y90.428 E.01021
G1 X90.812 Y90.863 F9000
;TYPE:External perimeter
G1 F1200
G1 X140.188 Y90.863 E1.54813
G1 X140.224 Y90.657 E.00656
G1 X140.344 Y90.237 E.0137
G1 X140.505 Y89.831 E.0137
G1 X140.707 Y89.443 E.01371
G1 X140.955 Y89.067 E.01412
G1 X141.222 Y88.738 E.01328
G1 X141.531 Y88.429 E.01371
G1 X141.881 Y88.145 E.01412
G1 X142.234 Y87.911 E.01328
G1 X142.622 Y87.708 E.01372
G1 X143.027 Y87.546 E.0137
G1 X143.447 Y87.425 E.01371
G1 X143.89 Y87.347 E.0141
G1 X144.313 Y87.314 E.01329
G1 X144.75 Y87.325 E.0137
G1 X145.183 Y87.38 E.0137
G1 X145.609 Y87.479 E.0137
G1 X146.023 Y87.62 E.0137
G1 X146.42 Y87.802 E.0137
G1 X146.796 Y88.024 E.0137
G1 X147.149 Y88.282 E.0137
G1 X147.473 Y88.575 E.0137
G1 X147.766 Y88.9 E.0137
G1 X148.024 Y89.252 E.0137
G1 X148.246 Y89.628 E.0137
G1 X148.428 Y90.026 E.0137
G1 X148.57 Y90.439 E.0137
G1 X148.668 Y90.865 E.0137
G1 X148.723 Y91.298 E.0137
