; generated by PrusaSlicer 2.4.2+win64 on 2022-08-07 at 01:02:04 UTC

; 

; external perimeters extrusion width = 0.45mm
; perimeters extrusion width = 0.45mm
; infill extrusion width = 0.45mm
; solid infill extrusion width = 0.45mm
; top infill extrusion width = 0.40mm
; first layer extrusion width = 0.42mm

; external perimeters extrusion width = 0.45mm
; perimeters extrusion width = 0.45mm
; infill extrusion width = 0.45mm
; solid infill extrusion width = 0.45mm
; top infill extrusion width = 0.40mm
; first layer extrusion width = 0.42mm

M107
;TYPE:Custom
G90 ; use absolute coordinates
M83 ; extruder relative mode
M140 S110 ; set final bed temp
M104 S170 ; set temporary nozzle temp to prevent oozing during homing
G4 S10 ; allow partial nozzle warmup
G28 ; home all axis
G1 Z50 F300
G1 X10 Y10 F3000
M190 S104.5 ; wait for bed temp to stabilize at 90%
M140 S110 ; set final bed temp
M104 S245 ; set final nozzle temp
M109 S245 ; wait for nozzle temp to stabilize
G1 Z0.28 F240
G92 E0
G1 Y180 E10 F1500 ; prime the nozzle
G1 X10.3 F5000
G92 E0
G1 Y10 E10 F1200 ; prime the nozzle
G92 E0
G21 ; set units to millimeters
G90 ; use absolute coordinates
M83 ; use relative distances for extrusion
; Filament gcode
M107
;LAYER_CHANGE
;Z:0.2
;HEIGHT:0.2
;BEFORE_LAYER_CHANGE
G92 E0
;0.2


G1 E-5 F3600
G1 Z.2 F9000
;AFTER_LAYER_CHANGE
;0.2
G1 X104.853 Y86.136
G1 E5 F2400
M204 P500
;TYPE:Skirt/Brim
;WIDTH:0.42
G1 F1200
G1 X126.024 Y60.365 E1.04575
G1 X126.777 Y59.68 E.03189
G1 X128.039 Y58.814 E.04798
G1 X129.153 Y58.193 E.04
G1 X130.696 Y57.521 E.05278
G1 X132.156 Y57.063 E.04798
G1 X133.404 Y56.795 E.04
G1 X134.923 Y56.614 E.04798
G1 X136.198 Y56.58 E.04
G1 X138.282 Y56.758 E.06555
G1 X140.076 Y57.15 E.05758
G1 X155.255 Y62.131 E.50091
G1 X156.192 Y62.507 E.03166
G1 X157.093 Y62.978 E.03186
G1 X158.504 Y63.98 E.05425
G1 X159.783 Y65.279 E.05718
G1 X160.763 Y66.705 E.05425
G1 X161.517 Y68.365 E.05718
G1 X161.804 Y69.34 E.03186
G1 X161.992 Y70.339 E.03186
G1 X162.079 Y72.067 E.05425
G1 X161.851 Y73.876 E.05718
G1 X161.338 Y75.528 E.05425
G1 X160.501 Y77.149 E.05718
G1 X112.293 Y147.023 E2.66167
G1 X111.627 Y147.871 E.03382
G1 X110.831 Y148.683 E.03566
G1 X109.949 Y149.402 E.03567
G1 X108.789 Y150.129 E.04292
G1 X92.476 Y158.353 E.57282
G1 X90.47 Y159.205 E.06833
G1 X88.493 Y159.797 E.06469
G1 X86.611 Y160.153 E.06004
G1 X84.555 Y160.323 E.06469
G1 X82.493 Y160.272 E.06469
G1 X80.979 Y160.091 E.0478
G1 X78.962 Y159.655 E.0647
G1 X77.142 Y159.059 E.06004
G1 X75.742 Y158.456 E.0478
G1 X73.932 Y157.466 E.06469
G1 X72.239 Y156.287 E.0647
G1 X71.573 Y155.737 E.02706
G1 X71.025 Y155.154 E.02509
G1 X70.336 Y154.056 E.04066
G1 X70.095 Y153.452 E.02037
G1 X69.854 Y152.331 E.03596
G1 X69.823 Y130.596 E.68149
G1 X69.929 Y129.577 E.03212
G1 X70.095 Y128.949 E.02037
G1 X70.647 Y127.775 E.04066
G1 X104.815 Y86.183 E1.68772
G1 X105.105 Y86.421 F9000
G1 F1200
G1 X126.3 Y60.622 E1.04688
G1 X127.001 Y59.983 E.02975
G1 X128.24 Y59.133 E.0471
G1 X129.318 Y58.532 E.03869
G1 X130.823 Y57.877 E.05147
G1 X132.256 Y57.427 E.04711
G1 X133.462 Y57.167 E.03868
G1 X134.954 Y56.989 E.0471
G1 X136.187 Y56.957 E.03868
G1 X138.229 Y57.132 E.06424
G1 X139.968 Y57.512 E.05583
G1 X155.137 Y62.489 E.50057
G1 X156.906 Y63.306 E.0611
G1 X158.255 Y64.264 E.05188
G1 X159.495 Y65.523 E.0554
G1 X160.432 Y66.886 E.05188
G1 X161.163 Y68.495 E.0554
G1 X161.619 Y70.395 E.06128
G1 X161.702 Y72.048 E.05188
G1 X161.481 Y73.801 E.0554
G1 X160.991 Y75.381 E.05188
G1 X160.18 Y76.951 E.0554
G1 X111.983 Y146.808 E2.66106
G1 X111.339 Y147.627 E.03266
G1 X110.572 Y148.409 E.03433
G1 X109.723 Y149.1 E.03434
G1 X108.616 Y149.793 E.04093
G1 X92.306 Y158.016 E.57272
G1 X90.347 Y158.848 E.06673
G1 X88.41 Y159.429 E.06342
G1 X86.421 Y159.798 E.06342
G1 X84.539 Y159.947 E.05919
G1 X82.517 Y159.895 E.06342
G1 X81.044 Y159.719 E.04652
G1 X79.066 Y159.293 E.06342
G1 X77.273 Y158.705 E.05919
G1 X75.91 Y158.118 E.04652
G1 X74.135 Y157.148 E.06342
G1 X72.475 Y155.993 E.06342
G1 X71.314 Y154.913 E.0497
G1 X70.674 Y153.891 E.03781
G1 X70.452 Y153.329 E.01894
G1 X70.229 Y152.297 E.03311
G1 X70.2 Y130.596 E.68042
G1 X70.298 Y129.656 E.02962
G1 X70.452 Y129.072 E.01894
G1 X70.963 Y127.98 E.03781
G1 X105.067 Y86.468 E1.6845
G1 X105.357 Y86.706 F9000
G1 F1200
G1 X126.575 Y60.88 E1.04801
G1 X127.226 Y60.286 E.02762
G1 X128.549 Y59.387 E.05015
G1 X129.85 Y58.693 E.04623
G1 X130.949 Y58.232 E.03737
G1 X132.356 Y57.79 E.04623
G1 X133.521 Y57.54 E.03737
G1 X134.985 Y57.365 E.04623
G1 X136.176 Y57.334 E.03737
G1 X138.299 Y57.525 E.06684
G1 X140.344 Y58.018 E.06594
G1 X155.174 Y62.903 E.48956
G1 X156.458 Y63.485 E.04421
G1 X157.877 Y64.44 E.05362
G1 X159.013 Y65.537 E.04951
G1 X160.017 Y66.921 E.05362
G1 X160.706 Y68.342 E.04951
G1 X161.201 Y70.154 E.05891
G1 X161.326 Y72.029 E.05891
G1 X161.112 Y73.726 E.05362
G1 X160.644 Y75.234 E.04951
G1 X159.859 Y76.753 E.05362
G1 X111.673 Y146.594 E2.66044
G1 X111.051 Y147.384 E.0315
G1 X110.313 Y148.135 E.03301
G1 X109.496 Y148.799 E.03301
G1 X108.444 Y149.458 E.03894
G1 X92.136 Y157.679 E.57261
G1 X90.225 Y158.492 E.06512
G1 X88.326 Y159.061 E.06214
G1 X86.498 Y159.407 E.05834
G1 X84.523 Y159.57 E.06214
G1 X82.541 Y159.519 E.06214
G1 X81.109 Y159.348 E.04525
G1 X79.288 Y158.962 E.05834
G1 X77.403 Y158.351 E.06214
G1 X76.077 Y157.781 E.04525
G1 X74.338 Y156.831 E.06214
G1 X72.711 Y155.699 E.06215
G1 X71.604 Y154.671 E.04735
G1 X71.013 Y153.725 E.03496
G1 X70.808 Y153.206 E.01751
G1 X70.605 Y152.263 E.03026
G1 X70.577 Y130.596 E.67934
G1 X70.667 Y129.736 E.02712
G1 X70.808 Y129.195 E.01751
G1 X71.28 Y128.185 E.03496
G1 X105.319 Y86.752 E1.68128
G1 E-3.5 F3600
;WIPE_START
G1 F7200
G1 X107.224 Y84.434 E-1.425
;WIPE_END
G1 E-.075 F3600
G1 X147.494 Y73.148 F9000
G1 E5 F2400
;TYPE:Perimeter
G1 F1200
G1 X147.407 Y72.844 E.00991
G1 X147.305 Y72.304 E.01724
G1 X147.275 Y71.989 E.00991
G1 X147.275 Y71.44 E.01724
G1 X147.304 Y71.125 E.00991
G1 X147.408 Y70.566 E.01783
G1 X147.577 Y70.034 E.0175
G1 X147.7 Y69.742 E.00991
G1 X147.969 Y69.241 E.01783
G1 X148.291 Y68.785 E.01751
G1 X148.496 Y68.545 E.00991
G1 X148.898 Y68.155 E.01755
G1 X149.137 Y67.963 E.00961
G1 X149.595 Y67.659 E.01722
G1 X149.873 Y67.509 E.00991
G1 X150.397 Y67.287 E.01783
G1 X150.952 Y67.129 E.0181
G1 X151.513 Y67.042 E.01781
G1 X152.108 Y67.024 E.01866
G1 X152.665 Y67.075 E.01753
G1 X152.966 Y67.132 E.00962
G1 X153.513 Y67.287 E.01781
G1 X154.036 Y67.509 E.01781
G1 X154.306 Y67.654 E.00962
G1 X154.78 Y67.968 E.01781
G1 X155.212 Y68.337 E.01781
G1 X155.425 Y68.558 E.00962
G1 X155.776 Y68.993 E.01753
G1 X155.945 Y69.249 E.00962
G1 X156.21 Y69.742 E.01753
G1 X156.329 Y70.024 E.00962
G1 X156.501 Y70.566 E.01781
G1 X156.607 Y71.133 E.01809
G1 X156.642 Y71.69 E.0175
G1 X156.633 Y72.006 E.00991
G1 X156.564 Y72.562 E.01755
G1 X156.499 Y72.861 E.00962
G1 X156.329 Y73.394 E.01753
G1 X156.21 Y73.677 E.00962
G1 X155.945 Y74.169 E.01753
G1 X155.776 Y74.425 E.00962
G1 X155.425 Y74.86 E.01753
G1 X155.212 Y75.081 E.00962
G1 X154.78 Y75.45 E.01781
G1 X154.306 Y75.764 E.01781
G1 X154.036 Y75.909 E.00962
G1 X153.513 Y76.131 E.01781
G1 X152.958 Y76.289 E.0181
G1 X152.396 Y76.376 E.01781
G1 X151.801 Y76.394 E.01866
G1 X151.245 Y76.343 E.01753
G1 X150.943 Y76.286 E.00962
G1 X150.397 Y76.131 E.01781
G1 X149.873 Y75.909 E.01781
G1 X149.603 Y75.764 E.00961
G1 X149.145 Y75.461 E.01722
G1 X148.898 Y75.263 E.00991
G1 X148.497 Y74.874 E.01755
G1 X148.297 Y74.641 E.00962
G1 X147.969 Y74.177 E.01781
G1 X147.696 Y73.669 E.01809
G1 X147.516 Y73.204 E.01562
G1 X147.852 Y73.028 F9000
;TYPE:External perimeter
G1 F1200
G1 X147.774 Y72.758 E.00882
G1 X147.679 Y72.251 E.01615
G1 X147.653 Y71.971 E.00882
G1 X147.652 Y71.456 E.01615
G1 X147.678 Y71.176 E.00882
G1 X147.775 Y70.658 E.01654
G1 X147.931 Y70.164 E.01624
G1 X148.04 Y69.905 E.00882
G1 X148.29 Y69.44 E.01654
G1 X148.589 Y69.017 E.01624
G1 X148.772 Y68.803 E.00882
G1 X149.148 Y68.438 E.01644
G1 X149.36 Y68.267 E.00852
G1 X149.789 Y67.983 E.01614
G1 X150.036 Y67.849 E.00882
G1 X150.522 Y67.644 E.01655
G1 X151.033 Y67.498 E.01664
G1 X151.554 Y67.417 E.01654
G1 X152.091 Y67.401 E.01684
G1 X152.613 Y67.449 E.01644
G1 X152.88 Y67.499 E.00853
G1 X153.387 Y67.644 E.01654
G1 X153.873 Y67.849 E.01654
G1 X154.113 Y67.978 E.00853
G1 X154.552 Y68.269 E.01654
G1 X154.953 Y68.612 E.01654
G1 X155.142 Y68.808 E.00853
G1 X155.471 Y69.216 E.01644
G1 X155.621 Y69.443 E.00853
G1 X155.869 Y69.905 E.01644
G1 X155.975 Y70.155 E.00853
G1 X156.135 Y70.658 E.01654
G1 X156.233 Y71.179 E.01664
G1 X156.265 Y71.696 E.01624
G1 X156.257 Y71.977 E.00882
G1 X156.192 Y72.498 E.01644
G1 X156.134 Y72.764 E.00853
G1 X155.975 Y73.263 E.01644
G1 X155.869 Y73.514 E.00853
G1 X155.621 Y73.975 E.01644
G1 X155.471 Y74.202 E.00853
G1 X155.142 Y74.61 E.01644
G1 X154.953 Y74.806 E.00853
G1 X154.552 Y75.149 E.01654
G1 X154.113 Y75.44 E.01654
G1 X153.873 Y75.569 E.00853
G1 X153.387 Y75.774 E.01654
G1 X152.877 Y75.92 E.01664
G1 X152.356 Y76.001 E.01654
G1 X151.819 Y76.017 E.01684
G1 X151.297 Y75.969 E.01644
G1 X151.03 Y75.919 E.00853
G1 X150.522 Y75.774 E.01654
G1 X150.036 Y75.569 E.01654
G1 X149.797 Y75.44 E.00852
G1 X149.368 Y75.156 E.01614
G1 X149.148 Y74.98 E.00882
G1 X148.772 Y74.615 E.01644
G1 X148.595 Y74.409 E.00853
G1 X148.29 Y73.978 E.01654
G1 X148.039 Y73.511 E.01664
G1 X147.873 Y73.084 E.01436
G1 X147.576 Y72.974 F9000
G1 E-3.5 F3600
;WIPE_START
G1 F7200
G1 X147.774 Y72.758 E-.16195
G1 X147.679 Y72.251 E-.24463
G1 X147.653 Y71.971 E-.13354
G1 X147.652 Y71.456 E-.24463
G1 X147.678 Y71.176 E-.13357
G1 X147.775 Y70.658 E-.25064
G1 X147.931 Y70.164 E-.24605
G1 X147.939 Y70.145 E-.00999
;WIPE_END
G1 E-.075 F3600
G1 X145.088 Y72.698 F9000
G1 E5 F2400
;TYPE:Perimeter
G1 F1200
G1 X145.14 Y71.904 E.02494
G1 X145.124 Y71.125 E.02444
G1 X145.041 Y70.35 E.02444
G1 X144.893 Y69.584 E.02444
G1 X144.681 Y68.834 E.02444
G1 X144.406 Y68.105 E.02444
G1 X144.07 Y67.402 E.02444
G1 X143.676 Y66.729 E.02444
G1 X143.226 Y66.093 E.02444
G1 X142.724 Y65.497 E.02444
G1 X142.173 Y64.945 E.02444
G1 X141.577 Y64.443 E.02444
G1 X140.941 Y63.992 E.02444
G1 X140.274 Y63.6 E.02425
G1 X139.908 Y63.416 E.01287
G1 X139.204 Y63.115 E.02398
G1 X138.47 Y62.873 E.02425
G1 X138.073 Y62.769 E.01287
G1 X137.322 Y62.624 E.02398
G1 X136.547 Y62.541 E.02444
G1 X135.768 Y62.523 E.02444
G1 X134.99 Y62.572 E.02444
G1 X134.219 Y62.687 E.02444
G1 X133.46 Y62.867 E.02444
G1 X132.726 Y63.108 E.02424
G1 X132.352 Y63.257 E.01261
G1 X131.654 Y63.59 E.02424
G1 X130.982 Y63.984 E.02442
G1 X130.292 Y64.469 E.02645
G1 X130.125 Y64.533 E.0056
G1 X129.944 Y64.547 E.00569
G1 X129.77 Y64.497 E.00569
G1 X129.63 Y64.409 E.00519
G1 X129.53 Y64.293 E.0048
G1 X129.488 Y64.214 E.00281
G1 X129.442 Y64.038 E.00569
G1 X129.449 Y63.901 E.0043
G1 X129.48 Y63.784 E.00379
G1 X129.544 Y63.663 E.0043
G1 X129.676 Y63.529 E.0059
G1 X130.285 Y63.095 E.02345
G1 X130.599 Y62.896 E.01166
G1 X131.272 Y62.521 E.02416
G1 X131.966 Y62.199 E.02399
G1 X132.688 Y61.928 E.02416
G1 X133.042 Y61.816 E.01166
G1 X133.794 Y61.625 E.02433
G1 X134.159 Y61.554 E.01166
G1 X134.922 Y61.448 E.02416
G1 X135.691 Y61.4 E.02416
G1 X136.068 Y61.397 E.01181
G1 X136.833 Y61.434 E.02401
G1 X137.598 Y61.528 E.02416
G1 X137.964 Y61.594 E.01166
G1 X138.718 Y61.774 E.02433
G1 X139.079 Y61.881 E.01181
G1 X139.8 Y62.14 E.02401
G1 X140.499 Y62.452 E.02399
G1 X141.177 Y62.817 E.02416
G1 X141.494 Y63.011 E.01165
G1 X142.128 Y63.449 E.02416
G1 X142.728 Y63.933 E.02416
G1 X143.004 Y64.182 E.01166
G1 X143.55 Y64.733 E.02433
G1 X143.796 Y65.011 E.01166
G1 X144.279 Y65.621 E.02438
G1 X144.647 Y66.137 E.01986
G1 X144.824 Y66.347 E.00862
G1 X145.186 Y66.693 E.01571
G1 X145.409 Y66.866 E.00884
G1 X145.845 Y67.133 E.01604
G1 X146.324 Y67.341 E.01637
G1 X146.819 Y67.476 E.01607
G1 X147.106 Y67.522 E.00912
G1 X147.607 Y67.55 E.01574
G1 X148.127 Y67.504 E.01636
G1 X148.625 Y67.389 E.01604
G1 X148.895 Y67.295 E.00895
G1 X149.835 Y66.838 E.03279
G1 X150.071 Y66.742 E.00798
G1 X150.585 Y66.576 E.01694
G1 X151.109 Y66.465 E.01679
G1 X151.644 Y66.406 E.01686
G1 X152.162 Y66.401 E.01625
G1 X152.7 Y66.449 E.01694
G1 X153.23 Y66.552 E.01694
G1 X153.729 Y66.702 E.01632
G1 X154.233 Y66.91 E.0171
G1 X154.458 Y67.023 E.0079
G1 X154.92 Y67.302 E.01694
G1 X155.353 Y67.626 E.01694
G1 X155.543 Y67.791 E.00789
G1 X155.922 Y68.176 E.01694
G1 X156.256 Y68.591 E.01671
G1 X156.547 Y69.038 E.01671
G1 X156.791 Y69.511 E.01671
G1 X156.987 Y70.007 E.01671
G1 X157.132 Y70.52 E.01671
G1 X157.225 Y71.044 E.01671
G1 X157.265 Y71.576 E.01671
G1 X157.252 Y72.108 E.01671
G1 X157.185 Y72.637 E.01671
G1 X157.066 Y73.157 E.01671
G1 X156.895 Y73.661 E.01671
G1 X156.675 Y74.147 E.01671
G1 X156.407 Y74.607 E.01671
G1 X156.094 Y75.039 E.01671
G1 X155.74 Y75.437 E.01671
G1 X155.347 Y75.797 E.01671
G1 X154.92 Y76.116 E.01671
G1 X154.464 Y76.391 E.01671
G1 X153.982 Y76.619 E.01671
G1 X153.48 Y76.798 E.01671
G1 X152.963 Y76.925 E.01671
G1 X152.435 Y76.999 E.01671
G1 X151.903 Y77.021 E.01671
G1 X151.371 Y76.989 E.01671
G1 X150.837 Y76.903 E.01694
G1 X150.592 Y76.844 E.0079
G1 X150.078 Y76.679 E.01694
G1 X149.576 Y76.459 E.01719
G1 X148.887 Y76.119 E.02407
G1 X148.383 Y75.964 E.01654
G1 X147.878 Y75.884 E.01604
G1 X147.596 Y75.869 E.00884
G1 X147.086 Y75.897 E.01604
G1 X146.574 Y75.999 E.01637
G1 X146.081 Y76.172 E.01637
G1 X145.627 Y76.409 E.01604
G1 X145.392 Y76.565 E.00884
G1 X144.999 Y76.891 E.01604
G1 X144.653 Y77.273 E.01614
G1 X144.279 Y77.797 E.02018
G1 X143.8 Y78.403 E.02421
G1 X143.282 Y78.966 E.02399
G1 X142.72 Y79.493 E.02416
G1 X142.435 Y79.732 E.01166
G1 X141.818 Y80.193 E.02416
G1 X141.168 Y80.607 E.02416
G1 X140.839 Y80.792 E.01183
G1 X140.504 Y80.964 E.01183
G1 X139.8 Y81.278 E.02416
G1 X139.075 Y81.539 E.02416
G1 X138.718 Y81.645 E.01166
G1 X137.969 Y81.823 E.02416
G1 X137.213 Y81.944 E.02399
G1 X136.446 Y82.01 E.02416
G1 X136.074 Y82.021 E.01166
G1 X135.304 Y82.001 E.02416
G1 X134.537 Y81.924 E.02416
G1 X134.17 Y81.866 E.01166
G1 X133.411 Y81.703 E.02433
G1 X132.688 Y81.491 E.02365
G1 X131.966 Y81.219 E.02416
G1 X131.272 Y80.897 E.02399
G1 X130.599 Y80.522 E.02416
G1 X130.285 Y80.323 E.01166
G1 X129.676 Y79.889 E.02345
G1 X129.561 Y79.778 E.00501
G1 X129.48 Y79.634 E.00519
G1 X129.442 Y79.473 E.00519
G1 X129.451 Y79.32 E.0048
G1 X129.509 Y79.165 E.00519
G1 X129.577 Y79.065 E.00379
G1 X129.666 Y78.983 E.00379
G1 X129.77 Y78.921 E.00379
G1 X129.929 Y78.874 E.00519
G1 X130.082 Y78.875 E.0048
G1 X130.229 Y78.921 E.00485
G1 X131.31 Y79.637 E.04065
G1 X131.997 Y80 E.02436
G1 X132.726 Y80.31 E.02483
G1 X133.454 Y80.55 E.02405
G1 X133.844 Y80.651 E.01261
G1 X134.603 Y80.797 E.02424
G1 X135.372 Y80.878 E.02424
G1 X135.774 Y80.895 E.01261
G1 X136.547 Y80.878 E.02424
G1 X137.322 Y80.794 E.02444
G1 X138.081 Y80.647 E.02424
G1 X138.843 Y80.431 E.02483
G1 X139.56 Y80.159 E.02406
G1 X139.934 Y79.99 E.01287
G1 X140.609 Y79.63 E.02398
G1 X141.264 Y79.207 E.02444
G1 X141.875 Y78.734 E.02424
G1 X142.177 Y78.468 E.01261
G1 X142.724 Y77.921 E.02425
G1 X143.231 Y77.319 E.0247
G1 X143.672 Y76.694 E.02398
G1 X143.883 Y76.351 E.01261
G1 X144.243 Y75.674 E.02405
G1 X144.408 Y75.307 E.01261
G1 X144.679 Y74.59 E.02405
G1 X144.797 Y74.205 E.01261
G1 X144.975 Y73.453 E.02424
G1 X145.08 Y72.757 E.02206
G1 X144.715 Y72.642 F9000
;TYPE:External perimeter
G1 F1200
G1 X144.763 Y71.896 E.02343
G1 X144.747 Y71.149 E.02344
G1 X144.668 Y70.405 E.02344
G1 X144.526 Y69.672 E.02343
G1 X144.323 Y68.952 E.02343
G1 X144.059 Y68.253 E.02344
G1 X143.737 Y67.579 E.02343
G1 X143.359 Y66.934 E.02344
G1 X142.927 Y66.324 E.02343
G1 X142.446 Y65.752 E.02344
G1 X141.917 Y65.223 E.02343
G1 X141.346 Y64.741 E.02344
G1 X140.736 Y64.309 E.02343
G1 X140.094 Y63.932 E.02337
G1 X139.749 Y63.758 E.01212
G1 X139.071 Y63.468 E.02311
G1 X138.363 Y63.235 E.02337
G1 X137.989 Y63.137 E.01212
G1 X137.266 Y62.997 E.02311
G1 X136.523 Y62.917 E.02343
G1 X135.775 Y62.901 E.02343
G1 X135.029 Y62.948 E.02344
G1 X134.29 Y63.058 E.02344
G1 X133.563 Y63.23 E.02344
G1 X132.855 Y63.462 E.02337
G1 X132.504 Y63.603 E.01186
G1 X131.831 Y63.924 E.02336
G1 X131.186 Y64.301 E.02343
G1 X130.407 Y64.835 E.02962
G1 X130.209 Y64.903 E.00654
