; generated by PrusaSlicer 2.4.2+win64 on 2022-08-10 at 00:12:57 UTC

; 

; external perimeters extrusion width = 0.45mm
; perimeters extrusion width = 0.45mm
; infill extrusion width = 0.45mm
; solid infill extrusion width = 0.45mm
; top infill extrusion width = 0.40mm
; first layer extrusion width = 0.42mm

M107
;TYPE:Custom
G90 ; use absolute coordinates
M83 ; extruder relative mode
M140 S110 ; set final bed temp
M104 S170 ; set temporary nozzle temp to prevent oozing during homing
G4 S10 ; allow partial nozzle warmup
G28 ; home all axis
G1 Z50 F300
G1 X3 Y10 F3000
M190 S104.5 ; wait for bed temp to stabilize at 90%
M140 S110 ; set final bed temp
M104 S245 ; set final nozzle temp
M109 S245 ; wait for nozzle temp to stabilize
G1 Z0.28 F240
G92 E0
G1 Y180 E10 F1500 ; prime the nozzle
G1 X3.3 F5000
G92 E0
G1 Y20 E10 F1200 ; prime the nozzle
G92 E0
G21 ; set units to millimeters
G90 ; use absolute coordinates
M83 ; use relative distances for extrusion
; Filament gcode
M107
;LAYER_CHANGE
;Z:0.2
;HEIGHT:0.2
;BEFORE_LAYER_CHANGE
G92 E0
;0.2


G1 E-7 F3600
G1 Z.2 F9000
;AFTER_LAYER_CHANGE
;0.2
G1 X93.935 Y105.523
G1 E7 F2400
M204 S500
;TYPE:Skirt/Brim
;WIDTH:0.42
G1 F1200
G1 X94.644 Y105.003 E.02756
G1 X95.546 Y104.511 E.03224
G1 X97.064 Y104.016 E.05006
G1 X98.5 Y103.869 E.04525
G1 X132.654 Y103.872 E1.07089
G1 X133.715 Y103.974 E.03341
G1 X134.96 Y104.308 E.04042
G1 X136.198 Y104.904 E.04306
G1 X137.235 Y105.669 E.04043
G1 X138.169 Y106.676 E.04306
G1 X138.855 Y107.768 E.04042
G1 X139.266 Y108.751 E.03341
G1 X139.572 Y110.09 E.04306
G1 X139.631 Y111 E.02858
G1 X139.631 Y120 E.28219
G1 X139.572 Y120.91 E.02858
G1 X139.415 Y121.737 E.02639
G1 X138.855 Y123.232 E.05006
G1 X137.977 Y124.565 E.05006
G1 X136.824 Y125.669 E.05006
G1 X135.454 Y126.489 E.05006
G1 X133.936 Y126.984 E.05006
G1 X132.5 Y127.131 E.04525
G1 X97.813 Y127.097 E1.08758
G1 X96.763 Y126.915 E.03341
G1 X96.04 Y126.692 E.02375
G1 X95.235 Y126.338 E.02756
G1 X94.357 Y125.803 E.03224
G1 X93.765 Y125.331 E.02375
G1 X93.023 Y124.565 E.03341
G1 X92.503 Y123.856 E.02756
G1 X92.011 Y122.954 E.03224
G1 X91.516 Y121.436 E.05006
G1 X91.372 Y120.154 E.04043
G1 X91.369 Y111 E.28703
G1 X91.516 Y109.564 E.04525
G1 X92.011 Y108.046 E.05006
G1 X92.831 Y106.676 E.05006
G1 X93.893 Y105.566 E.04818
G1 X94.164 Y105.826 F9000
G1 F1200
G1 X94.844 Y105.323 E.02654
G1 X95.697 Y104.856 E.03047
G1 X97.134 Y104.387 E.04741
G1 X98.5 Y104.246 E.04304
G1 X132.64 Y104.248 E1.07045
G1 X133.645 Y104.345 E.03165
G1 X134.836 Y104.664 E.03866
G1 X135.997 Y105.223 E.04041
G1 X136.989 Y105.955 E.03866
G1 X137.866 Y106.9 E.04042
G1 X138.522 Y107.944 E.03866
G1 X138.91 Y108.876 E.03165
G1 X139.197 Y110.132 E.04042
G1 X139.254 Y111 E.02726
G1 X139.254 Y120 E.28219
G1 X139.197 Y120.867 E.02726
G1 X139.051 Y121.639 E.02463
G1 X138.522 Y123.056 E.04741
G1 X137.691 Y124.319 E.04741
G1 X136.6 Y125.366 E.04742
G1 X135.303 Y126.144 E.04741
G1 X133.866 Y126.613 E.04742
G1 X132.5 Y126.754 E.04304
G1 X97.855 Y126.722 E1.08625
G1 X96.861 Y126.551 E.03165
G1 X96.164 Y126.336 E.02286
G1 X95.444 Y126.022 E.02463
G1 X94.581 Y125.499 E.03165
G1 X94.011 Y125.045 E.02286
G1 X93.309 Y124.319 E.03165
G1 X92.823 Y123.656 E.0258
G1 X92.356 Y122.803 E.03047
G1 X91.949 Y121.639 E.03866
G1 X91.757 Y120.365 E.04042
G1 X91.746 Y111 E.29362
G1 X91.845 Y109.855 E.03604
G1 X92.281 Y108.368 E.04857
G1 X92.723 Y107.503 E.03048
G1 X93.134 Y106.9 E.02286
G1 X94.123 Y105.87 E.04478
G1 X94.393 Y106.13 F9000
G1 F1200
G1 X95.045 Y105.642 E.02552
G1 X95.848 Y105.202 E.02871
G1 X97.205 Y104.757 E.04477
G1 X98.5 Y104.623 E.04084
G1 X132.626 Y104.625 E1.07
G1 X133.575 Y104.715 E.02988
G1 X134.711 Y105.02 E.03689
G1 X135.797 Y105.542 E.03777
G1 X136.743 Y106.241 E.03689
G1 X137.563 Y107.124 E.03777
G1 X138.189 Y108.12 E.03689
G1 X138.554 Y109 E.02988
G1 X138.822 Y110.175 E.03777
G1 X138.877 Y111 E.02593
G1 X138.877 Y120 E.28219
G1 X138.687 Y121.542 E.0487
G1 X138.189 Y122.88 E.04477
G1 X137.405 Y124.073 E.04477
G1 X136.376 Y125.063 E.04477
G1 X135.152 Y125.798 E.04476
G1 X133.795 Y126.243 E.04477
G1 X132.5 Y126.377 E.04083
G1 X98.15 Y126.366 E1.07703
G1 X97.425 Y126.285 E.02286
G1 X96.5 Y126.054 E.02988
G1 X95.848 Y125.798 E.02198
G1 X95.013 Y125.338 E.02988
G1 X94.257 Y124.759 E.02988
G1 X93.717 Y124.215 E.02403
G1 X93.162 Y123.487 E.02871
G1 X92.702 Y122.652 E.02988
G1 X92.313 Y121.542 E.03689
G1 X92.134 Y120.351 E.03777
G1 X92.123 Y111 E.29318
G1 X92.215 Y109.925 E.03383
G1 X92.627 Y108.519 E.04593
G1 X93.042 Y107.703 E.02871
G1 X93.437 Y107.124 E.02198
G1 X94.352 Y106.173 E.04137
G1 E-4.9 F3600
;WIPE_START
G1 F7200
G1 X95.045 Y105.642 E-.41483
G1 X95.848 Y105.202 E-.4349
G1 X97.205 Y104.757 E-.67818
G1 X98.183 Y104.656 E-.46709
;WIPE_END
G1 E-.105 F3600
G1 X96.356 Y110.138 F9000
G1 E7 F2400
;TYPE:Perimeter
G1 F1200
G1 X96.498 Y109.845 E.01022
G1 X96.693 Y109.559 E.01086
G1 X96.928 Y109.306 E.01083
G1 X97.198 Y109.09 E.01083
G1 X97.497 Y108.918 E.01083
G1 X97.819 Y108.791 E.01083
G1 X98.155 Y108.715 E.01083
G1 X98.524 Y108.687 E.01158
G1 X132.673 Y108.695 E1.07072
G1 X133.014 Y108.747 E.01083
G1 X133.342 Y108.848 E.01076
G1 X133.681 Y109.015 E.01185
G1 X134.065 Y109.298 E.01494
G1 X134.314 Y109.567 E.01152
G1 X134.404 Y109.688 E.00473
G1 X134.648 Y110.145 E.01623
G1 X134.753 Y110.486 E.01118
G1 X134.805 Y110.828 E.01084
G1 X134.813 Y119.976 E.28686
G1 X134.785 Y120.345 E.01157
G1 X134.707 Y120.689 E.01108
G1 X134.502 Y121.155 E.01595
G1 X134.307 Y121.441 E.01086
G1 X134.072 Y121.694 E.01083
G1 X133.802 Y121.91 E.01083
G1 X133.503 Y122.082 E.01083
G1 X133.181 Y122.209 E.01083
G1 X132.845 Y122.285 E.01083
G1 X132.476 Y122.313 E.01158
G1 X98.327 Y122.305 E1.07072
G1 X97.986 Y122.253 E.01083
G1 X97.656 Y122.151 E.01083
G1 X97.344 Y122.002 E.01083
G1 X97.059 Y121.807 E.01083
G1 X96.806 Y121.572 E.01083
G1 X96.59 Y121.302 E.01083
G1 X96.418 Y121.003 E.01083
G1 X96.291 Y120.681 E.01083
G1 X96.215 Y120.345 E.01083
G1 X96.187 Y119.976 E.01158
G1 X96.187 Y111.024 E.2807
G1 X96.215 Y110.655 E.01158
G1 X96.335 Y110.195 E.01494
G1 X96.671 Y109.029 F9000
;TYPE:External perimeter
G1 F1200
G1 X96.985 Y108.778 E.0126
G1 X97.333 Y108.577 E.0126
G1 X97.707 Y108.43 E.0126
G1 X98.099 Y108.341 E.0126
G1 X98.51 Y108.31 E.01291
G1 X132.701 Y108.318 E1.07204
G1 X133.098 Y108.378 E.0126
G1 X133.482 Y108.496 E.01258
G1 X133.872 Y108.688 E.01364
G1 X134.18 Y108.899 E.0117
G1 X134.327 Y109.026 E.00607
G1 X134.605 Y109.326 E.01285
G1 X134.72 Y109.482 E.00606
G1 X134.925 Y109.837 E.01285
G1 X135.002 Y110.014 E.00606
G1 X135.122 Y110.402 E.01273
G1 X135.182 Y110.799 E.01261
G1 X135.19 Y119.99 E.28819
G1 X135.159 Y120.401 E.01291
G1 X135.069 Y120.795 E.01269
G1 X134.992 Y121.009 E.0071
G1 X134.829 Y121.344 E.01171
G1 X134.603 Y121.677 E.01261
G1 X134.329 Y121.971 E.0126
G1 X134.015 Y122.222 E.0126
G1 X133.667 Y122.423 E.0126
G1 X133.293 Y122.57 E.0126
G1 X132.901 Y122.659 E.0126
G1 X132.49 Y122.69 E.01291
G1 X98.299 Y122.682 E1.07204
G1 X97.902 Y122.622 E.0126
G1 X97.517 Y122.503 E.0126
G1 X97.155 Y122.329 E.0126
G1 X96.823 Y122.103 E.0126
G1 X96.529 Y121.829 E.0126
G1 X96.278 Y121.515 E.0126
G1 X96.077 Y121.167 E.0126
G1 X95.93 Y120.793 E.0126
G1 X95.841 Y120.401 E.0126
G1 X95.81 Y119.99 E.01291
G1 X95.81 Y111.01 E.28158
G1 X95.841 Y110.599 E.01291
G1 X95.931 Y110.205 E.01269
G1 X96.008 Y109.991 E.0071
G1 X96.171 Y109.656 E.01171
G1 X96.397 Y109.323 E.01261
G1 X96.63 Y109.073 E.01072
G1 X97.053 Y109.146 F9000
G1 E-4.9 F3600
;WIPE_START
G1 F7200
G1 X96.985 Y108.778 E-.21915
G1 X97.333 Y108.577 E-.19093
G1 X97.707 Y108.43 E-.19092
G1 X98.099 Y108.341 E-.19092
G1 X98.51 Y108.31 E-.19555
G1 X100.631 Y108.311 E-1.00753
;WIPE_END
G1 E-.105 F3600
G1 X132.638 Y108.808 F9000
G1 E7 F2400
;TYPE:Solid infill
;WIDTH:0.421571
G1 F1200
G1 X134.494 Y110.665 E.08266
G1 X134.522 Y110.849 E.00586
G1 X134.522 Y111.228 E.01195
G1 X132.272 Y108.978 E.1002
G1 X131.736 Y108.978 E.01686
G1 X134.523 Y111.764 E.12407
G1 X134.523 Y112.3 E.01687
G1 X131.201 Y108.978 E.14794
G1 X130.665 Y108.978 E.01686
G1 X134.524 Y112.836 E.17181
G1 X134.524 Y113.372 E.01687
G1 X130.129 Y108.977 E.19568
G1 X129.594 Y108.977 E.01686
G1 X134.525 Y113.908 E.21955
G1 X134.525 Y114.444 E.01687
G1 X129.058 Y108.977 E.24342
G1 X128.523 Y108.977 E.01686
G1 X134.526 Y114.98 E.26729
G1 X134.526 Y115.516 E.01687
G1 X127.987 Y108.977 E.29116
G1 X127.451 Y108.977 E.01686
G1 X134.527 Y116.052 E.31504
G1 X134.527 Y116.588 E.01687
G1 X126.916 Y108.977 E.33891
G1 X126.38 Y108.977 E.01686
G1 X134.528 Y117.124 E.36278
G1 X134.528 Y117.66 E.01687
G1 X125.845 Y108.976 E.38665
G1 X125.309 Y108.976 E.01686
G1 X134.529 Y118.196 E.41052
G1 X134.529 Y118.732 E.01687
G1 X124.773 Y108.976 E.43439
G1 X124.238 Y108.976 E.01686
G1 X134.529 Y119.268 E.45826
G1 X134.53 Y119.804 E.01687
G1 X123.702 Y108.976 E.48213
G1 X123.166 Y108.976 E.01686
G1 X134.503 Y120.312 E.50477
G1 X134.39 Y120.735 E.01377
G1 X122.631 Y108.976 E.52358
G1 X122.095 Y108.976 E.01686
G1 X134.206 Y121.087 E.53927
G1 X134.085 Y121.264 E.00677
G1 X133.971 Y121.387 E.00528
G1 X121.56 Y108.975 E.55265
G1 X121.024 Y108.975 E.01686
G1 X133.688 Y121.639 E.56387
G1 X133.351 Y121.838 E.01231
G1 X120.488 Y108.975 E.57274
G1 X119.953 Y108.975 E.01686
G1 X132.949 Y121.971 E.57869
G1 X132.802 Y122.005 E.00474
G1 X132.472 Y122.03 E.01043
G1 X119.417 Y108.975 E.58128
G1 X118.881 Y108.975 E.01686
G1 X131.937 Y122.03 E.5813
G1 X131.401 Y122.03 E.01686
G1 X118.346 Y108.975 E.5813
G1 X117.81 Y108.974 E.01686
G1 X130.865 Y122.03 E.5813
G1 X130.33 Y122.03 E.01686
G1 X117.275 Y108.974 E.5813
G1 X116.739 Y108.974 E.01686
G1 X129.794 Y122.029 E.5813
G1 X129.259 Y122.029 E.01686
G1 X116.203 Y108.974 E.5813
G1 X115.668 Y108.974 E.01686
G1 X128.723 Y122.029 E.5813
G1 X128.187 Y122.029 E.01686
G1 X115.132 Y108.974 E.5813
G1 X114.596 Y108.974 E.01686
G1 X127.652 Y122.029 E.5813
G1 X127.116 Y122.029 E.01686
G1 X114.061 Y108.974 E.5813
G1 X113.525 Y108.973 E.01686
G1 X126.58 Y122.029 E.5813
G1 X126.045 Y122.029 E.01686
G1 X112.99 Y108.973 E.5813
G1 X112.454 Y108.973 E.01686
G1 X125.509 Y122.028 E.5813
G1 X124.974 Y122.028 E.01686
G1 X111.918 Y108.973 E.5813
G1 X111.383 Y108.973 E.01686
G1 X124.438 Y122.028 E.5813
G1 X123.902 Y122.028 E.01686
G1 X110.847 Y108.973 E.5813
G1 X110.312 Y108.973 E.01686
G1 X123.367 Y122.028 E.5813
G1 X122.831 Y122.028 E.01686
G1 X109.776 Y108.973 E.5813
G1 X109.24 Y108.972 E.01686
G1 X122.296 Y122.028 E.5813
G1 X121.76 Y122.028 E.01686
G1 X108.705 Y108.972 E.5813
G1 X108.169 Y108.972 E.01686
G1 X121.224 Y122.027 E.5813
G1 X120.689 Y122.027 E.01686
G1 X107.633 Y108.972 E.5813
G1 X107.098 Y108.972 E.01686
G1 X120.153 Y122.027 E.5813
G1 X119.617 Y122.027 E.01686
G1 X106.562 Y108.972 E.5813
G1 X106.027 Y108.972 E.01686
G1 X119.082 Y122.027 E.5813
G1 X118.546 Y122.027 E.01686
G1 X105.491 Y108.972 E.5813
G1 X104.955 Y108.971 E.01686
G1 X118.011 Y122.027 E.5813
G1 X117.475 Y122.027 E.01686
G1 X104.42 Y108.971 E.5813
G1 X103.884 Y108.971 E.01686
G1 X116.939 Y122.026 E.5813
G1 X116.404 Y122.026 E.01686
G1 X103.348 Y108.971 E.5813
G1 X102.813 Y108.971 E.01686
G1 X115.868 Y122.026 E.5813
G1 X115.332 Y122.026 E.01686
G1 X102.277 Y108.971 E.5813
G1 X101.742 Y108.971 E.01686
G1 X114.797 Y122.026 E.5813
G1 X114.261 Y122.026 E.01686
G1 X101.206 Y108.971 E.5813
G1 X100.67 Y108.97 E.01686
G1 X113.726 Y122.026 E.5813
G1 X113.19 Y122.026 E.01686
G1 X100.135 Y108.97 E.5813
G1 X99.599 Y108.97 E.01686
G1 X112.654 Y122.025 E.5813
G1 X112.119 Y122.025 E.01686
G1 X99.063 Y108.97 E.5813
G1 X98.534 Y108.97 E.01666
G1 X111.583 Y122.025 E.58116
G1 X111.047 Y122.025 E.01686
G1 X98.051 Y109.029 E.57869
G1 X97.902 Y109.062 E.0048
G1 X97.649 Y109.162 E.00857
G1 X110.512 Y122.025 E.57274
G1 X109.976 Y122.025 E.01686
G1 X97.312 Y109.361 E.56387
G1 X97.121 Y109.514 E.00771
G1 X97.029 Y109.613 E.00426
G1 X109.441 Y122.025 E.55265
G1 X108.905 Y122.024 E.01686
G1 X96.794 Y109.913 E.53927
G1 X96.61 Y110.265 E.0125
G1 X108.369 Y122.024 E.52358
G1 X107.834 Y122.024 E.01686
G1 X96.497 Y110.688 E.50477
G1 X96.47 Y111.196 E.01602
G1 X107.298 Y122.024 E.48214
G1 X106.762 Y122.024 E.01686
G1 X96.47 Y111.731 E.45829
G1 X96.47 Y112.267 E.01686
G1 X106.227 Y122.024 E.43444
G1 X105.691 Y122.024 E.01686
G1 X96.47 Y112.802 E.41059
G1 X96.47 Y113.338 E.01686
G1 X105.156 Y122.024 E.38675
G1 X104.62 Y122.023 E.01686
G1 X96.47 Y113.873 E.3629
G1 X96.47 Y114.409 E.01686
G1 X104.084 Y122.023 E.33905
G1 X103.549 Y122.023 E.01686
G1 X96.47 Y114.944 E.3152
G1 X96.47 Y115.48 E.01686
G1 X103.013 Y122.023 E.29135
G1 X102.478 Y122.023 E.01686
G1 X96.47 Y116.015 E.2675
G1 X96.47 Y116.551 E.01686
G1 X101.942 Y122.023 E.24365
G1 X101.406 Y122.023 E.01686
G1 X96.47 Y117.086 E.2198
G1 X96.47 Y117.622 E.01686
G1 X100.871 Y122.023 E.19595
G1 X100.335 Y122.022 E.01686
G1 X96.47 Y118.157 E.1721
G1 X96.47 Y118.693 E.01686
G1 X99.799 Y122.022 E.14825
G1 X99.264 Y122.022 E.01686
G1 X96.47 Y119.228 E.1244
G1 X96.47 Y119.764 E.01686
G1 X98.728 Y122.022 E.10055
G1 X98.349 Y122.022 E.01195
G1 X98.165 Y121.994 E.00585
G1 X96.502 Y120.331 E.07406
G1 X96.562 Y120.598 E.00861
G1 X96.673 Y120.88 E.00954
G1 X96.825 Y121.142 E.00954
G1 X97.011 Y121.376 E.00942
G1 X97.666 Y122.031 E.02915
;LAYER_CHANGE
;Z:0.4
;HEIGHT:0.2
;BEFORE_LAYER_CHANGE
G92 E0
;0.4


G1 E-4.9 F3600
;WIPE_START
G1 F7200
G1 X97.011 Y121.376 E-.43981
G1 X96.825 Y121.142 E-.14216
G1 X96.673 Y120.88 E-.14395
G1 X96.562 Y120.598 E-.14395
G1 X96.502 Y120.331 E-.12991
G1 X97.983 Y121.813 E-.99521
;WIPE_END
G1 E-.105 F3600
G1 Z.4 F9000
;AFTER_LAYER_CHANGE
;0.4
M104 S240 ; set temperature
G1 X96.362 Y121.016
G1 E7 F2400
;TYPE:Perimeter
;WIDTH:0.45
G1 X96.19 Y120.515 E.01794
G1 X96.132 Y119.976 E.01834
G1 X96.132 Y111.024 E.30304
G1 X96.16 Y110.647 E.01277
G1 X96.239 Y110.303 E.01197
G1 X96.37 Y109.97 E.0121
G1 X96.497 Y109.742 E.00885
G1 X96.647 Y109.528 E.00885
G1 X97.015 Y109.157 E.01767
G1 X97.317 Y108.951 E.01237
G1 X97.791 Y108.742 E.01754
G1 X98.147 Y108.66 E.01237
G1 X98.524 Y108.632 E.01277
G1 X132.677 Y108.64 E1.15604
G1 X133.027 Y108.693 E.01197
G1 X133.364 Y108.797 E.01197
G1 X133.824 Y109.038 E.01754
G1 X134.119 Y109.273 E.01277
G1 X134.455 Y109.667 E.01754
G1 X134.638 Y109.984 E.01237
G1 X134.807 Y110.473 E.01754
G1 X134.86 Y110.823 E.01198
G1 X134.868 Y119.977 E.30982
G1 X134.84 Y120.353 E.01276
G1 X134.761 Y120.697 E.01197
G1 X134.632 Y121.027 E.01197
G1 X134.358 Y121.467 E.01754
G1 X134.101 Y121.743 E.01277
G1 X133.683 Y122.049 E.01754
G1 X133.364 Y122.203 E.01197
G1 X133.015 Y122.31 E.01237
G1 X132.476 Y122.368 E.01834
G1 X98.323 Y122.36 E1.15604
G1 X97.973 Y122.307 E.01197
G1 X97.636 Y122.203 E.01197
G1 X97.317 Y122.049 E.01197
G1 X97.025 Y121.85 E.01197
G1 X96.765 Y121.609 E.01197
G1 X96.545 Y121.333 E.01197
G1 X96.392 Y121.068 E.01034
G1 X95.998 Y121.2 F9000
;TYPE:External perimeter
G1 F1500
G1 X95.919 Y121.018 E.00674
G1 X95.794 Y120.613 E.01432
G1 X95.757 Y120.418 E.00674
G1 X95.725 Y119.992 E.01446
G1 X95.725 Y111.008 E.30407
G1 X95.757 Y110.587 E.01432
G1 X95.849 Y110.182 E.01404
G1 X96.001 Y109.795 E.01408
G1 X96.152 Y109.525 E.01048
G1 X96.33 Y109.271 E.01048
G1 X96.616 Y108.963 E.01423
G1 X96.767 Y108.833 E.00674
G1 X97.113 Y108.597 E.01418
G1 X97.49 Y108.416 E.01418
G1 X97.678 Y108.35 E.00674
G1 X98.087 Y108.257 E.01418
G1 X98.508 Y108.225 E.01432
G1 X132.707 Y108.233 E1.15759
G1 X133.117 Y108.295 E.01404
G1 X133.514 Y108.417 E.01404
G1 X133.891 Y108.599 E.01418
G1 X134.06 Y108.705 E.00674
G1 X134.39 Y108.969 E.01432
G1 X134.531 Y109.11 E.00674
G1 X134.792 Y109.437 E.01418
G1 X135.002 Y109.8 E.01418
G1 X135.081 Y109.982 E.00674
G1 X135.205 Y110.383 E.01418
G1 X135.267 Y110.793 E.01404
G1 X135.275 Y119.992 E.31137
G1 X135.243 Y120.413 E.01432
G1 X135.151 Y120.818 E.01404
G1 X135 Y121.204 E.01404
G1 X134.79 Y121.567 E.01418
G1 X134.672 Y121.727 E.00674
G1 X134.384 Y122.037 E.01432
G1 X134.233 Y122.167 E.00674
G1 X133.887 Y122.403 E.01418
G1 X133.514 Y122.583 E.01404
G1 X133.113 Y122.706 E.01418
G1 X132.918 Y122.743 E.00674
G1 X132.492 Y122.775 E.01446
G1 X98.293 Y122.767 E1.15759
G1 X97.883 Y122.705 E.01404
G1 X97.486 Y122.583 E.01404
