; generated by PrusaSlicer 2.4.2+win64 on 2022-08-05 at 01:50:23 UTC

; 

; external perimeters extrusion width = 0.45mm
; perimeters extrusion width = 0.45mm
; infill extrusion width = 0.45mm
; solid infill extrusion width = 0.45mm
; top infill extrusion width = 0.40mm
; first layer extrusion width = 0.42mm

M107
;TYPE:Custom
G90 ; use absolute coordinates
M83 ; extruder relative mode
M140 S110 ; set final bed temp
M104 S170 ; set temporary nozzle temp to prevent oozing during homing
G4 S10 ; allow partial nozzle warmup
G28 ; home all axis
G1 Z50 F300
G1 X10 Y10 F3000
M190 S104.5 ; wait for bed temp to stabilize at 90%
M140 S110 ; set final bed temp
M104 S245 ; set final nozzle temp
M109 S245 ; wait for nozzle temp to stabilize
G1 Z0.28 F240
G92 E0
G1 Y180 E10 F1500 ; prime the nozzle
G1 X10.3 F5000
G92 E0
G1 Y10 E10 F1200 ; prime the nozzle
G92 E0
G21 ; set units to millimeters
G90 ; use absolute coordinates
M83 ; use relative distances for extrusion
; Filament gcode
M107
;LAYER_CHANGE
;Z:0.2
;HEIGHT:0.2
;BEFORE_LAYER_CHANGE
G92 E0
;0.2


G1 E-7 F3600
G1 Z.2 F9000
;AFTER_LAYER_CHANGE
;0.2
G1 X120.961 Y112.023
G1 E7 F2400
M204 P500
;TYPE:Skirt/Brim
;WIDTH:0.42
G1 F1200
G1 X121.882 Y111.165 E.03945
G1 X122.555 Y110.715 E.02539
G1 X123.7 Y110.193 E.03946
G1 X125.372 Y109.861 E.05346
G1 X179.52 Y109.87 E1.69776
G1 X190.338 Y111.63 E.34365
G1 X191.206 Y111.857 E.02816
G1 X191.955 Y112.167 E.02539
G1 X192.951 Y112.79 E.03683
G1 X193.535 Y113.294 E.0242
G1 X211.207 Y130.967 E.78361
G1 X212.127 Y132.182 E.04782
G1 X212.585 Y133.206 E.03517
G1 X212.808 Y134.094 E.0287
G1 X214.228 Y143.577 E.30063
G1 X214.38 Y145.064 E.04687
G1 X214.38 Y208.893 E2.00131
G1 X214.316 Y209.745 E.0268
G1 X214.158 Y210.54 E.02541
G1 X213.505 Y212.115 E.05345
G1 X212.77 Y213.136 E.03946
G1 X211.85 Y213.994 E.03945
G1 X211.176 Y214.444 E.02539
G1 X209.601 Y215.096 E.05346
G1 X208.807 Y215.254 E.02539
G1 X207.954 Y215.318 E.02681
G1 X125.777 Y215.319 E2.57659
G1 X124.925 Y215.255 E.02681
G1 X124.13 Y215.097 E.0254
G1 X122.555 Y214.444 E.05346
G1 X121.534 Y213.709 E.03946
G1 X120.939 Y213.108 E.02651
G1 X120.226 Y212.115 E.03832
G1 X119.573 Y210.539 E.05349
G1 X119.416 Y209.746 E.02537
G1 X119.351 Y208.893 E.02682
G1 X119.351 Y116.267 E2.90422
G1 X119.415 Y115.414 E.0268
G1 X119.573 Y114.62 E.02539
G1 X120.226 Y113.045 E.05347
G1 X120.926 Y112.072 E.03758
G1 X121.231 Y112.292 F9000
G1 F1200
G1 X122.121 Y111.457 E.03827
G1 X122.733 Y111.048 E.02308
G1 X123.81 Y110.554 E.03714
G1 X125.409 Y110.236 E.05114
G1 X179.475 Y110.244 E1.69521
G1 X190.276 Y112.002 E.34309
G1 X191.097 Y112.218 E.02663
G1 X191.777 Y112.5 E.02307
G1 X192.712 Y113.081 E.03451
G1 X193.268 Y113.561 E.02303
G1 X210.94 Y131.233 E.78361
G1 X211.795 Y132.36 E.04435
G1 X212.224 Y133.316 E.03285
G1 X212.435 Y134.15 E.02697
G1 X213.855 Y143.632 E.30063
G1 X214.003 Y145.064 E.04511
G1 X214.003 Y208.893 E2.00131
G1 X213.797 Y210.43 E.04864
G1 X213.173 Y211.937 E.05114
G1 X212.478 Y212.897 E.03715
G1 X211.61 Y213.703 E.03713
G1 X210.999 Y214.111 E.02308
G1 X209.491 Y214.736 E.05115
G1 X207.954 Y214.941 E.04864
G1 X125.777 Y214.941 E2.57659
G1 X124.24 Y214.736 E.04864
G1 X122.733 Y214.112 E.05114
G1 X121.773 Y213.417 E.03714
G1 X121.23 Y212.869 E.02421
G1 X120.559 Y211.937 E.03598
G1 X119.934 Y210.43 E.05117
G1 X119.729 Y208.893 E.04863
G1 X119.729 Y116.267 E2.90422
G1 X119.934 Y114.73 E.04863
G1 X120.558 Y113.222 E.05115
G1 X121.196 Y112.341 E.0341
G1 X121.5 Y112.562 F9000
G1 F1200
G1 X121.544 Y112.502 E.00235
G1 X122.36 Y111.748 E.03482
G1 X122.911 Y111.38 E.02076
G1 X124.35 Y110.785 E.04883
G1 X125.777 Y110.595 E.04516
G1 X179.431 Y110.619 E1.68227
G1 X190.213 Y112.374 E.34252
G1 X191.599 Y112.832 E.04577
G1 X192.472 Y113.373 E.0322
G1 X193.001 Y113.828 E.02187
G1 X210.673 Y131.5 E.78361
G1 X211.462 Y132.538 E.04088
G1 X211.863 Y133.425 E.03054
G1 X212.062 Y134.206 E.02525
G1 X213.482 Y143.688 E.30063
G1 X213.626 Y145.064 E.04336
G1 X213.626 Y208.893 E2.00131
G1 X213.436 Y210.321 E.04517
G1 X212.84 Y211.759 E.04882
G1 X212.187 Y212.658 E.03483
G1 X211.371 Y213.411 E.03482
G1 X210.821 Y213.779 E.02076
G1 X209.382 Y214.375 E.04883
G1 X207.954 Y214.564 E.04517
G1 X125.777 Y214.564 E2.57659
G1 X124.349 Y214.375 E.04517
G1 X122.911 Y213.779 E.04882
G1 X122.36 Y213.411 E.02076
G1 X121.545 Y212.658 E.03481
G1 X120.891 Y211.76 E.03482
G1 X120.295 Y210.32 E.04885
G1 X120.106 Y208.893 E.04516
G1 X120.106 Y116.267 E2.90422
G1 X120.295 Y114.839 E.04516
G1 X120.891 Y113.4 E.04883
G1 X121.465 Y112.611 E.0306
G1 E-4.9 F3600
;WIPE_START
G1 F7200
G1 X121.544 Y112.502 E-.06412
G1 X122.36 Y111.748 E-.52743
G1 X122.911 Y111.38 E-.31449
G1 X124.35 Y110.785 E-.7398
G1 X125.078 Y110.688 E-.34916
;WIPE_END
G1 E-.105 F3600
G1 X152.146 Y180.388 F9000
G1 E7 F2400
;TYPE:Perimeter
G1 F1200
G1 X152.531 Y180.274 E.01258
G1 X157.102 Y180.274 E.14333
G1 X157.486 Y180.388 E.01257
G1 X157.103 Y180.501 E.01253
G1 X152.531 Y180.501 E.14335
G1 X152.204 Y180.405 E.0107
G1 E-4.9 F3600
;WIPE_START
G1 F7200
G1 X152.531 Y180.274 E-.16734
G1 X156.379 Y180.274 E-1.82766
;WIPE_END
G1 E-.105 F3600
G1 X145.537 Y199.445 F9000
G1 E7 F2400
G1 F1200
G1 X145.75 Y199.51 E.00697
G1 X145.542 Y199.51 E.0065
G1 X145.514 Y199.456 E.00191
G1 E-4.9 F3600
;WIPE_START
G1 F7200
G1 X145.75 Y199.51 E-.11491
G1 X145.542 Y199.51 E-.09847
G1 X145.514 Y199.456 E-.02891
;WIPE_END
G1 E-1.8577 F3600
G1 X130.247 Y191.787 F9000
G1 E7 F2400
G1 F1200
G1 X130.389 Y191.661 E.00596
G1 X130.598 Y191.316 E.01264
G1 X130.598 Y191.785 E.0147
G1 X130.307 Y191.785 E.00912
G1 X130.598 Y189.882 F9000
G1 F1200
G1 X130.517 Y189.725 E.00555
G1 X130.598 Y189.624 E.00405
G1 X130.598 Y189.822 E.00619
G1 E-4.9 F3600
;WIPE_START
G1 F7200
G1 X130.517 Y189.725 E-.06015
G1 X130.598 Y189.624 E-.06137
G1 X130.598 Y189.822 E-.09383
;WIPE_END
G1 E-1.88465 F3600
G1 X134.859 Y188.848 F9000
G1 E7 F2400
G1 F1200
G1 X133.819 Y186.861 E.07031
G1 X133.556 Y186.421 E.01609
G1 X133.06 Y185.728 E.02672
G1 X132.927 Y185.206 E.01689
G1 X132.811 Y184.952 E.00876
G1 X131.574 Y179.29 E.1817
G1 X131.126 Y172.477 E.21408
G1 X131.126 Y147.486 E.78359
G1 X132.767 Y144.856 E.09719
G1 X132.345 Y143.615 E.04108
G1 X133.267 Y144.053 E.03202
G1 X135.005 Y141.266 E.10297
G1 X135.078 Y141.266 E.00227
G1 X135.078 Y183.226 E1.31561
G1 X138.538 Y183.856 E.11028
G1 X138.538 Y174.266 E.30069
G1 X150.239 Y178.961 E.39531
G1 X150.273 Y179.768 E.02533
G1 X150.374 Y180.377 E.01937
G1 X150.272 Y181.06 E.02165
G1 X150.242 Y181.55 E.0154
G1 X150.237 Y183.797 E.07045
G1 X137.09 Y189.368 E.44772
G1 X137.09 Y192.382 E.09448
G1 X136.52 Y192.198 E.01876
G1 X136.52 Y190.271 E.06041
G1 X134.905 Y188.887 E.0667
G1 E-4.9 F3600
;WIPE_START
G1 F7200
G1 X133.819 Y186.861 E-1.09163
G1 X133.556 Y186.421 E-.2437
G1 X133.06 Y185.728 E-.40477
G1 X132.928 Y185.208 E-.2549
;WIPE_END
G1 E-.105 F3600
G1 X138.197 Y125.095 F9000
G1 E7 F2400
G1 F1200
G1 X138.921 Y126.927 E.06173
G1 X139.303 Y127.738 E.02812
G1 X138.973 Y127.717 E.01036
G1 X138.2 Y127.714 E.02422
G1 X138.197 Y125.155 E.08023
G1 E-4.9 F3600
;WIPE_START
G1 F7200
G1 X138.921 Y126.927 E-.90877
G1 X139.303 Y127.738 E-.42595
G1 X138.973 Y127.717 E-.15699
G1 X138.2 Y127.714 E-.36699
G1 X138.2 Y127.427 E-.1363
;WIPE_END
G1 E-.105 F3600
G1 X165.173 Y160.11 F9000
G1 E7 F2400
G1 F1200
G1 X165.183 Y194.044 E1.06399
G1 X165.039 Y193.716 E.01124
G1 X164.713 Y192.66 E.03465
G1 X164.441 Y191.582 E.03487
G1 X164.116 Y189.993 E.05084
G1 X163.914 Y188.4 E.05035
G1 X163.758 Y186.799 E.05045
G1 X163.671 Y184.891 E.05987
G1 X159.413 Y181.147 E.17778
G1 X159.382 Y180.96 E.00595
G1 X159.221 Y180.346 E.0199
G1 X159.251 Y179.569 E.02437
G1 X159.187 Y178.536 E.03246
G1 X158.312 Y169.341 E.28961
G1 X138.728 Y151.587 E.8288
G1 X138.728 Y147.413 E.13086
G1 X141.984 Y144.326 E.14067
G1 X142.692 Y144.104 E.02328
G1 X143.147 Y143.933 E.01523
G1 X143.775 Y143.631 E.02185
G1 X144.53 Y143.51 E.02398
G1 X145.498 Y143.249 E.03141
G1 X154.339 Y140.536 E.28997
G1 X157.598 Y143.213 E.13222
G1 X158.385 Y142.841 E.02729
G1 X158.385 Y141.145 E.05316
G1 X155.746 Y138.977 E.10709
G1 X148.735 Y132.552 E.29817
G1 X148.766 Y127.95 E.14428
G1 X155.057 Y126.063 E.20594
G1 X158.606 Y129.412 E.153
G1 X158.606 Y140.926 E.36102
G1 X162.108 Y141.557 E.11157
G1 X162.108 Y136.683 E.15282
G1 X162.715 Y136.925 E.02049
G1 X164.336 Y135.216 E.07386
G1 X165.935 Y136.857 E.07184
G1 X166.792 Y136.509 E.02899
G1 X166.792 Y132.124 E.13749
G1 X166.859 Y132.056 E.003
G1 X166.926 Y132.124 E.003
G1 X166.926 Y136.509 E.13749
G1 X167.783 Y136.857 E.02899
G1 X169.382 Y135.216 E.07184
G1 X171.003 Y136.925 E.07386
G1 X171.61 Y136.683 E.02049
G1 X171.61 Y141.557 E.15282
G1 X175.112 Y140.926 E.11157
G1 X175.112 Y129.412 E.36102
G1 X178.661 Y126.063 E.153
G1 X184.952 Y127.95 E.20594
G1 X184.983 Y132.552 E.14428
G1 X177.972 Y138.977 E.29817
G1 X175.333 Y141.145 E.10709
G1 X175.333 Y142.841 E.05316
G1 X176.12 Y143.213 E.02729
G1 X179.379 Y140.536 E.13222
G1 X188.188 Y143.239 E.28889
G1 X189.152 Y143.499 E.03131
G1 X189.906 Y143.62 E.02396
G1 X190.549 Y143.926 E.02233
G1 X191.011 Y144.099 E.01546
G1 X191.734 Y144.326 E.02378
G1 X194.99 Y147.413 E.14067
G1 X194.99 Y151.587 E.13086
G1 X175.406 Y169.341 E.8288
G1 X174.53 Y178.541 E.28976
G1 X174.466 Y179.575 E.03248
G1 X174.496 Y180.345 E.02417
G1 X174.336 Y180.958 E.01986
G1 X174.305 Y181.148 E.00602
G1 X170.047 Y184.891 E.17778
G1 X169.961 Y186.799 E.05987
G1 X169.804 Y188.4 E.05045
G1 X169.603 Y189.993 E.05035
G1 X169.277 Y191.582 E.05084
G1 X169.006 Y192.66 E.03487
G1 X168.679 Y193.716 E.03465
G1 X168.535 Y194.044 E.01124
G1 X168.545 Y160.11 E1.06399
G1 X165.233 Y160.11 E.10385
G1 E-4.9 F3600
;WIPE_START
G1 F7200
G1 X165.227 Y164.31 E-1.995
;WIPE_END
G1 E-.105 F3600
G1 X201.805 Y138.498 F9000
G1 E7 F2400
G1 F1200
G1 X202.652 Y138.146 E.02876
G1 X206.906 Y142.383 E.18825
G1 X207.508 Y143.154 E.03066
G1 X208.017 Y144.15 E.03508
G1 X208.357 Y145.219 E.03518
G1 X208.476 Y146.199 E.03097
G1 X208.476 Y185.975 E1.24714
G1 X202.562 Y185.974 E.18545
G1 X202.18 Y186.088 E.01249
G1 X202.562 Y186.201 E.01249
G1 X208.476 Y186.201 E.18545
G1 X208.477 Y197.615 E.3579
G1 X197.326 Y197.594 E.34962
G1 X195.322 Y199.598 E.08885
G1 X195.13 Y199.952 E.01263
G1 X195.482 Y199.759 E.01257
G1 X197.384 Y197.856 E.08438
G1 X203.309 Y197.849 E.18578
G1 X203.288 Y199.397 E.04853
G1 X203.436 Y199.178 E.00828
G1 X203.817 Y198.789 E.01707
G1 X204.055 Y198.607 E.0094
G1 X204.374 Y198.415 E.01166
G1 X204.652 Y198.292 E.00955
G1 X204.944 Y198.204 E.00956
G1 X205.245 Y198.152 E.00957
G1 X205.54 Y198.135 E.00928
G1 X205.912 Y198.157 E.01169
G1 X206.324 Y198.241 E.01319
G1 X206.722 Y198.383 E.01323
G1 X207.054 Y198.553 E.01171
G1 X207.361 Y198.769 E.01178
G1 X207.643 Y199.039 E.01223
G1 X207.874 Y199.365 E.01253
G1 X208.235 Y200.148 E.02703
G1 X206.613 Y201.115 E.05923
G1 X208.197 Y202.218 E.06053
G1 X207.662 Y203.113 E.03268
G1 X207.455 Y203.322 E.00922
G1 X208.472 Y203.287 E.0319
G1 X208.477 Y208.34 E.15842
G1 X208.152 Y209.122 E.02656
G1 X207.37 Y209.446 E.02655
G1 X186.605 Y209.446 E.65108
G1 X186.606 Y206.258 E.09998
G1 X186.495 Y205.886 E.01217
G1 X186.377 Y206.261 E.01233
G1 X186.38 Y209.446 E.09987
G1 X152.605 Y209.446 E1.05898
G1 X152.605 Y206.837 E.08182
G1 X152.492 Y206.452 E.01257
G1 X152.379 Y206.837 E.01258
G1 X152.379 Y209.446 E.08181
G1 X126.361 Y209.446 E.81578
G1 X125.579 Y209.122 E.02655
G1 X125.255 Y208.34 E.02655
G1 X125.257 Y191.762 E.51977
G1 X126.408 Y191.807 E.03611
G1 X126.356 Y190.585 E.03834
G1 X126.352 Y186.894 E.11572
G1 X128.99 Y186.894 E.08269
G1 X129.374 Y186.924 E.01209
G1 X129.764 Y187.021 E.0126
G1 X130.09 Y187.166 E.01119
G1 X130.422 Y187.402 E.01277
G1 X130.599 Y187.605 E.00844
G1 X130.599 Y186.37 E.03875
G1 X131.485 Y186.081 E.02921
G1 X131.123 Y185.974 E.01184
G1 X125.255 Y185.975 E.18398
G1 X125.255 Y122.184 E2.00013
G1 X132.079 Y122.184 E.21397
G1 X132.079 Y142.835 E.64752
G1 X132.192 Y143.167 E.01099
G1 X132.305 Y142.835 E.01099
G1 X132.305 Y122.184 E.64752
G1 X136.616 Y122.184 E.13516
G1 X138.227 Y122.218 E.05052
G1 X138.164 Y123.009 E.02487
G1 X138.694 Y122.939 E.01675
G1 X139.619 Y122.893 E.02902
G1 X139.99 Y123.89 E.03337
G1 X140.413 Y123.89 E.01327
G1 X140.773 Y122.909 E.03278
G1 X143.072 Y122.909 E.07206
G1 X141.489 Y126.926 E.13536
G1 X141.109 Y127.735 E.02804
G1 X143.479 Y127.708 E.07432
G1 X143.479 Y141.548 E.43395
G1 X143.589 Y141.92 E.01216
G1 X143.707 Y141.544 E.01236
G1 X143.705 Y122.184 E.60703
G1 X170.902 Y122.184 E.85274
G1 X171.806 Y122.082 E.02854
G1 X172.629 Y121.794 E.02733
G1 X173.367 Y121.33 E.02733
G1 X173.983 Y120.714 E.02733
G1 X174.447 Y119.976 E.02733
G1 X174.735 Y119.153 E.02733
G1 X174.837 Y118.249 E.02854
G1 X174.837 Y115.713 E.0795
G1 X177.821 Y115.713 E.09357
G1 X178.821 Y115.832 E.03158
G1 X179.909 Y116.169 E.03573
G1 X180.922 Y116.676 E.0355
G1 X181.703 Y117.277 E.0309
G1 X189.979 Y125.522 E.36628
G1 X189.977 Y141.551 E.50259
G1 X190.09 Y141.939 E.01268
G1 X190.205 Y141.548 E.01278
G1 X190.205 Y126.942 E.45797
G1 X191.052 Y126.59 E.02876
G1 X201.579 Y137.077 E.46589
G1 X201.579 Y143.035 E.18682
G1 X201.692 Y143.367 E.01099
G1 X201.805 Y143.035 E.01099
G1 X201.805 Y138.558 E.14039
G1 E-4.9 F3600
;WIPE_START
G1 F7200
G1 X202.652 Y138.146 E-.44739
G1 X204.96 Y140.445 E-1.54761
;WIPE_END
G1 E-.105 F3600
G1 X168.168 Y160.487 F9000
G1 E7 F2400
;TYPE:External perimeter
G1 F1200
G1 X168.168 Y193.455 E1.03368
G1 X168.151 Y194.453 E.03131
G1 X168.068 Y195.441 E.03108
G1 X168.068 Y195.887 E.01398
G1 X168.198 Y195.712 E.00683
G1 X168.408 Y195.356 E.01295
G1 X168.712 Y194.58 E.02615
G1 X169.033 Y193.848 E.02505
G1 X169.369 Y192.762 E.03564
G1 X169.645 Y191.666 E.03545
G1 X169.975 Y190.055 E.05155
G1 X170.179 Y188.442 E.05097
G1 X170.337 Y186.826 E.05093
G1 X170.416 Y185.068 E.05515
G1 X174.656 Y181.342 E.17699
G1 X174.706 Y181.036 E.00971
G1 X174.871 Y180.401 E.02058
G1 X175.447 Y180.597 E.01907
G1 X175.842 Y180.662 E.01257
G1 X176.577 Y180.878 E.024
G1 X181.258 Y180.878 E.14676
G1 X181.978 Y180.667 E.02353
G1 X182.366 Y180.604 E.01233
G1 X182.958 Y180.403 E.01962
G1 X183.064 Y181.106 E.02232
G1 X183.092 Y181.568 E.0145
G1 X183.098 Y184.048 E.07775
G1 X196.245 Y189.618 E.44769
G1 X196.245 Y192.899 E.10289
G1 X197.568 Y192.473 E.04361
G1 X197.568 Y190.445 E.06358
G1 X199.153 Y189.087 E.06542
G1 X200.218 Y187.051 E.07205
G1 X200.468 Y186.634 E.01523
G1 X200.839 Y186.115 E.02003
G1 X201.357 Y186.288 E.01711
G1 X201.76 Y186.357 E.01281
G1 X202.507 Y186.578 E.02444
G1 X208.099 Y186.578 E.17534
G1 X208.099 Y197.237 E.33423
G1 X197.17 Y197.217 E.34268
G1 X195.016 Y199.37 E.09548
G1 X194.625 Y200.091 E.02574
G1 X194.379 Y200.443 E.01345
G1 X194.133 Y200.944 E.0175
G1 X193.46 Y200.875 E.02121
G1 X192.998 Y200.799 E.01468
G1 X189.002 Y200.044 E.12751
G1 X187.673 Y199.39 E.04643
G1 X186.918 Y199.079 E.02559
G1 X186.16 Y198.529 E.02938
G1 X183.833 Y197.13 E.08513
G1 X182.995 Y196.709 E.02938
G1 X181.876 Y196.406 E.03637
G1 X180.792 Y196.292 E.03415
G1 X179.389 Y196.247 E.04401
G1 X178.09 Y196.36 E.04089
G1 X175.646 Y196.717 E.07745
G1 X174.771 Y196.942 E.02833
G1 X173.124 Y197.211 E.05232
G1 X172.055 Y197.072 E.03381
G1 X171.128 Y197.303 E.02995
G1 X170.41 Y197.633 E.02476
G1 X164.927 Y198.283 E.17313
G1 X161.933 Y198.538 E.09421
G1 X147.769 Y199.066 E.44442
G1 X147.578 Y198.761 E.01125
G1 X147.708 Y198.518 E.00865
G1 X147.805 Y198.201 E.01038
G1 X147.837 Y197.872 E.01038
G1 X147.805 Y197.542 E.01038
G1 X147.708 Y197.226 E.01038
G1 X147.552 Y196.934 E.01038
G1 X147.342 Y196.678 E.01038
G1 X147.087 Y196.468 E.01038
G1 X146.795 Y196.312 E.01038
G1 X146.478 Y196.216 E.01038
G1 X146.148 Y196.183 E.01038
G1 X145.819 Y196.216 E.01038
G1 X145.502 Y196.312 E.01038
G1 X145.21 Y196.468 E.01038
G1 X144.955 Y196.678 E.01038
G1 X144.745 Y196.934 E.01038
G1 X144.589 Y197.226 E.01038
G1 X144.492 Y197.543 E.01038
G1 X144.46 Y197.872 E.01038
G1 X144.492 Y198.201 E.01038
G1 X144.588 Y198.519 E.01039
G1 X144.94 Y199.18 E.02347
G1 X139.3 Y199.449 E.17701
G1 X138.057 Y199.611 E.03932
G1 X137.28 Y199.77 E.02485
G1 X137.013 Y199.986 E.01079
G1 X137.906 Y199.986 E.02799
G1 X138.898 Y199.918 E.03117
