; generated by PrusaSlicer 2.4.2+win64 on 2022-08-06 at 16:25:31 UTC

; 

; external perimeters extrusion width = 0.45mm
; perimeters extrusion width = 0.45mm
; infill extrusion width = 0.45mm
; solid infill extrusion width = 0.45mm
; top infill extrusion width = 0.40mm
; first layer extrusion width = 0.42mm

; external perimeters extrusion width = 0.45mm
; perimeters extrusion width = 0.45mm
; infill extrusion width = 0.45mm
; solid infill extrusion width = 0.45mm
; top infill extrusion width = 0.40mm
; first layer extrusion width = 0.42mm

M107
;TYPE:Custom
G90 ; use absolute coordinates
M83 ; extruder relative mode
M140 S110 ; set final bed temp
M104 S170 ; set temporary nozzle temp to prevent oozing during homing
G4 S10 ; allow partial nozzle warmup
G28 ; home all axis
G1 Z50 F300
G1 X10 Y10 F3000
M190 S104.5 ; wait for bed temp to stabilize at 90%
M140 S110 ; set final bed temp
M104 S245 ; set final nozzle temp
M109 S245 ; wait for nozzle temp to stabilize
G1 Z0.28 F240
G92 E0
G1 Y180 E10 F1500 ; prime the nozzle
G1 X10.3 F5000
G92 E0
G1 Y10 E10 F1200 ; prime the nozzle
G92 E0
G21 ; set units to millimeters
G90 ; use absolute coordinates
M83 ; use relative distances for extrusion
; Filament gcode
M107
;LAYER_CHANGE
;Z:0.2
;HEIGHT:0.2
;BEFORE_LAYER_CHANGE
G92 E0
;0.2


G1 E-5 F3600
G1 Z.2 F9000
;AFTER_LAYER_CHANGE
;0.2
G1 X53.251 Y23.46
G1 E5 F2400
M204 P500
;TYPE:Skirt/Brim
;WIDTH:0.42
G1 F1200
G1 X56.691 Y15.651 E.26755
G1 X57.49 Y14.299 E.04923
G1 X58.348 Y13.379 E.03947
G1 X59.766 Y12.431 E.05346
G1 X60.945 Y11.991 E.03945
G1 X61.739 Y11.833 E.0254
G1 X62.592 Y11.769 E.0268
G1 X168.211 Y11.789 E3.31163
G1 X169.453 Y11.991 E.03945
G1 X170.632 Y12.431 E.03945
G1 X171.702 Y13.093 E.03945
G1 X172.622 Y13.951 E.03945
G1 X173.57 Y15.369 E.05347
G1 X174.01 Y16.548 E.03945
G1 X174.212 Y17.79 E.03945
G1 X174.232 Y82.908 E2.04173
G1 X174.168 Y83.761 E.02681
G1 X173.879 Y84.985 E.03945
G1 X173.291 Y86.25 E.04372
G1 X107.498 Y200.124 E4.12356
G1 X107.12 Y200.671 E.02084
G1 X106.61 Y201.263 E.02449
G1 X88.938 Y218.935 E.78361
G1 X87.707 Y219.865 E.0484
G1 X86.41 Y220.401 E.04398
G1 X85.594 Y220.564 E.02609
G1 X76.353 Y221.433 E.29104
G1 X21.095 Y221.433 E1.73258
G1 X20.243 Y221.369 E.02677
G1 X19.023 Y221.082 E.0393
G1 X17.879 Y220.562 E.03942
G1 X17.198 Y220.107 E.02566
G1 X16.272 Y219.241 E.03974
G1 X15.331 Y217.826 E.05331
G1 X14.893 Y216.649 E.03937
G1 X14.736 Y215.859 E.02525
G1 X14.672 Y215.007 E.02678
G1 X14.672 Y112.379 E3.21783
G1 X14.736 Y111.528 E.02678
G1 X14.893 Y110.738 E.02525
G1 X15.196 Y109.838 E.02978
G1 X53.227 Y23.515 E2.95762
G1 X53.572 Y23.667 F9000
G1 F1200
G1 X57.036 Y15.803 E.26943
G1 X57.781 Y14.538 E.04603
G1 X58.587 Y13.67 E.03715
G1 X59.944 Y12.764 E.05114
G1 X61.054 Y12.352 E.03714
G1 X62.592 Y12.146 E.04864
G1 X168.174 Y12.164 E3.31047
G1 X169.344 Y12.352 E.03713
G1 X170.454 Y12.764 E.03713
G1 X171.463 Y13.385 E.03714
G1 X172.331 Y14.19 E.03714
G1 X173.237 Y15.547 E.05116
G1 X173.649 Y16.657 E.03713
G1 X173.837 Y17.827 E.03713
G1 X173.855 Y82.908 E2.04058
G1 X173.793 Y83.724 E.02565
G1 X173.519 Y84.876 E.03714
G1 X172.965 Y86.061 E.04101
G1 X106.828 Y200.432 E4.14243
G1 X106.344 Y200.996 E.0233
G1 X88.672 Y218.668 E.78361
G1 X87.53 Y219.532 E.04488
G1 X86.3 Y220.041 E.04175
G1 X85.558 Y220.188 E.02371
G1 X76.353 Y221.056 E.2899
G1 X21.095 Y221.056 E1.73258
G1 X20.28 Y220.993 E.02561
G1 X19.133 Y220.721 E.03699
G1 X18.056 Y220.229 E.03711
G1 X17.437 Y219.816 E.02332
G1 X16.564 Y219.003 E.0374
G1 X15.664 Y217.648 E.05101
G1 X15.253 Y216.54 E.03706
G1 X15.049 Y215.007 E.04847
G1 X15.049 Y112.379 E3.21783
G1 X15.111 Y111.565 E.02562
G1 X15.253 Y110.847 E.02295
G1 X15.541 Y109.99 E.02835
G1 X53.547 Y23.722 E2.95573
G1 X53.892 Y23.874 F9000
G1 F1200
G1 X57.381 Y15.955 E.27131
G1 X58.073 Y14.778 E.04282
G1 X58.827 Y13.962 E.03483
G1 X60.121 Y13.096 E.04882
G1 X61.164 Y12.713 E.03482
G1 X62.592 Y12.523 E.04517
G1 X168.137 Y12.539 E3.30931
G1 X169.234 Y12.713 E.03482
G1 X170.276 Y13.096 E.03482
G1 X171.223 Y13.676 E.03482
G1 X172.039 Y14.43 E.03482
G1 X172.905 Y15.725 E.04884
G1 X173.288 Y16.767 E.03482
G1 X173.462 Y17.864 E.03482
G1 X173.478 Y82.908 E2.03942
G1 X173.418 Y83.687 E.02449
G1 X173.158 Y84.766 E.03482
G1 X172.638 Y85.872 E.03831
G1 X106.536 Y200.194 E4.14054
G1 X106.077 Y200.729 E.02212
G1 X88.405 Y218.401 E.78361
G1 X87.354 Y219.198 E.04136
G1 X86.189 Y219.68 E.03952
G1 X85.522 Y219.813 E.02132
G1 X76.353 Y220.678 E.28877
G1 X21.095 Y220.678 E1.73258
G1 X20.317 Y220.618 E.02445
G1 X19.242 Y220.36 E.03469
G1 X18.233 Y219.896 E.0348
G1 X17.677 Y219.524 E.02098
G1 X16.857 Y218.765 E.03506
G1 X15.996 Y217.471 E.04871
G1 X15.614 Y216.431 E.03475
G1 X15.426 Y215.007 E.04502
G1 X15.426 Y112.379 E3.21783
G1 X15.486 Y111.602 E.02445
G1 X15.887 Y110.142 E.04746
G1 X53.868 Y23.929 E2.95385
G1 E-3.5 F3600
;WIPE_START
G1 F7200
G1 X55.078 Y21.183 E-1.425
;WIPE_END
G1 E-.075 F3600
G1 X66.923 Y27.502 F9000
G1 E5 F2400
;TYPE:External perimeter
G1 F1200
G1 X70.812 Y27.034 E.12282
G1 X71.133 Y27.297 E.01302
G1 X75.025 Y27.124 E.12214
G1 X75.378 Y26.823 E.01456
G1 X76.051 Y26.703 E.02144
G1 X76.832 Y26.778 E.02459
G1 X77.834 Y26.773 E.03142
G1 X106.393 Y25.665 E.89612
G1 X109.193 Y26.578 E.09235
G1 X113.023 Y29.974 E.1605
G1 X113.766 Y30.575 E.02994
G1 X114.15 Y30.843 E.01471
G1 X114.432 Y31.093 E.0118
G1 X114.01 Y31.093 E.01322
G1 X113.52 Y31.029 E.01551
G1 X112.518 Y30.993 E.03143
G1 X86.017 Y30.988 E.8309
G1 X86.017 Y33.612 E.08229
G1 X88.266 Y33.605 E.0705
G1 X96.983 Y33.511 E.27332
G1 X98.421 Y33.511 E.04509
G1 X98.543 Y33.527 E.00388
G1 X98.479 Y33.631 E.00383
G1 X98.307 Y33.806 E.00768
G1 X98.078 Y33.863 E.00741
G1 X87.35 Y33.997 E.33639
G1 X85.589 Y34.372 E.05645
G1 X85.148 Y34.494 E.01434
G1 X84.512 Y34.731 E.02128
G1 X84.775 Y35.321 E.02023
G1 X84.902 Y35.736 E.01363
G1 X85.223 Y36.491 E.0257
G1 X85.222 Y45.777 E.29117
G1 X84.923 Y46.517 E.02502
G1 X84.782 Y46.939 E.01393
G1 X84.72 Y47.21 E.00873
G1 X84.532 Y47.646 E.01489
G1 X84.371 Y47.272 E.01278
G1 X84.143 Y46.52 E.02464
G1 X83.842 Y45.777 E.02511
G1 X83.842 Y36.49 E.2912
G1 X84.142 Y35.81 E.0233
G1 X84.516 Y34.74 E.03554
G1 X83.695 Y34.799 E.02581
G1 X83.195 Y34.875 E.01584
G1 X81.854 Y35.151 E.04292
G1 X69.298 Y45.942 E.5191
G1 X66.855 Y44.482 E.08924
G1 X66.932 Y42.361 E.06655
G1 X66.922 Y41.885 E.01492
G1 X66.868 Y41.38 E.01592
G1 X66.962 Y40.853 E.01679
G1 X67.01 Y40.355 E.01568
G1 X67.235 Y34.692 E.17772
G1 X68.027 Y34.167 E.02978
G1 X67.196 Y32.013 E.0724
G1 X66.918 Y31.963 E.00885
G1 X66.923 Y27.562 E.138
G1 X67.287 Y27.666 F9000
G1 E-3.5 F3600
;WIPE_START
G1 F7200
G1 X69.895 Y27.158 E-1.425
;WIPE_END
G1 E-.075 F3600
G1 X144.642 Y53.979 F9000
G1 E5 F2400
G1 F1200
G1 X145.092 Y53.785 E.01538
G1 X145.348 Y53.729 E.00822
G1 X145.771 Y53.588 E.01397
G1 X146.511 Y53.288 E.02502
G1 X153.042 Y53.288 E.20478
G1 X153.721 Y53.588 E.02326
G1 X154.783 Y53.959 E.03527
G1 X154.742 Y53.152 E.02533
G1 X154.674 Y52.657 E.01565
G1 X154.573 Y52.174 E.01549
G1 X154.348 Y51.279 E.02892
G1 X154.189 Y50.421 E.02736
G1 X154.026 Y49.321 E.03487
G1 X153.912 Y48.312 E.03185
G1 X153.854 Y47.302 E.0317
G1 X153.831 Y46.355 E.02972
G1 X153.92 Y45.411 E.0297
G1 X154.127 Y44.315 E.03498
G1 X154.306 Y43.691 E.02037
G1 X154.43 Y43.349 E.01142
G1 X155.038 Y41.873 E.05003
G1 X155.697 Y40.433 E.04965
G1 X155.865 Y40.109 E.01144
G1 X156.08 Y39.795 E.01194
G1 X156.283 Y39.452 E.01248
G1 X156.608 Y38.81 E.02257
G1 X156.46 Y38.495 E.01092
G1 X156.425 Y38.319 E.00561
G1 X156.364 Y36.607 E.05371
G1 X156.412 Y36.532 E.00279
G1 X156.512 Y36.493 E.00337
G1 X157.123 Y36.431 E.01925
G1 X157.798 Y32.616 E.12148
G1 X158.311 Y30.356 E.07267
G1 X159.039 Y28.099 E.07435
G1 X159.964 Y25.835 E.07668
G1 X160.895 Y23.816 E.06972
G1 X161.081 Y23.507 E.01131
G1 X161.246 Y23.785 E.01014
G1 X161.687 Y25.892 E.0675
G1 X162.051 Y27.815 E.06136
G1 X162.334 Y28.94 E.03636
G1 X162.308 Y29.69 E.02353
G1 X162.374 Y30.649 E.03015
G1 X162.404 Y33.097 E.07675
G1 X162.687 Y33.829 E.02461
G1 X162.756 Y34.087 E.0084
G1 X162.785 Y34.354 E.0084
G1 X162.785 Y35.618 E.03965
G1 X162.766 Y35.861 E.00765
G1 X162.472 Y37.658 E.05707
G1 X162.345 Y42.367 E.14771
G1 X162.325 Y51.423 E.28393
G1 X162.511 Y56.105 E.14692
G1 X162.611 Y61.365 E.16497
G1 X162.545 Y68.113 E.21158
G1 X162.569 Y68.61 E.01559
G1 X162.667 Y69.374 E.02417
G1 X162.554 Y70.086 E.02261
G1 X162.52 Y70.552 E.01463
G1 X162.496 Y72.348 E.05631
G1 X162.081 Y76.65 E.13551
G1 X162.014 Y77.583 E.02935
G1 X161.894 Y77.963 E.01247
G1 X161.72 Y78.27 E.01109
G1 X161.476 Y78.407 E.00876
G1 X161.493 Y77.924 E.01515
G1 X161.546 Y77.433 E.01547
G1 X161.572 Y76.444 E.03102
G1 X161.572 Y55.846 E.64585
G1 X158.959 Y55.849 E.08195
G1 X158.96 Y74.934 E.59839
G1 X159.059 Y77.845 E.09131
G1 X159.048 Y78.898 E.03304
G1 X158.881 Y78.771 E.00661
G1 X158.726 Y78.213 E.01815
G1 X158.687 Y77.773 E.01385
G1 X158.576 Y75.449 E.07295
G1 X158.259 Y71.734 E.11691
G1 X158.004 Y69.508 E.07025
G1 X157.616 Y66.952 E.08105
G1 X157.198 Y64.751 E.07024
G1 X155.499 Y56.954 E.25021
G1 X155.142 Y55.107 E.05898
G1 X155.024 Y54.637 E.01521
G1 X154.792 Y53.958 E.02249
G1 X154.35 Y54.165 E.01531
G1 X154.091 Y54.234 E.00839
G1 X153.705 Y54.375 E.01288
G1 X153.042 Y54.669 E.02276
G1 X146.511 Y54.669 E.20478
G1 X145.771 Y54.369 E.02502
G1 X145.348 Y54.228 E.01397
G1 X145.092 Y54.172 E.00822
G1 X144.697 Y54.002 E.01349
G1 X145.037 Y53.916 F9000
G1 E-3.5 F3600
;WIPE_START
G1 F7200
G1 X145.092 Y53.785 E-.21434
G1 X145.348 Y53.729 E-.12452
G1 X145.771 Y53.588 E-.21163
G1 X146.511 Y53.288 E-.37905
G1 X147.554 Y53.288 E-.49547
;WIPE_END
G1 E-.075 F3600
G1 X67.299 Y27.836 F9000
G1 E5 F2400
;TYPE:Perimeter
G1 F1200
G1 X70.698 Y27.428 E.10731
G1 X71.006 Y27.68 E.0125
G1 X75.171 Y27.495 E.13072
G1 X75.545 Y27.176 E.0154
G1 X76.067 Y27.084 E.01662
G1 X76.815 Y27.155 E.02356
G1 X77.842 Y27.15 E.0322
G1 X106.34 Y26.045 E.89421
G1 X109.002 Y26.912 E.08778
G1 X112.779 Y30.262 E.15831
G1 X113.249 Y30.642 E.01895
G1 X112.525 Y30.616 E.02274
G1 X85.64 Y30.611 E.84294
G1 X85.64 Y33.976 E.10551
G1 X85.031 Y34.135 E.01973
G1 X84.402 Y34.37 E.02108
G1 X83.653 Y34.424 E.02353
G1 X83.129 Y34.503 E.01662
G1 X81.683 Y34.801 E.04629
G1 X69.259 Y45.479 E.51365
G1 X67.24 Y44.273 E.07373
G1 X67.309 Y42.364 E.0599
G1 X67.298 Y41.861 E.01576
G1 X67.249 Y41.394 E.01474
G1 X67.336 Y40.904 E.01559
G1 X67.386 Y40.381 E.01649
G1 X67.604 Y34.899 E.172
G1 X68.487 Y34.314 E.03323
G1 X67.471 Y31.679 E.08856
G1 X67.295 Y31.647 E.0056
G1 X67.299 Y27.896 E.11762
G1 E-3.5 F3600
;WIPE_START
G1 F7200
G1 X70.271 Y27.486 E-1.425
;WIPE_END
G1 E-.075 F3600
G1 X131.661 Y58.851 F9000
G1 E5 F2400
G1 F1200
G1 X133.53 Y69.871 E.35047
G1 X133.944 Y69.871 E.01296
G1 X135.046 Y75.679 E.18536
G1 X134.641 Y75.679 E.01271
G1 X135.396 Y79.571 E.12429
G1 X134.173 Y79.65 E.03842
G1 X132.603 Y79.64 E.04922
G1 X132.488 Y79.909 E.00918
G1 X131.443 Y79.874 E.03279
G1 X131.242 Y79.552 E.01189
G1 X130.28 Y79.52 E.03016
G1 X129.926 Y79.474 E.0112
G1 X129.534 Y79.36 E.0128
G1 X129.132 Y79.186 E.01374
G1 X128.782 Y78.977 E.0128
G1 X128.506 Y78.749 E.0112
G1 X124.714 Y74.946 E.1684
G1 X123.727 Y74.025 E.04233
G1 X122.351 Y72.573 E.06273
G1 X108.678 Y58.852 E.60734
G1 X107.534 Y58.852 E.03587
G1 X106.844 Y58.824 E.02163
G1 X106.028 Y58.745 E.02573
G1 X105.21 Y58.627 E.02589
G1 X104.531 Y58.49 E.02174
G1 X85.98 Y53.351 E.60354
G1 X85.458 Y53.237 E.01674
G1 X84.694 Y53.133 E.02418
G1 X84.132 Y52.87 E.01948
G1 X82.775 Y52.41 E.04491
G1 X82.677 Y52.34 E.00377
G1 X101.281 Y52.34 E.58331
G1 X101.281 Y48.929 E.10693
G1 X82.677 Y48.929 E.58331
G1 X82.779 Y48.856 E.00393
G1 X84.15 Y48.394 E.04535
G1 X84.695 Y48.143 E.0188
G1 X85.413 Y48.045 E.02272
G1 X86.414 Y47.803 E.0323
G1 X104.531 Y42.779 E.58947
G1 X105.21 Y42.642 E.02174
G1 X106.028 Y42.523 E.02589
G1 X106.844 Y42.444 E.02573
G1 X107.534 Y42.417 E.02163
G1 X108.678 Y42.417 E.03587
G1 X128.506 Y22.52 E.88075
G1 X128.782 Y22.292 E.0112
G1 X129.132 Y22.083 E.0128
G1 X129.534 Y21.908 E.01374
G1 X129.926 Y21.795 E.0128
G1 X130.28 Y21.749 E.0112
G1 X131.242 Y21.717 E.03016
G1 X131.443 Y21.395 E.01189
G1 X132.488 Y21.36 E.03279
G1 X132.603 Y21.629 E.00918
G1 X134.173 Y21.619 E.04922
G1 X135.396 Y21.698 E.03842
G1 X134.641 Y25.589 E.12429
G1 X135.046 Y25.589 E.01271
G1 X133.944 Y31.398 E.18536
G1 X133.53 Y31.398 E.01296
G1 X131.661 Y42.418 E.35047
G1 X136.285 Y42.404 E.145
G1 X146.234 Y34.703 E.39449
G1 X147.025 Y34.047 E.0322
G1 X147.603 Y33.459 E.02586
G1 X148.232 Y33.111 E.02253
G1 X148.629 Y32.842 E.01505
G1 X150.319 Y31.54 E.06688
G1 X150.485 Y31.453 E.00585
G1 X150.661 Y31.419 E.00562
G1 X150.946 Y31.419 E.00895
G1 X151.227 Y31.49 E.00909
G1 X153.448 Y32.689 E.07915
G1 X149.429 Y40.877 E.28599
G1 X148.853 Y40.912 E.0181
G1 X148.846 Y41.318 E.01274
G1 X146.512 Y41.991 E.07615
G1 X146.512 Y42.599 E.01905
G1 X127.705 Y42.599 E.58969
G1 X127.705 Y45.971 E.10574
G1 X144.096 Y45.971 E.51392
G1 X144.096 Y49.369 E.10653
G1 X144.158 Y49.483 E.00409
G1 X143.203 Y49.651 E.0304
G1 X143.203 Y51.617 E.06164
G1 X144.158 Y51.785 E.0304
G1 X144.095 Y51.902 E.00415
G1 X144.101 Y52.904 E.03141
G1 X144.132 Y53.354 E.01414
G1 X144.235 Y53.973 E.01967
G1 X144.132 Y54.633 E.02095
G1 X144.1 Y55.298 E.02087
G1 X127.705 Y55.298 E.51405
G1 X127.705 Y58.67 E.10574
G1 X146.512 Y58.67 E.58969
G1 X146.512 Y59.278 E.01905
G1 X148.846 Y59.951 E.07615
G1 X148.853 Y60.357 E.01274
G1 X149.429 Y60.392 E.0181
G1 X153.448 Y68.579 E.28599
G1 X151.227 Y69.779 E.07915
G1 X150.946 Y69.85 E.00909
G1 X150.661 Y69.85 E.00895
G1 X150.485 Y69.815 E.00563
G1 X150.319 Y69.729 E.00585
G1 X148.628 Y68.426 E.06696
G1 X148.23 Y68.156 E.01506
G1 X147.574 Y67.792 E.02352
G1 X146.974 Y67.182 E.02682
G1 X146.187 Y66.53 E.03206
G1 X136.285 Y58.864 E.39262
G1 X131.721 Y58.851 E.14312
G1 E-3.5 F3600
;WIPE_START
G1 F7200
G1 X132.207 Y61.812 E-1.425
;WIPE_END
G1 E-.075 F3600
G1 X168.329 Y28.602 F9000
G1 E5 F2400
G1 F1200
G1 X164.343 Y28.602 E.12497
G1 X163.55 Y28.915 E.02672
G1 X164.343 Y29.228 E.02672
G1 X168.329 Y29.228 E.12497
G1 X168.329 Y69.056 E1.24878
G1 X164.629 Y69.056 E.116
G1 X163.836 Y69.369 E.02672
G1 X164.629 Y69.682 E.02672
G1 X168.329 Y69.681 E.116
G1 X168.329 Y82.355 E.39737
G1 X168.005 Y83.137 E.02655
G1 X167.222 Y83.461 E.02655
G1 X143.393 Y83.461 E.74716
G1 X143.393 Y77.36 E.1913
G1 X146.806 Y69.773 E.26085
G1 X146.855 Y68.921 E.02676
G1 X146.239 Y69.504 E.02658
G1 X142.774 Y76.935 E.25705
G1 X142.774 Y83.461 E.20465
G1 X119.399 Y83.461 E.73293
G1 X122.821 Y75.855 E.26153
G1 X122.875 Y75.022 E.02616
G1 X122.251 Y75.593 E.02653
G1 X118.582 Y83.461 E.2722
G1 X117.75 Y83.461 E.02609
G1 X117.553 Y83.491 E.00624
G1 X117.355 Y83.569 E.00666
G1 X117.195 Y83.679 E.00609
G1 X109.892 Y90.548 E.31433
G1 X109.516 Y90.805 E.01431
G1 X109.029 Y90.997 E.0164
G1 X108.577 Y91.065 E.01434
G1 X106.362 Y91.065 E.06944
G1 X106.362 Y83.66 E.23221
G1 X106.311 Y83.004 E.02063
G1 X106.163 Y82.39 E.01978
G1 X105.922 Y81.807 E.01978
G1 X105.592 Y81.269 E.01978
G1 X105.214 Y80.827 E.01824
G1 X104.7 Y80.378 E.0214
G1 X104.165 Y80.05 E.01968
G1 X103.582 Y79.809 E.01978
G1 X102.969 Y79.662 E.01978
G1 X102.313 Y79.61 E.02063
G1 X99.096 Y79.61 E.10086
G1 X99.096 Y77.108 E.07845
G1 X98.781 Y76.314 E.02679
G1 X98.47 Y77.108 E.02676
G1 X98.47 Y79.61 E.07845
G1 X77.249 Y79.61 E.66538
G1 X77.249 Y76.234 E.10584
G1 X76.936 Y75.446 E.02661
G1 X76.623 Y76.234 E.02661
G1 X76.623 Y79.61 E.10584
G1 X62.069 Y79.61 E.45633
G1 X62.069 Y59.573 E.62826
G1 X64.789 Y59.573 E.08528
G1 X65.582 Y59.26 E.02672
G1 X64.789 Y58.947 E.02672
G1 X62.069 Y58.947 E.08528
G1 X62.069 Y41.683 E.54128
G1 X64.343 Y41.684 E.07128
G1 X65.143 Y41.371 E.02695
G1 X64.343 Y41.057 E.02695
G1 X62.069 Y41.058 E.07128
G1 X62.069 Y18.748 E.69952
G1 X62.393 Y17.965 E.02655
G1 X63.175 Y17.641 E.02655
G1 X75.732 Y17.641 E.3937
G1 X75.732 Y24.746 E.22275
G1 X76.045 Y25.538 E.02672
G1 X76.358 Y24.746 E.02672
G1 X76.358 Y17.641 E.22275
G1 X142.774 Y17.641 E2.08245
G1 X142.774 Y24.246 E.2071
G1 X146.239 Y31.677 E.25707
G1 X146.856 Y32.262 E.02663
G1 X146.806 Y31.408 E.02683
G1 X143.393 Y23.821 E.26085
G1 X143.393 Y17.641 E.19376
