; generated by PrusaSlicer 2.4.2+win64 on 2022-08-06 at 13:16:03 UTC

; 

; external perimeters extrusion width = 0.45mm
; perimeters extrusion width = 0.45mm
; infill extrusion width = 0.45mm
; solid infill extrusion width = 0.45mm
; top infill extrusion width = 0.40mm
; first layer extrusion width = 0.42mm

M107
;TYPE:Custom
G90 ; use absolute coordinates
M83 ; extruder relative mode
M140 S110 ; set final bed temp
M104 S170 ; set temporary nozzle temp to prevent oozing during homing
G4 S10 ; allow partial nozzle warmup
G28 ; home all axis
G1 Z50 F300
G1 X10 Y10 F3000
M190 S104.5 ; wait for bed temp to stabilize at 90%
M140 S110 ; set final bed temp
M104 S245 ; set final nozzle temp
M109 S245 ; wait for nozzle temp to stabilize
G1 Z0.28 F240
G92 E0
G1 Y180 E10 F1500 ; prime the nozzle
G1 X10.3 F5000
G92 E0
G1 Y10 E10 F1200 ; prime the nozzle
G92 E0
G21 ; set units to millimeters
G90 ; use absolute coordinates
M83 ; use relative distances for extrusion
; Filament gcode
M107
;LAYER_CHANGE
;Z:0.2
;HEIGHT:0.2
;BEFORE_LAYER_CHANGE
G92 E0
;0.2


G1 E-5 F3600
G1 Z.2 F9000
;AFTER_LAYER_CHANGE
;0.2
G1 X62.077 Y57.949
G1 E5 F2400
M204 P500
;TYPE:Skirt/Brim
;WIDTH:0.42
G1 F1200
G1 X73.077 Y46.949 E.48776
G1 X74.603 Y45.981 E.05665
G1 X75.998 Y45.739 E.0444
G1 X160.998 Y45.739 E2.66511
G1 X162.762 Y46.134 E.05665
G1 X163.92 Y46.949 E.0444
G1 X174.92 Y57.949 E.48776
G1 X175.887 Y59.475 E.05665
G1 X176.13 Y60.87 E.0444
G1 X176.13 Y109.87 E1.53636
G1 X175.734 Y111.633 E.05665
G1 X174.92 Y112.791 E.0444
G1 X163.92 Y123.791 E.48776
G1 X162.393 Y124.759 E.05665
G1 X160.998 Y125.001 E.0444
G1 X75.998 Y125.001 E2.66511
G1 X74.235 Y124.606 E.05665
G1 X73.077 Y123.791 E.0444
G1 X62.077 Y112.791 E.48776
G1 X61.11 Y111.265 E.05665
G1 X60.867 Y109.87 E.0444
G1 X60.867 Y60.87 E1.53636
G1 X61.262 Y59.107 E.05665
G1 X62.043 Y57.998 E.04252
G1 X62.344 Y58.215 F9000
G1 F1200
G1 X73.344 Y47.215 E.48776
G1 X74.808 Y46.31 E.05397
G1 X75.998 Y46.116 E.03783
G1 X160.998 Y46.116 E2.66511
G1 X162.674 Y46.511 E.05397
G1 X163.653 Y47.215 E.03783
G1 X174.653 Y58.215 E.48776
G1 X175.559 Y59.679 E.05397
G1 X175.753 Y60.87 E.03783
G1 X175.753 Y109.87 E1.53636
G1 X175.358 Y111.546 E.05397
G1 X174.653 Y112.525 E.03783
G1 X163.653 Y123.525 E.48776
G1 X162.189 Y124.43 E.05397
G1 X160.998 Y124.624 E.03782
G1 X75.998 Y124.624 E2.66511
G1 X74.323 Y124.23 E.05397
G1 X73.344 Y123.525 E.03783
G1 X62.344 Y112.525 E.48776
G1 X61.438 Y111.061 E.05397
G1 X61.244 Y109.87 E.03783
G1 X61.244 Y60.87 E1.53636
G1 X61.639 Y59.194 E.05397
G1 X62.309 Y58.264 E.03594
G1 X62.608 Y58.485 F9000
G1 F1200
G1 X73.61 Y47.482 E.48789
G1 X75.009 Y46.641 E.05115
G1 X75.998 Y46.493 E.03138
G1 X160.998 Y46.493 E2.66511
G1 X162.581 Y46.887 E.05115
G1 X163.386 Y47.482 E.03138
G1 X174.386 Y58.482 E.48776
G1 X175.227 Y59.88 E.05115
G1 X175.375 Y60.87 E.03138
G1 X175.375 Y109.87 E1.53636
G1 X174.981 Y111.453 E.05115
G1 X174.386 Y112.258 E.03138
G1 X163.386 Y123.258 E.48776
G1 X161.988 Y124.099 E.05115
G1 X160.998 Y124.247 E.03138
G1 X75.998 Y124.247 E2.66511
G1 X74.415 Y123.853 E.05115
G1 X73.61 Y123.258 E.03138
G1 X62.61 Y112.258 E.48776
G1 X61.77 Y110.86 E.05115
G1 X61.621 Y109.87 E.03138
G1 X61.621 Y60.87 E1.53636
G1 X62.015 Y59.287 E.05115
G1 X62.572 Y58.534 E.02937
G1 E-3.5 F3600
;WIPE_START
G1 F7200
G1 X64.692 Y56.411 E-1.425
;WIPE_END
G1 E-.075 F3600
G1 X114.932 Y88.085 F9000
G1 E5 F2400
;TYPE:Perimeter
G1 F1200
G1 X109.305 Y86.577 E.18266
G1 X109.467 Y85.972 E.01962
G1 X115.094 Y87.48 E.18266
G1 X114.947 Y88.027 E.01774
G1 E-3.5 F3600
;WIPE_START
G1 F7200
G1 X112.042 Y87.28 E-1.425
;WIPE_END
G1 E-.075 F3600
G1 X110.731 Y92.575 F9000
G1 E5 F2400
G1 F1200
G1 X110.719 Y92.576 E.00041
G1 E-3.5 F3600
;WIPE_START
G1 F7200
G1 X110.719 Y92.576 E0
;WIPE_END
G1 E-1.5 F3600
G1 X114.787 Y107.131 F9000
G1 E5 F2400
G1 F1200
G1 X111.301 Y107.511 E.10994
G1 X110.771 Y107.597 E.01683
G1 X109.92 Y107.801 E.02743
G1 X109.098 Y107.778 E.02579
G1 X108.097 Y107.853 E.03149
G1 X99.184 Y108.818 E.28107
G1 X99.184 Y106.814 E.06285
G1 X105.197 Y106.814 E.18852
G1 X105.213 Y106.799 E.00068
G1 X105.228 Y106.814 E.00068
G1 X109.334 Y106.814 E.12875
G1 X109.334 Y104.34 E.07758
G1 X105.228 Y104.34 E.12875
G1 X105.213 Y104.355 E.00068
G1 X105.197 Y104.34 E.00068
G1 X99.184 Y104.34 E.18853
G1 X99.184 Y102.336 E.06284
G1 X108.097 Y103.301 E.28107
G1 X109.098 Y103.376 E.03149
G1 X109.92 Y103.353 E.02579
G1 X110.771 Y103.557 E.02743
G1 X111.301 Y103.643 E.01683
G1 X117.69 Y104.34 E.20151
G1 X116.438 Y104.34 E.03925
G1 X116.438 Y106.814 E.07758
G1 X117.69 Y106.814 E.03925
G1 X114.846 Y107.124 E.08969
G1 E-3.5 F3600
;WIPE_START
G1 F7200
G1 X111.864 Y107.449 E-1.425
;WIPE_END
G1 E-.075 F3600
G1 X92.233 Y107.136 F9000
G1 E5 F2400
G1 F1200
G1 X78.258 Y108.91 E.44169
G1 X78.258 Y106.927 E.06217
G1 X85.706 Y106.927 E.23351
G1 X85.721 Y106.912 E.00068
G1 X85.736 Y106.927 E.00068
G1 X90.008 Y106.927 E.13394
G1 X90.008 Y104.453 E.07758
G1 X85.736 Y104.453 E.13394
G1 X85.721 Y104.469 E.00068
G1 X85.706 Y104.453 E.00068
G1 X78.258 Y104.453 E.23351
G1 X78.258 Y102.471 E.06216
G1 X92.054 Y104.227 E.43605
G1 X92.233 Y104.244 E.00564
G1 X92.233 Y104.227 E.00053
G1 X94.357 Y104.227 E.06659
G1 X94.357 Y104.453 E.00708
G1 X92.407 Y104.453 E.06114
G1 X92.407 Y106.929 E.07762
G1 X94.379 Y106.924 E.06182
G1 X94.377 Y107.153 E.0072
G1 X92.276 Y107.153 E.06588
G1 E-3.5 F3600
;WIPE_START
G1 F7200
G1 X89.299 Y107.526 E-1.425
;WIPE_END
G1 E-.075 F3600
G1 X92.197 Y99.548 F9000
G1 E5 F2400
G1 F1200
G1 X91.465 Y99.433 E.02325
G1 X91.001 Y99.403 E.01457
G1 X89.539 Y99.397 E.04583
G1 X89.145 Y99.624 E.01427
G1 X88.937 Y99.711 E.00706
G1 X88.765 Y99.758 E.00559
G1 X77.185 Y99.758 E.3631
G1 X76.751 Y99.772 E.01361
G1 X76.751 Y99.678 E.00295
G1 X77.184 Y99.692 E.01358
G1 X84.762 Y99.692 E.2376
G1 X85.172 Y99.281 E.0182
G1 X85.187 Y99.297 E.00068
G1 X89.259 Y99.297 E.12766
G1 X89.259 Y96.823 E.07758
G1 X85.188 Y96.823 E.12766
G1 X85.172 Y96.838 E.00068
G1 X84.762 Y96.428 E.0182
G1 X76.909 Y96.428 E.24621
G1 X76.909 Y96.362 E.00207
G1 X85.088 Y96.362 E.25645
G1 X86.111 Y96.328 E.03209
G1 X86.995 Y96.21 E.02797
G1 X87.659 Y96.325 E.02114
G1 X88.083 Y96.355 E.0133
G1 X88.762 Y96.361 E.02131
G1 X88.937 Y96.408 E.00568
G1 X89.145 Y96.495 E.00707
G1 X89.538 Y96.722 E.01423
G1 X98.7 Y96.722 E.28727
G1 X98.7 Y96.823 E.00316
G1 X94.9 Y96.823 E.11915
G1 X94.9 Y99.297 E.07758
G1 X98.7 Y99.297 E.11915
G1 X98.7 Y99.398 E.00318
G1 X93.569 Y99.403 E.16087
G1 X93.047 Y99.433 E.01642
G1 X92.257 Y99.54 E.02499
G1 E-3.5 F3600
;WIPE_START
G1 F7200
G1 X91.465 Y99.433 E-.37966
G1 X91.001 Y99.403 E-.22074
G1 X89.539 Y99.397 E-.69429
G1 X89.302 Y99.534 E-.13031
;WIPE_END
G1 E-.075 F3600
G1 X97.998 Y87.878 F9000
G1 E5 F2400
G1 F1200
G1 X98.145 Y88.278 E.01333
G1 X101.472 Y96.513 E.2785
G1 X101.667 Y96.858 E.01243
G1 X101.977 Y97.174 E.01386
G1 X102.358 Y97.398 E.01386
G1 X102.74 Y97.504 E.01243
G1 X106.98 Y98.1 E.13426
G1 X106.935 Y98.423 E.01022
G1 X106.164 Y98.314 E.0244
G1 X106.079 Y98.201 E.00443
G1 X103.483 Y97.836 E.0822
G1 X103.139 Y100.287 E.07758
G1 X105.735 Y100.651 E.0822
G1 X105.853 Y100.563 E.00462
G1 X106.734 Y100.655 E.0278
G1 X106.623 Y101.005 E.01151
G1 X103.051 Y100.502 E.11312
G1 X102.93 Y100.469 E.00394
G1 X102.804 Y100.371 E.00498
G1 X102.743 Y100.261 E.00394
G1 X97.786 Y88.011 E.41434
G1 X97.947 Y87.91 E.00597
G1 E-3.5 F3600
;WIPE_START
G1 F7200
G1 X98.145 Y88.278 E-.19805
G1 X99.112 Y90.673 E-1.22695
;WIPE_END
G1 E-.075 F3600
G1 X97.03 Y79.063 F9000
G1 E5 F2400
G1 F1200
G1 X96.199 Y79.063 E.02605
G1 X96.102 Y78.965 E.00432
G1 X96.102 Y78.535 E.01351
G1 X96.199 Y78.437 E.00432
G1 X97.03 Y78.437 E.02605
G1 X97.343 Y78.75 E.01388
G1 X97.073 Y79.02 E.01199
G1 E-3.5 F3600
;WIPE_START
G1 F7200
G1 X96.199 Y79.063 E-.41527
G1 X96.102 Y78.965 E-.06551
G1 X96.102 Y78.535 E-.20464
G1 X96.199 Y78.437 E-.06551
G1 X97.03 Y78.437 E-.39463
G1 X97.343 Y78.75 E-.21021
G1 X97.24 Y78.853 E-.06923
;WIPE_END
G1 E-.075 F3600
G1 X79.835 Y79.293 F9000
G1 E5 F2400
G1 F1200
G1 X80.407 Y78.988 E.02034
G1 X81.028 Y78.799 E.02034
G1 X81.706 Y78.732 E.02138
G1 X84.764 Y78.739 E.09587
G1 X86.071 Y78.914 E.04135
G1 X86.802 Y78.934 E.02293
G1 X87.664 Y79.203 E.02829
G1 X88.171 Y79.323 E.01634
G1 X93.388 Y80.269 E.16623
G1 X93.938 Y80.436 E.01803
G1 X94.4 Y80.705 E.01676
G1 X94.788 Y81.072 E.01676
G1 X95.081 Y81.519 E.01676
G1 X95.263 Y82.022 E.01676
G1 X95.331 Y82.603 E.01834
G1 X95.363 Y83.597 E.0312
G1 X95.477 Y84.457 E.0272
G1 X95.363 Y85.266 E.02559
G1 X95.33 Y86.245 E.03071
G1 X95.329 Y89.498 E.10201
G1 X95.263 Y90.069 E.01802
G1 X95.081 Y90.571 E.01676
G1 X94.788 Y91.018 E.01676
G1 X94.4 Y91.386 E.01676
G1 X93.938 Y91.654 E.01676
G1 X93.388 Y91.821 E.01802
G1 X88.171 Y92.767 E.16623
G1 X87.664 Y92.887 E.01634
G1 X86.802 Y93.156 E.02829
G1 X86.068 Y93.176 E.02302
G1 X84.976 Y93.333 E.03461
G1 X84.553 Y93.358 E.01328
G1 X81.707 Y93.358 E.08923
G1 X81.028 Y93.291 E.02141
G1 X80.407 Y93.103 E.02034
G1 X79.835 Y92.797 E.02034
G1 X79.307 Y92.364 E.02141
G1 X77.698 Y90.755 E.07135
G1 X77.265 Y90.227 E.02141
G1 X76.959 Y89.655 E.02034
G1 X76.77 Y89.034 E.02034
G1 X76.704 Y88.355 E.02141
G1 X76.704 Y83.736 E.14482
G1 X76.77 Y83.056 E.02141
G1 X76.959 Y82.435 E.02034
G1 X77.265 Y81.863 E.02034
G1 X77.698 Y81.336 E.02141
G1 X79.307 Y79.726 E.07135
G1 X79.788 Y79.331 E.01952
G1 E-3.5 F3600
;WIPE_START
G1 F7200
G1 X80.407 Y78.988 E-.33617
G1 X81.028 Y78.799 E-.30817
G1 X81.706 Y78.732 E-.32397
G1 X82.668 Y78.734 E-.45669
;WIPE_END
G1 E-.075 F3600
G1 X87.109 Y61.582 F9000
G1 E5 F2400
G1 F1200
G1 X87.267 Y61.663 E.00558
G1 X88.374 Y61.729 E.03477
G1 X90.29 Y61.732 E.06007
G1 X90.97 Y61.799 E.02142
G1 X91.59 Y61.988 E.02034
G1 X92.163 Y62.293 E.02034
G1 X92.69 Y62.727 E.02141
G1 X94.3 Y64.336 E.07135
G1 X94.733 Y64.863 E.02141
G1 X95.038 Y65.436 E.02034
G1 X95.227 Y66.056 E.02034
G1 X95.294 Y66.736 E.02141
G1 X95.294 Y71.355 E.14482
G1 X95.227 Y72.034 E.02141
G1 X95.038 Y72.655 E.02034
G1 X94.733 Y73.227 E.02034
G1 X94.299 Y73.755 E.02141
G1 X92.998 Y75.056 E.05771
G1 X92.69 Y75.364 E.01363
G1 X92.163 Y75.797 E.02141
G1 X91.59 Y76.103 E.02034
G1 X90.97 Y76.291 E.02034
G1 X90.29 Y76.358 E.02142
G1 X88.374 Y76.361 E.06008
G1 X87.266 Y76.427 E.0348
G1 X87.109 Y76.509 E.00553
G1 X86.247 Y76.234 E.02837
G1 X85.738 Y76.113 E.01641
G1 X78.61 Y74.821 E.22714
G1 X78.06 Y74.654 E.01802
G1 X77.598 Y74.386 E.01676
G1 X77.21 Y74.018 E.01676
G1 X76.917 Y73.571 E.01676
G1 X76.734 Y73.069 E.01676
G1 X76.668 Y72.497 E.01804
G1 X76.663 Y70.31 E.06858
G1 X76.632 Y69.826 E.01522
G1 X76.517 Y69.045 E.02474
G1 X76.632 Y68.265 E.02474
G1 X76.663 Y67.78 E.01522
G1 X76.668 Y65.593 E.06858
G1 X76.734 Y65.027 E.01787
G1 X76.945 Y64.475 E.01852
G1 X77.21 Y64.072 E.01511
G1 X77.598 Y63.705 E.01676
G1 X78.06 Y63.436 E.01676
G1 X78.61 Y63.269 E.01802
G1 X85.738 Y61.978 E.22714
G1 X86.247 Y61.857 E.01641
G1 X87.052 Y61.6 E.02647
G1 E-3.5 F3600
;WIPE_START
G1 F7200
G1 X87.267 Y61.663 E-.10656
G1 X88.374 Y61.729 E-.5267
G1 X90.041 Y61.732 E-.79174
;WIPE_END
G1 E-.075 F3600
G1 X131.465 Y83.667 F9000
G1 E5 F2400
G1 F1200
G1 X146.278 Y100.125 E.69426
G1 X145.561 Y101.559 E.05026
G1 X142.133 Y101.259 E.1079
G1 X141.606 Y101.185 E.01669
G1 X140.781 Y101.002 E.02647
G1 X139.932 Y101.042 E.02666
G1 X139.397 Y101.025 E.01679
G1 X132.437 Y100.43 E.21901
G1 X131.907 Y100.355 E.01677
G1 X131.069 Y100.17 E.02692
G1 X130.283 Y100.216 E.02469
G1 X129.795 Y100.204 E.01529
G1 X126.293 Y99.911 E.1102
G1 X130.671 Y83.855 E.52181
G1 X131.407 Y83.68 E.02369
G1 E-3.5 F3600
;WIPE_START
G1 F7200
G1 X133.419 Y85.905 E-1.425
;WIPE_END
G1 E-.075 F3600
G1 X130.374 Y69.33 F9000
G1 E5 F2400
G1 F1200
G1 X131.173 Y69.218 E.0253
G1 X131.68 Y69.188 E.01591
G1 X133.052 Y69.183 E.04303
G1 X133.178 Y69.167 E.00397
G1 X133.252 Y69.136 E.00251
G1 X133.364 Y69.024 E.00498
G1 X133.395 Y68.95 E.00251
G1 X133.411 Y68.825 E.00394
G1 X133.411 Y60.825 E.25083
G1 X133.463 Y60.432 E.01243
G1 X133.632 Y60.024 E.01386
G1 X133.901 Y59.673 E.01386
G1 X134.252 Y59.404 E.01386
G1 X134.66 Y59.235 E.01386
G1 X135.053 Y59.183 E.01243
G1 X145.67 Y59.183 E.33289
G1 X146.67 Y59.217 E.03137
G1 X147.499 Y59.33 E.02622
G1 X148.33 Y59.218 E.02629
G1 X148.853 Y59.188 E.01642
G1 X161.043 Y59.183 E.38223
G1 X161.437 Y59.235 E.01243
G1 X161.845 Y59.404 E.01386
G1 X162.195 Y59.673 E.01386
G1 X162.465 Y60.024 E.01386
G1 X162.634 Y60.432 E.01386
G1 X162.685 Y60.825 E.01243
G1 X162.685 Y72.53 E.36701
G1 X162.651 Y73.54 E.0317
G1 X162.539 Y74.372 E.02631
G1 X162.651 Y75.228 E.02708
G1 X162.685 Y76.266 E.03255
G1 X162.685 Y89.343 E.41002
G1 X160.485 Y89.731 E.07006
G1 X160.524 Y89.953 E.00708
G1 X162.686 Y89.572 E.06884
G1 X162.68 Y94.675 E.16
G1 X162.65 Y95.189 E.01614
G1 X162.538 Y95.998 E.0256
G1 X162.651 Y96.857 E.02716
G1 X162.685 Y97.892 E.03249
G1 X162.685 Y109.915 E.37696
G1 X162.634 Y110.308 E.01243
G1 X162.465 Y110.717 E.01386
G1 X162.195 Y111.067 E.01386
G1 X161.845 Y111.336 E.01386
G1 X161.437 Y111.505 E.01386
G1 X161.043 Y111.557 E.01244
G1 X157.031 Y111.552 E.12578
G1 X156.499 Y111.522 E.01671
G1 X155.657 Y111.41 E.02664
G1 X154.833 Y111.522 E.02606
G1 X154.311 Y111.552 E.01641
G1 X145.578 Y111.552 E.27382
G1 X145.057 Y111.522 E.01637
G1 X144.231 Y111.41 E.02611
G1 X143.397 Y111.522 E.0264
G1 X142.871 Y111.552 E.01652
G1 X141.877 Y111.557 E.03115
G1 X124.771 Y111.557 E.53637
G1 X123.755 Y111.523 E.03188
G1 X122.914 Y111.41 E.0266
G1 X122.08 Y111.523 E.02639
G1 X121.071 Y111.557 E.03165
G1 X111.35 Y111.552 E.30481
G1 X110.827 Y111.522 E.01641
G1 X110.003 Y111.411 E.02607
G1 X109.147 Y111.523 E.02708
G1 X108.11 Y111.557 E.03254
G1 X93.6 Y111.552 E.45493
G1 X93.064 Y111.522 E.01684
G1 X92.218 Y111.411 E.02677
G1 X91.373 Y111.523 E.02671
G1 X90.346 Y111.557 E.03224
G1 X75.953 Y111.557 E.45127
G1 X75.56 Y111.505 E.01243
G1 X75.152 Y111.336 E.01386
G1 X74.801 Y111.067 E.01386
G1 X74.532 Y110.717 E.01386
G1 X74.363 Y110.308 E.01386
G1 X74.311 Y109.914 E.01246
G1 X74.317 Y108.098 E.05696
G1 X74.347 Y107.617 E.01511
G1 X74.46 Y106.856 E.0241
G1 X74.346 Y106.01 E.02677
G1 X74.317 Y105.486 E.01648
G1 X74.317 Y101.078 E.13819
G1 X74.346 Y100.555 E.01644
G1 X74.458 Y99.729 E.02613
G1 X74.346 Y98.881 E.0268
G1 X74.317 Y98.345 E.01683
G1 X74.312 Y70.93 E.8596
G1 X74.345 Y69.895 E.03245
G1 X74.458 Y69.041 E.02701
G1 X74.346 Y68.215 E.02614
G1 X74.317 Y67.69 E.01649
G1 X74.311 Y60.825 E.21524
G1 X74.363 Y60.432 E.01244
G1 X74.532 Y60.024 E.01386
G1 X74.801 Y59.673 E.01386
G1 X75.152 Y59.404 E.01386
G1 X75.56 Y59.235 E.01386
G1 X75.953 Y59.183 E.01243
G1 X85.125 Y59.183 E.28757
G1 X86.124 Y59.217 E.03136
G1 X86.953 Y59.33 E.02621
G1 X87.784 Y59.218 E.02632
G1 X88.308 Y59.188 E.01644
G1 X96.143 Y59.183 E.24568
G1 X96.537 Y59.235 E.01243
G1 X96.945 Y59.404 E.01386
G1 X97.295 Y59.673 E.01386
G1 X97.565 Y60.024 E.01386
G1 X97.734 Y60.432 E.01386
G1 X97.785 Y60.825 E.01243
G1 X97.785 Y68.825 E.25083
G1 X97.802 Y68.95 E.00394
G1 X97.881 Y69.087 E.00498
G1 X98.019 Y69.167 E.00498
G1 X98.143 Y69.183 E.00394
G1 X99.002 Y69.183 E.02692
G1 X99.002 Y71.563 E.07462
G1 X99.228 Y71.563 E.00708
G1 X99.228 Y69.183 E.07462
G1 X110.838 Y69.183 E.36403
G1 X111.869 Y69.217 E.03234
G1 X112.717 Y69.329 E.02682
G1 X113.557 Y69.218 E.02658
G1 X114.09 Y69.188 E.01672
G1 X128.488 Y69.183 E.45143
G1 X129.518 Y69.217 E.0323
G1 X130.315 Y69.323 E.02522
G1 E-3.5 F3600
;WIPE_START
G1 F7200
G1 X131.173 Y69.218 E-.41078
G1 X131.68 Y69.188 E-.24102
G1 X133.052 Y69.183 E-.65184
G1 X133.178 Y69.167 E-.06018
G1 X133.252 Y69.136 E-.03807
G1 X133.286 Y69.102 E-.0231
;WIPE_END
G1 E-.075 F3600
G1 X117.623 Y77.257 F9000
G1 E5 F2400
;TYPE:External perimeter
G1 F1200
G1 X116.841 Y80.174 E.09469
G1 X115.615 Y79.846 E.03982
G1 X116.396 Y76.928 E.09469
G1 X117.565 Y77.242 E.03794
G1 X118.02 Y77.206 F9000
G1 E-3.5 F3600
;WIPE_START
G1 F7200
G1 X116.846 Y80.154 E-1.425
;WIPE_END
G1 E-.075 F3600
G1 X113.614 Y76.183 F9000
G1 E5 F2400
G1 F1200
G1 X112.833 Y79.1 E.09469
G1 X111.606 Y78.771 E.03982
G1 X112.388 Y75.854 E.09469
G1 X113.556 Y76.168 E.03794
G1 X114.011 Y76.132 F9000
G1 X112.917 Y75.255
G1 F1200
G1 X111.979 Y75.121 E.0297
