; generated by PrusaSlicer 2.4.2+win64 on 2022-08-06 at 00:24:34 UTC

; 

; external perimeters extrusion width = 0.45mm
; perimeters extrusion width = 0.45mm
; infill extrusion width = 0.45mm
; solid infill extrusion width = 0.45mm
; top infill extrusion width = 0.40mm
; first layer extrusion width = 0.42mm

M107
;TYPE:Custom
G90 ; use absolute coordinates
M83 ; extruder relative mode
M140 S110 ; set final bed temp
M104 S170 ; set temporary nozzle temp to prevent oozing during homing
G4 S10 ; allow partial nozzle warmup
G28 ; home all axis
G1 Z50 F300
G1 X10 Y10 F3000
M190 S104.5 ; wait for bed temp to stabilize at 90%
M140 S110 ; set final bed temp
M104 S245 ; set final nozzle temp
M109 S245 ; wait for nozzle temp to stabilize
G1 Z0.28 F240
G92 E0
G1 Y180 E10 F1500 ; prime the nozzle
G1 X10.3 F5000
G92 E0
G1 Y10 E10 F1200 ; prime the nozzle
G92 E0
G21 ; set units to millimeters
G90 ; use absolute coordinates
M83 ; use relative distances for extrusion
; Filament gcode
M107
;LAYER_CHANGE
;Z:0.2
;HEIGHT:0.2
;BEFORE_LAYER_CHANGE
G92 E0
;0.2


G1 E-5 F3600
G1 Z.2 F9000
;AFTER_LAYER_CHANGE
;0.2
G1 X74.64 Y67.936
G1 E5 F2400
M204 P500
;TYPE:Skirt/Brim
;WIDTH:0.42
G1 F1200
G1 X75.358 Y67.224 E.0317
G1 X76.55 Y66.253 E.04821
G1 X77.848 Y65.428 E.04821
G1 X79.233 Y64.76 E.04821
G1 X80.454 Y64.326 E.04063
G1 X81.197 Y64.127 E.02412
G1 X82.233 Y63.995 E.03273
G1 X148.233 Y63.995 E2.06938
G1 X149.268 Y64.127 E.03273
G1 X151.222 Y64.756 E.06437
G1 X152.818 Y65.542 E.05578
G1 X154.517 Y66.714 E.0647
G1 X155.651 Y67.753 E.04821
G1 X156.801 Y69.11 E.05579
G1 X157.64 Y70.399 E.04821
G1 X158.322 Y71.777 E.04821
G1 X158.975 Y73.735 E.0647
G1 X159.181 Y74.724 E.0317
G1 X159.347 Y76.253 E.04821
G1 X159.364 Y86.126 E.30956
G1 X158.969 Y87.889 E.05665
G1 X157.859 Y89.315 E.05665
G1 X156.247 Y90.131 E.05665
G1 X155.233 Y90.257 E.03204
G1 X75.233 Y90.257 E2.50834
G1 X73.469 Y89.862 E.05665
G1 X72.044 Y88.752 E.05665
G1 X71.228 Y87.14 E.05665
G1 X71.101 Y86.126 E.03204
G1 X71.133 Y76.012 E.31713
G1 X71.488 Y73.745 E.07194
G1 X72.14 Y71.787 E.0647
G1 X72.82 Y70.408 E.04821
G1 X73.658 Y69.119 E.04821
G1 X74.602 Y67.982 E.04633
G1 X74.891 Y68.223 F9000
G1 F1200
G1 X76.003 Y67.159 E.04825
G1 X77.198 Y66.263 E.04683
G1 X78.49 Y65.514 E.04683
G1 X79.369 Y65.112 E.03032
G1 X80.781 Y64.624 E.04683
G1 X82.233 Y64.372 E.04619
G1 X148.233 Y64.372 E2.06938
G1 X149.174 Y64.492 E.02975
G1 X151.086 Y65.108 E.06299
G1 X152.623 Y65.865 E.05371
G1 X154.285 Y67.012 E.06332
G1 X155.386 Y68.021 E.04683
G1 X156.493 Y69.328 E.05371
G1 X157.56 Y71.042 E.06332
G1 X158.167 Y72.407 E.04683
G1 X158.662 Y74.047 E.05371
G1 X158.885 Y75.301 E.03994
G1 X158.985 Y76.791 E.04683
G1 X158.987 Y86.126 E.29269
G1 X158.592 Y87.802 E.05397
G1 X157.491 Y89.125 E.05397
G1 X155.233 Y89.88 E.07467
G1 X75.233 Y89.88 E2.50834
G1 X73.557 Y89.486 E.05397
G1 X72.234 Y88.385 E.05397
G1 X71.478 Y86.126 E.07467
G1 X71.508 Y76.045 E.31609
G1 X71.852 Y73.843 E.06987
G1 X72.49 Y71.927 E.06332
G1 X73.152 Y70.588 E.04683
G1 X73.966 Y69.336 E.04683
G1 X74.853 Y68.269 E.04351
G1 X75.142 Y68.51 F9000
G1 F1200
G1 X76.252 Y67.442 E.0483
G1 X77.413 Y66.574 E.04544
G1 X78.667 Y65.847 E.04544
G1 X79.506 Y65.463 E.02893
G1 X80.876 Y64.989 E.04544
G1 X82.233 Y64.749 E.04321
G1 X148.233 Y64.749 E2.06938
G1 X149.079 Y64.857 E.02676
G1 X150.95 Y65.459 E.06162
G1 X152.427 Y66.187 E.05163
G1 X154.053 Y67.309 E.06193
G1 X155.121 Y68.289 E.04544
G1 X156.185 Y69.545 E.05163
G1 X156.977 Y70.759 E.04544
G1 X157.621 Y72.057 E.04545
G1 X158.247 Y73.931 E.06193
G1 X158.512 Y75.356 E.04544
G1 X158.593 Y76.275 E.02893
G1 X158.61 Y86.126 E.30887
G1 X158.216 Y87.709 E.05115
G1 X157.125 Y88.923 E.05115
G1 X155.233 Y89.503 E.06207
G1 X75.233 Y89.503 E2.50834
G1 X73.649 Y89.109 E.05115
G1 X72.436 Y88.019 E.05115
G1 X71.856 Y86.126 E.06207
G1 X71.884 Y76.078 E.31506
G1 X72.216 Y73.941 E.06781
G1 X72.84 Y72.067 E.06193
G1 X73.483 Y70.768 E.04544
G1 X74.274 Y69.553 E.04544
G1 X75.104 Y68.556 E.04069
G1 E-3.5 F3600
;WIPE_START
G1 F7200
G1 X76.252 Y67.442 E-.76005
G1 X77.373 Y66.603 E-.66495
;WIPE_END
G1 E-.075 F3600
G1 X81.546 Y69.037 F9000
G1 E5 F2400
;TYPE:Perimeter
G1 F1200
G1 X81.546 Y77.148 E.2543
G1 X81.565 Y77.463 E.00991
G1 X81.629 Y77.795 E.01059
G1 X81.733 Y78.116 E.01059
G1 X81.877 Y78.421 E.01059
G1 X82.058 Y78.706 E.01059
G1 X82.273 Y78.966 E.01059
G1 X82.519 Y79.198 E.01059
G1 X82.792 Y79.396 E.01059
G1 X83.088 Y79.559 E.01059
G1 X83.402 Y79.683 E.01059
G1 X83.729 Y79.767 E.01059
G1 X84.064 Y79.809 E.01059
G1 X84.401 Y79.809 E.01059
G1 X84.736 Y79.767 E.01059
G1 X85.063 Y79.683 E.01059
G1 X85.379 Y79.558 E.01065
G1 X85.687 Y79.386 E.01104
G1 X85.946 Y79.198 E.01006
G1 X86.192 Y78.966 E.01059
G1 X86.408 Y78.706 E.01059
G1 X86.588 Y78.421 E.01059
G1 X86.732 Y78.116 E.01059
G1 X86.837 Y77.795 E.01059
G1 X86.9 Y77.463 E.01059
G1 X86.92 Y77.148 E.00991
G1 X86.92 Y68.813 E.26132
G1 X102.212 Y68.813 E.47949
G1 X102.212 Y77.148 E.26132
G1 X102.232 Y77.463 E.00991
G1 X102.295 Y77.795 E.01059
G1 X102.4 Y78.116 E.01059
G1 X102.543 Y78.421 E.01059
G1 X102.724 Y78.706 E.01059
G1 X102.939 Y78.966 E.01059
G1 X103.186 Y79.198 E.01059
G1 X103.459 Y79.396 E.01059
G1 X103.755 Y79.559 E.01059
G1 X104.068 Y79.683 E.01059
G1 X104.395 Y79.767 E.01059
G1 X104.73 Y79.809 E.01059
G1 X105.068 Y79.809 E.01059
G1 X105.403 Y79.767 E.01059
G1 X105.73 Y79.683 E.01059
G1 X106.046 Y79.558 E.01065
G1 X106.353 Y79.386 E.01104
G1 X106.613 Y79.198 E.01006
G1 X106.859 Y78.966 E.01059
G1 X107.074 Y78.706 E.01059
G1 X107.255 Y78.421 E.01059
G1 X107.399 Y78.116 E.01059
G1 X107.503 Y77.795 E.01059
G1 X107.566 Y77.463 E.01059
G1 X107.586 Y77.148 E.00991
G1 X107.586 Y68.813 E.26132
G1 X122.879 Y68.813 E.47949
G1 X122.879 Y77.148 E.26132
G1 X122.899 Y77.465 E.00997
G1 X122.967 Y77.81 E.01104
G1 X123.066 Y78.116 E.01007
G1 X123.21 Y78.421 E.01059
G1 X123.391 Y78.706 E.01059
G1 X123.606 Y78.966 E.01059
G1 X123.852 Y79.198 E.01059
G1 X124.125 Y79.396 E.01059
G1 X124.421 Y79.559 E.01059
G1 X124.735 Y79.683 E.01059
G1 X125.062 Y79.767 E.01059
G1 X125.397 Y79.809 E.01059
G1 X125.735 Y79.809 E.01059
G1 X126.07 Y79.767 E.01059
G1 X126.397 Y79.683 E.01059
G1 X126.712 Y79.558 E.01065
G1 X127.02 Y79.386 E.01104
G1 X127.28 Y79.198 E.01006
G1 X127.526 Y78.966 E.01059
G1 X127.741 Y78.706 E.01059
G1 X127.922 Y78.421 E.01059
G1 X128.066 Y78.116 E.01059
G1 X128.17 Y77.795 E.01059
G1 X128.233 Y77.463 E.01059
G1 X128.253 Y77.148 E.00991
G1 X128.253 Y68.813 E.26132
G1 X143.546 Y68.813 E.47949
G1 X143.546 Y77.148 E.26132
G1 X143.565 Y77.463 E.00991
G1 X143.629 Y77.795 E.01059
G1 X143.733 Y78.116 E.01059
G1 X143.877 Y78.421 E.01059
G1 X144.058 Y78.706 E.01059
G1 X144.273 Y78.966 E.01059
G1 X144.519 Y79.198 E.01059
G1 X144.792 Y79.396 E.01059
G1 X145.088 Y79.559 E.01059
G1 X145.402 Y79.683 E.01059
G1 X145.729 Y79.767 E.01059
G1 X146.064 Y79.809 E.01059
G1 X146.401 Y79.809 E.01058
G1 X146.738 Y79.767 E.01065
G1 X147.079 Y79.677 E.01104
G1 X147.377 Y79.559 E.01007
G1 X147.673 Y79.396 E.01059
G1 X147.946 Y79.198 E.01059
G1 X148.192 Y78.966 E.01059
G1 X148.408 Y78.706 E.01059
G1 X148.588 Y78.421 E.01059
G1 X148.732 Y78.116 E.01059
G1 X148.837 Y77.795 E.01059
G1 X148.9 Y77.463 E.01059
G1 X148.92 Y77.148 E.00991
G1 X148.92 Y69.037 E.2543
G1 X149.469 Y69.244 E.01839
G1 X149.911 Y69.447 E.01527
G1 X150.342 Y69.675 E.01527
G1 X150.757 Y69.928 E.01525
G1 X151.158 Y70.204 E.01526
G1 X151.541 Y70.504 E.01527
G1 X151.903 Y70.823 E.01513
G1 X152.252 Y71.169 E.0154
G1 X152.578 Y71.531 E.01526
G1 X152.879 Y71.908 E.01513
G1 X153.16 Y72.306 E.01527
G1 X153.417 Y72.719 E.01526
G1 X153.649 Y73.147 E.01526
G1 X153.856 Y73.587 E.01527
G1 X154.037 Y74.039 E.01526
G1 X154.191 Y74.501 E.01524
G1 X154.319 Y74.975 E.01542
G1 X154.417 Y75.448 E.01512
G1 X154.488 Y75.929 E.01527
G1 X154.531 Y76.414 E.01527
G1 X154.546 Y76.911 E.01558
G1 X154.546 Y85.439 E.26739
G1 X75.92 Y85.439 E2.46526
G1 X75.92 Y76.911 E.26739
G1 X75.934 Y76.414 E.01558
G1 X75.977 Y75.929 E.01527
G1 X76.048 Y75.448 E.01527
G1 X76.147 Y74.971 E.01527
G1 X76.274 Y74.501 E.01527
G1 X76.427 Y74.043 E.01511
G1 X76.609 Y73.587 E.0154
G1 X76.816 Y73.147 E.01526
G1 X77.049 Y72.719 E.01526
G1 X77.306 Y72.306 E.01526
G1 X77.587 Y71.908 E.01527
G1 X77.888 Y71.531 E.01513
G1 X78.213 Y71.169 E.01527
G1 X78.559 Y70.826 E.01526
G1 X78.924 Y70.504 E.01527
G1 X79.308 Y70.204 E.01526
G1 X79.708 Y69.928 E.01526
G1 X80.124 Y69.675 E.01525
G1 X80.554 Y69.447 E.01527
G1 X80.996 Y69.244 E.01526
G1 X81.488 Y69.056 E.01652
G1 X81.809 Y68.556 F9000
;TYPE:External perimeter
G1 F1200
G1 X81.923 Y68.527 E.00369
G1 X81.923 Y77.136 E.26994
G1 X81.94 Y77.416 E.00879
G1 X81.995 Y77.701 E.0091
G1 X82.084 Y77.977 E.0091
G1 X82.208 Y78.239 E.0091
G1 X82.363 Y78.484 E.0091
G1 X82.548 Y78.708 E.0091
G1 X82.76 Y78.906 E.0091
G1 X82.995 Y79.077 E.0091
G1 X83.249 Y79.217 E.0091
G1 X83.519 Y79.324 E.0091
G1 X83.8 Y79.396 E.0091
G1 X84.088 Y79.432 E.0091
G1 X84.378 Y79.432 E.0091
G1 X84.666 Y79.396 E.0091
G1 X84.947 Y79.324 E.0091
G1 X85.217 Y79.217 E.00912
G1 X85.483 Y79.068 E.00955
G1 X85.705 Y78.906 E.00862
G1 X85.917 Y78.708 E.0091
G1 X86.102 Y78.484 E.0091
G1 X86.257 Y78.239 E.0091
G1 X86.381 Y77.977 E.0091
G1 X86.471 Y77.701 E.0091
G1 X86.525 Y77.416 E.0091
G1 X86.543 Y77.136 E.00879
G1 X86.543 Y68.436 E.27277
G1 X102.589 Y68.436 E.50313
G1 X102.589 Y77.136 E.27277
G1 X102.607 Y77.416 E.00879
G1 X102.661 Y77.701 E.0091
G1 X102.751 Y77.977 E.0091
G1 X102.874 Y78.239 E.0091
G1 X103.03 Y78.484 E.0091
G1 X103.215 Y78.708 E.0091
G1 X103.426 Y78.906 E.0091
G1 X103.661 Y79.077 E.0091
G1 X103.915 Y79.217 E.0091
G1 X104.185 Y79.324 E.0091
G1 X104.466 Y79.396 E.0091
G1 X104.754 Y79.432 E.0091
G1 X105.044 Y79.432 E.0091
G1 X105.332 Y79.396 E.0091
G1 X105.613 Y79.324 E.0091
G1 X105.884 Y79.217 E.00912
G1 X106.15 Y79.068 E.00955
G1 X106.372 Y78.906 E.00862
G1 X106.584 Y78.708 E.0091
G1 X106.769 Y78.484 E.0091
G1 X106.924 Y78.239 E.0091
G1 X107.048 Y77.977 E.0091
G1 X107.137 Y77.701 E.0091
G1 X107.192 Y77.416 E.0091
G1 X107.209 Y77.136 E.00879
G1 X107.209 Y68.436 E.27277
G1 X123.256 Y68.436 E.50313
G1 X123.256 Y77.136 E.27277
G1 X123.274 Y77.416 E.00881
G1 X123.333 Y77.715 E.00955
G1 X123.418 Y77.977 E.00862
G1 X123.541 Y78.239 E.0091
G1 X123.697 Y78.484 E.0091
G1 X123.882 Y78.708 E.0091
G1 X124.093 Y78.906 E.0091
G1 X124.328 Y79.077 E.0091
G1 X124.582 Y79.217 E.0091
G1 X124.852 Y79.324 E.0091
G1 X125.133 Y79.396 E.0091
G1 X125.421 Y79.432 E.0091
G1 X125.711 Y79.432 E.0091
G1 X125.999 Y79.396 E.0091
G1 X126.28 Y79.324 E.0091
G1 X126.55 Y79.217 E.00912
G1 X126.816 Y79.068 E.00955
G1 X127.039 Y78.906 E.00862
G1 X127.25 Y78.708 E.0091
G1 X127.435 Y78.484 E.0091
G1 X127.591 Y78.239 E.0091
G1 X127.714 Y77.977 E.0091
G1 X127.804 Y77.701 E.0091
G1 X127.858 Y77.416 E.0091
G1 X127.876 Y77.136 E.00879
G1 X127.876 Y68.436 E.27277
G1 X143.923 Y68.436 E.50313
G1 X143.923 Y77.136 E.27277
G1 X143.94 Y77.416 E.00879
G1 X143.995 Y77.701 E.0091
G1 X144.084 Y77.977 E.0091
G1 X144.208 Y78.239 E.0091
G1 X144.363 Y78.484 E.0091
G1 X144.548 Y78.708 E.0091
G1 X144.76 Y78.906 E.0091
G1 X144.995 Y79.077 E.0091
G1 X145.249 Y79.217 E.0091
G1 X145.519 Y79.324 E.0091
G1 X145.8 Y79.396 E.0091
G1 X146.088 Y79.432 E.0091
G1 X146.378 Y79.432 E.0091
G1 X146.666 Y79.396 E.00912
G1 X146.961 Y79.318 E.00955
G1 X147.216 Y79.217 E.00862
G1 X147.471 Y79.077 E.0091
G1 X147.705 Y78.906 E.0091
G1 X147.917 Y78.708 E.0091
G1 X148.102 Y78.484 E.0091
G1 X148.257 Y78.239 E.0091
G1 X148.381 Y77.977 E.0091
G1 X148.471 Y77.701 E.0091
G1 X148.525 Y77.416 E.0091
G1 X148.543 Y77.136 E.00879
G1 X148.543 Y68.527 E.26994
G1 X149.141 Y68.712 E.01964
G1 X149.615 Y68.897 E.01596
G1 X150.078 Y69.109 E.01596
G1 X150.528 Y69.347 E.01596
G1 X150.962 Y69.611 E.01594
G1 X151.381 Y69.901 E.01596
G1 X151.782 Y70.214 E.01596
G1 X152.161 Y70.547 E.01582
G1 X152.526 Y70.908 E.01609
G1 X152.866 Y71.287 E.01596
G1 X153.18 Y71.681 E.01582
G1 X153.474 Y72.097 E.01596
G1 X153.743 Y72.529 E.01596
G1 X153.986 Y72.976 E.01596
G1 X154.202 Y73.437 E.01596
G1 X154.391 Y73.91 E.01596
G1 X154.552 Y74.392 E.01594
G1 X154.686 Y74.888 E.01611
G1 X154.789 Y75.382 E.01581
G1 X154.863 Y75.885 E.01596
G1 X154.908 Y76.392 E.01596
G1 X154.923 Y76.906 E.0161
G1 X154.923 Y85.816 E.27938
G1 X75.543 Y85.816 E2.4889
G1 X75.543 Y76.906 E.27938
G1 X75.558 Y76.392 E.0161
G1 X75.602 Y75.885 E.01596
G1 X75.677 Y75.382 E.01596
G1 X75.78 Y74.883 E.01596
G1 X75.913 Y74.392 E.01596
G1 X76.072 Y73.914 E.0158
G1 X76.263 Y73.437 E.01609
G1 X76.479 Y72.976 E.01596
G1 X76.722 Y72.529 E.01596
G1 X76.991 Y72.097 E.01596
G1 X77.285 Y71.681 E.01596
G1 X77.6 Y71.287 E.01582
G1 X77.94 Y70.908 E.01596
G1 X78.301 Y70.55 E.01596
G1 X78.683 Y70.214 E.01596
G1 X79.084 Y69.901 E.01596
G1 X79.503 Y69.611 E.01596
G1 X79.937 Y69.347 E.01594
G1 X80.387 Y69.109 E.01596
G1 X80.85 Y68.897 E.01596
G1 X81.329 Y68.711 E.0161
G1 X81.752 Y68.575 E.01394
G1 X81.894 Y68.638 F9000
G1 E-3.5 F3600
;WIPE_START
G1 F7200
G1 X81.923 Y68.527 E-.08435
G1 X81.923 Y71.349 E-1.34065
;WIPE_END
G1 E-.075 F3600
G1 X143.432 Y69.694 F9000
G1 E5 F2400
;TYPE:Solid infill
;WIDTH:0.420662
G1 F1200
G1 X142.835 Y69.096 E.02655
G1 X142.3 Y69.096 E.01678
G1 X143.263 Y70.058 E.04275
G1 X143.263 Y70.593 E.01678
G1 X141.766 Y69.096 E.06647
G1 X141.232 Y69.096 E.01678
G1 X143.263 Y71.127 E.0902
G1 X143.263 Y71.661 E.01678
G1 X140.698 Y69.096 E.11393
G1 X140.164 Y69.096 E.01678
G1 X143.263 Y72.195 E.13766
G1 X143.263 Y72.729 E.01678
G1 X139.629 Y69.096 E.16139
G1 X139.095 Y69.096 E.01678
G1 X143.263 Y73.264 E.18512
G1 X143.263 Y73.798 E.01678
G1 X138.561 Y69.096 E.20885
G1 X138.027 Y69.096 E.01678
G1 X143.263 Y74.332 E.23258
G1 X143.263 Y74.866 E.01678
G1 X137.493 Y69.096 E.25631
G1 X136.958 Y69.096 E.01678
G1 X143.263 Y75.4 E.28004
G1 X143.263 Y75.935 E.01678
G1 X136.424 Y69.096 E.30377
G1 X135.89 Y69.096 E.01678
G1 X143.263 Y76.469 E.3275
G1 X143.263 Y77.003 E.01678
G1 X135.356 Y69.096 E.35123
G1 X134.821 Y69.096 E.01678
G1 X143.512 Y77.786 E.38602
G1 E-3.5 F3600
;WIPE_START
G1 F7200
G1 X141.391 Y75.665 E-1.425
;WIPE_END
G1 E-.075 F3600
G1 X150.729 Y70.046 F9000
G1 E5 F2400
G1 F1200
G1 X152.052 Y71.369 E.05876
G1 X152.362 Y71.714 E.01456
G1 X152.652 Y72.078 E.01464
G1 X152.924 Y72.462 E.01478
G1 X153.172 Y72.861 E.01477
G1 X153.365 Y73.215 E.01266
G1 X149.921 Y69.772 E.15295
G1 X149.202 Y69.446 E.02479
G1 X149.202 Y69.588 E.00444
G1 X153.781 Y74.167 E.20339
G1 X154.015 Y74.934 E.02521
G1 X149.202 Y70.122 E.21377
G1 X149.202 Y70.656 E.01678
G1 X154.155 Y75.609 E.21999
G1 X154.23 Y76.217 E.01927
G1 X149.202 Y71.19 E.22331
G1 X149.202 Y71.724 E.01678
G1 X154.259 Y76.781 E.2246
G1 X154.263 Y77.319 E.0169
G1 X149.202 Y72.259 E.22477
G1 X149.202 Y72.793 E.01678
G1 X154.263 Y77.853 E.22477
G1 X154.263 Y78.387 E.01678
G1 X149.202 Y73.327 E.22477
G1 X149.202 Y73.861 E.01678
G1 X154.263 Y78.921 E.22477
G1 X154.263 Y79.456 E.01678
G1 X149.202 Y74.395 E.22477
G1 X149.202 Y74.93 E.01678
G1 X154.263 Y79.99 E.22477
G1 X154.263 Y80.524 E.01678
G1 X149.202 Y75.464 E.22477
G1 X149.202 Y75.998 E.01678
G1 X154.263 Y81.058 E.22477
G1 X154.263 Y81.593 E.01678
G1 X149.202 Y76.532 E.22477
G1 X149.202 Y77.066 E.01678
G1 X154.263 Y82.127 E.22477
G1 X154.263 Y82.661 E.01678
G1 X149.168 Y77.566 E.2263
G1 X149.067 Y78 E.01398
G1 X154.263 Y83.195 E.23078
G1 X154.263 Y83.729 E.01678
G1 X148.918 Y78.385 E.2374
G1 X148.728 Y78.729 E.01235
G1 X154.263 Y84.264 E.24584
G1 X154.263 Y84.798 E.01678
G1 X148.501 Y79.037 E.25591
G1 X148.24 Y79.309 E.01187
G1 X154.087 Y85.156 E.25971
G1 X153.553 Y85.156 E.01678
G1 X147.945 Y79.548 E.24911
G1 X147.614 Y79.751 E.0122
G1 X153.019 Y85.156 E.24008
G1 X152.484 Y85.156 E.01678
G1 X147.244 Y79.916 E.23278
G1 X146.829 Y80.035 E.01356
G1 X151.95 Y85.156 E.22747
G1 X151.416 Y85.156 E.01678
G1 X146.352 Y80.092 E.22495
G1 X146.046 Y80.092 E.0096
G1 X145.785 Y80.059 E.00828
G1 X150.882 Y85.156 E.22642
G1 X150.348 Y85.156 E.01678
G1 X145.032 Y79.841 E.23611
G1 X144.64 Y79.635 E.01389
G1 X144.338 Y79.416 E.01172
G1 X144.066 Y79.16 E.01172
G1 X143.828 Y78.873 E.01172
G1 X143.628 Y78.558 E.01172
G1 X143.521 Y78.33 E.00791
