; generated by PrusaSlicer 2.4.2+win64 on 2022-08-07 at 02:29:29 UTC

; 

; external perimeters extrusion width = 0.45mm
; perimeters extrusion width = 0.45mm
; infill extrusion width = 0.45mm
; solid infill extrusion width = 0.45mm
; top infill extrusion width = 0.40mm
; first layer extrusion width = 0.42mm

M107
;TYPE:Custom
G90 ; use absolute coordinates
M83 ; extruder relative mode
M140 S110 ; set final bed temp
M104 S170 ; set temporary nozzle temp to prevent oozing during homing
G4 S10 ; allow partial nozzle warmup
G28 ; home all axis
G1 Z50 F300
G1 X3 Y10 F3000
M190 S104.5 ; wait for bed temp to stabilize at 90%
M140 S110 ; set final bed temp
M104 S245 ; set final nozzle temp
M109 S245 ; wait for nozzle temp to stabilize
G1 Z0.28 F240
G92 E0
G1 Y180 E10 F1500 ; prime the nozzle
G1 X3.3 F5000
G92 E0
G1 Y20 E10 F1200 ; prime the nozzle
G92 E0
G21 ; set units to millimeters
G90 ; use absolute coordinates
M83 ; use relative distances for extrusion
; Filament gcode
M107
;LAYER_CHANGE
;Z:0.2
;HEIGHT:0.2
;BEFORE_LAYER_CHANGE
G92 E0
;0.2


G1 E-7 F3600
G1 Z.2 F9000
;AFTER_LAYER_CHANGE
;0.2
G1 X73.304 Y77.577
G1 E7 F2400
M204 S500
;TYPE:Skirt/Brim
;WIDTH:0.42
G1 F1200
G1 X74.322 Y76.818 E.03982
G1 X75.219 Y76.279 E.03281
G1 X76.367 Y75.736 E.03982
G1 X77.832 Y75.249 E.0484
G1 X78.705 Y75.101 E.02777
G1 X82.557 Y74.874 E.12096
G1 X151.208 Y74.882 E2.15251
G1 X154.808 Y75.101 E.11308
G1 X155.681 Y75.249 E.02777
G1 X157.146 Y75.736 E.0484
G1 X158.534 Y76.412 E.04841
G1 X160.209 Y77.577 E.06398
G1 X161.509 Y78.847 E.05698
G1 X162.712 Y80.495 E.06398
G1 X163.421 Y81.866 E.0484
G1 X164.013 Y83.585 E.05699
G1 X164.351 Y85.597 E.06398
G1 X164.388 Y94.006 E.26365
G1 X163.993 Y95.769 E.05665
G1 X162.883 Y97.195 E.05665
G1 X161.27 Y98.01 E.05665
G1 X160.257 Y98.137 E.03204
G1 X73.257 Y98.137 E2.72782
G1 X71.493 Y97.742 E.05665
G1 X70.067 Y96.632 E.05665
G1 X69.252 Y95.02 E.05665
G1 X69.125 Y94.006 E.03204
G1 X69.144 Y85.871 E.25507
G1 X69.248 Y84.829 E.03281
G1 X69.5 Y83.585 E.03982
G1 X70.092 Y81.866 E.05699
G1 X70.801 Y80.495 E.0484
G1 X71.515 Y79.445 E.03982
G1 X72.187 Y78.643 E.03281
G1 X73.261 Y77.619 E.04652
G1 X73.52 Y77.89 F9000
G1 F1200
G1 X74.538 Y77.127 E.03986
G1 X75.392 Y76.614 E.03124
G1 X76.517 Y76.082 E.03903
G1 X77.935 Y75.612 E.04684
G1 X78.728 Y75.478 E.02523
G1 X82.557 Y75.251 E.12024
G1 X151.185 Y75.258 E2.15179
G1 X154.785 Y75.478 E.11308
G1 X155.578 Y75.612 E.02523
G1 X156.996 Y76.082 E.04684
G1 X158.122 Y76.614 E.03903
G1 X159.584 Y77.561 E.05463
G1 X160.709 Y78.544 E.04683
G1 X161.693 Y79.668 E.04684
G1 X162.758 Y81.349 E.06241
G1 X163.175 Y82.254 E.03124
G1 X163.581 Y83.431 E.03903
G1 X163.811 Y84.4 E.03124
G1 X163.976 Y85.634 E.03903
G1 X164.011 Y94.006 E.26248
G1 X163.616 Y95.681 E.05397
G1 X162.515 Y97.004 E.05397
G1 X160.257 Y97.76 E.07467
G1 X73.257 Y97.76 E2.72782
G1 X71.581 Y97.365 E.05397
G1 X70.258 Y96.264 E.05397
G1 X69.502 Y94.006 E.07467
G1 X69.538 Y85.634 E.26248
G1 X69.867 Y83.671 E.06241
G1 X70.435 Y82.024 E.05463
G1 X71.119 Y80.697 E.04683
G1 X71.82 Y79.667 E.03903
G1 X72.46 Y78.904 E.03124
G1 X73.477 Y77.932 E.04412
G1 X73.737 Y78.203 F9000
G1 F1200
G1 X74.753 Y77.437 E.0399
G1 X75.564 Y76.949 E.02967
G1 X76.667 Y76.428 E.03825
G1 X78.038 Y75.975 E.04527
G1 X78.751 Y75.854 E.0227
G1 X82.557 Y75.629 E.11952
G1 X151.162 Y75.635 E2.15107
G1 X154.762 Y75.854 E.11308
G1 X155.475 Y75.975 E.0227
G1 X156.846 Y76.428 E.04527
G1 X157.949 Y76.949 E.03825
G1 X159.169 Y77.721 E.04527
G1 X160.436 Y78.805 E.05228
G1 X161.389 Y79.89 E.04527
G1 X162.427 Y81.529 E.06084
G1 X162.823 Y82.389 E.02967
G1 X163.221 Y83.542 E.03825
G1 X163.439 Y84.463 E.02967
G1 X163.6 Y85.672 E.03825
G1 X163.634 Y94.006 E.2613
G1 X163.24 Y95.589 E.05115
G1 X162.149 Y96.802 E.05115
G1 X160.257 Y97.383 E.06207
G1 X73.257 Y97.383 E2.72782
G1 X71.673 Y96.989 E.05115
G1 X70.46 Y95.898 E.05115
G1 X69.879 Y94.006 E.06207
G1 X69.913 Y85.672 E.2613
G1 X70.233 Y83.758 E.06084
G1 X70.777 Y82.182 E.05228
G1 X71.438 Y80.898 E.04527
G1 X72.124 Y79.89 E.03825
G1 X72.732 Y79.165 E.02967
G1 X73.693 Y78.245 E.04172
G1 E-4.9 F3600
;WIPE_START
G1 F7200
G1 X74.753 Y77.437 E-.63273
G1 X75.564 Y76.949 E-.44954
G1 X76.667 Y76.428 E-.57942
G1 X77.333 Y76.208 E-.33331
;WIPE_END
G1 E-.105 F3600
G1 X78.269 Y80.164 F9000
G1 E7 F2400
;TYPE:Perimeter
G1 F1200
G1 X78.269 Y86.529 E.19958
G1 X78.291 Y86.844 E.00991
G1 X78.36 Y87.177 E.01065
G1 X78.474 Y87.497 E.01065
G1 X78.63 Y87.799 E.01065
G1 X78.826 Y88.076 E.01065
G1 X79.058 Y88.324 E.01065
G1 X79.321 Y88.539 E.01065
G1 X79.612 Y88.715 E.01065
G1 X79.923 Y88.851 E.01065
G1 X80.25 Y88.942 E.01065
G1 X80.587 Y88.988 E.01065
G1 X80.926 Y88.988 E.01065
G1 X81.263 Y88.942 E.01065
G1 X81.59 Y88.851 E.01065
G1 X81.902 Y88.715 E.01065
G1 X82.192 Y88.539 E.01065
G1 X82.455 Y88.324 E.01065
G1 X82.689 Y88.074 E.01074
G1 X82.893 Y87.779 E.01124
G1 X83.039 Y87.497 E.00996
G1 X83.153 Y87.177 E.01065
G1 X83.222 Y86.844 E.01065
G1 X83.244 Y86.529 E.00991
G1 X83.244 Y79.693 E.21435
G1 X92.669 Y79.693 E.29554
G1 X92.669 Y86.529 E.21435
G1 X92.691 Y86.844 E.00991
G1 X92.76 Y87.177 E.01065
G1 X92.874 Y87.497 E.01065
G1 X93.03 Y87.799 E.01065
G1 X93.226 Y88.076 E.01065
G1 X93.458 Y88.324 E.01065
G1 X93.721 Y88.539 E.01065
G1 X94.012 Y88.715 E.01065
G1 X94.323 Y88.851 E.01065
G1 X94.65 Y88.942 E.01065
G1 X94.987 Y88.988 E.01065
G1 X95.326 Y88.988 E.01065
G1 X95.663 Y88.942 E.01065
G1 X95.99 Y88.851 E.01065
G1 X96.302 Y88.715 E.01065
G1 X96.592 Y88.539 E.01065
G1 X96.857 Y88.323 E.01074
G1 X97.1 Y88.058 E.01124
G1 X97.283 Y87.799 E.00996
G1 X97.439 Y87.497 E.01065
G1 X97.553 Y87.177 E.01065
G1 X97.622 Y86.844 E.01065
G1 X97.644 Y86.529 E.00991
G1 X97.644 Y79.693 E.21435
G1 X107.069 Y79.693 E.29554
G1 X107.069 Y86.529 E.21435
G1 X107.091 Y86.844 E.00991
G1 X107.16 Y87.177 E.01065
G1 X107.274 Y87.497 E.01065
G1 X107.43 Y87.799 E.01065
G1 X107.626 Y88.076 E.01065
G1 X107.86 Y88.326 E.01074
G1 X108.14 Y88.55 E.01124
G1 X108.412 Y88.715 E.00996
G1 X108.723 Y88.851 E.01065
G1 X109.05 Y88.942 E.01065
G1 X109.387 Y88.988 E.01065
G1 X109.726 Y88.988 E.01065
G1 X110.063 Y88.942 E.01065
G1 X110.39 Y88.851 E.01065
G1 X110.701 Y88.715 E.01065
G1 X110.992 Y88.539 E.01065
G1 X111.255 Y88.324 E.01065
G1 X111.489 Y88.074 E.01074
G1 X111.693 Y87.779 E.01124
G1 X111.839 Y87.497 E.00996
G1 X111.953 Y87.177 E.01065
G1 X112.022 Y86.844 E.01065
G1 X112.044 Y86.529 E.00991
G1 X112.044 Y79.693 E.21435
G1 X121.469 Y79.693 E.29554
G1 X121.469 Y86.529 E.21435
G1 X121.491 Y86.844 E.00991
G1 X121.561 Y87.18 E.01074
G1 X121.684 Y87.517 E.01124
G1 X121.83 Y87.799 E.00996
G1 X122.026 Y88.076 E.01065
G1 X122.26 Y88.326 E.01074
G1 X122.54 Y88.55 E.01124
G1 X122.812 Y88.715 E.00996
G1 X123.123 Y88.851 E.01065
G1 X123.45 Y88.942 E.01065
G1 X123.787 Y88.988 E.01065
G1 X124.126 Y88.988 E.01065
G1 X124.463 Y88.942 E.01065
G1 X124.79 Y88.851 E.01065
G1 X125.102 Y88.715 E.01065
G1 X125.392 Y88.539 E.01065
G1 X125.657 Y88.323 E.01074
G1 X125.9 Y88.058 E.01124
G1 X126.083 Y87.799 E.00996
G1 X126.239 Y87.497 E.01065
G1 X126.353 Y87.177 E.01065
G1 X126.422 Y86.844 E.01065
G1 X126.444 Y86.529 E.00991
G1 X126.444 Y79.693 E.21435
G1 X135.869 Y79.693 E.29554
G1 X135.869 Y86.529 E.21435
G1 X135.891 Y86.844 E.00991
G1 X135.96 Y87.177 E.01065
G1 X136.074 Y87.497 E.01065
G1 X136.23 Y87.799 E.01065
G1 X136.426 Y88.076 E.01065
G1 X136.658 Y88.324 E.01065
G1 X136.921 Y88.539 E.01065
G1 X137.212 Y88.715 E.01065
G1 X137.523 Y88.851 E.01065
G1 X137.85 Y88.942 E.01065
G1 X138.187 Y88.988 E.01065
G1 X138.526 Y88.988 E.01065
G1 X138.863 Y88.942 E.01065
G1 X139.19 Y88.851 E.01065
G1 X139.502 Y88.715 E.01065
G1 X139.792 Y88.539 E.01065
G1 X140.055 Y88.324 E.01065
G1 X140.289 Y88.074 E.01074
G1 X140.493 Y87.779 E.01124
G1 X140.639 Y87.497 E.00996
G1 X140.753 Y87.177 E.01065
G1 X140.822 Y86.844 E.01065
G1 X140.844 Y86.529 E.00991
G1 X140.844 Y79.693 E.21435
G1 X150.269 Y79.693 E.29554
G1 X150.269 Y86.529 E.21435
G1 X150.291 Y86.844 E.00991
G1 X150.36 Y87.177 E.01065
G1 X150.474 Y87.497 E.01065
G1 X150.63 Y87.799 E.01065
G1 X150.826 Y88.076 E.01065
G1 X151.058 Y88.324 E.01065
G1 X151.321 Y88.539 E.01065
G1 X151.612 Y88.715 E.01065
G1 X151.923 Y88.851 E.01065
G1 X152.25 Y88.942 E.01065
G1 X152.587 Y88.988 E.01065
G1 X152.926 Y88.988 E.01065
G1 X153.263 Y88.942 E.01065
G1 X153.59 Y88.851 E.01065
G1 X153.902 Y88.715 E.01065
G1 X154.192 Y88.539 E.01065
G1 X154.455 Y88.324 E.01065
G1 X154.689 Y88.074 E.01074
G1 X154.893 Y87.779 E.01124
G1 X155.039 Y87.497 E.00996
G1 X155.153 Y87.177 E.01065
G1 X155.222 Y86.844 E.01065
G1 X155.244 Y86.529 E.00991
G1 X155.244 Y80.164 E.19958
G1 X155.668 Y80.347 E.0145
G1 X156.071 Y80.554 E.01419
G1 X156.458 Y80.787 E.01419
G1 X156.83 Y81.045 E.01418
G1 X157.183 Y81.327 E.01419
G1 X157.517 Y81.633 E.01419
G1 X157.83 Y81.959 E.01419
G1 X158.121 Y82.306 E.01418
G1 X158.388 Y82.671 E.01418
G1 X158.63 Y83.054 E.01419
G1 X158.846 Y83.451 E.01419
G1 X159.035 Y83.862 E.01418
G1 X159.197 Y84.284 E.01419
G1 X159.33 Y84.717 E.01418
G1 X159.434 Y85.157 E.01419
G1 X159.509 Y85.603 E.01418
G1 X159.554 Y86.053 E.01419
G1 X159.569 Y86.517 E.01454
G1 X159.569 Y93.319 E.21326
G1 X73.944 Y93.319 E2.68474
G1 X73.944 Y86.517 E.21326
G1 X73.959 Y86.053 E.01454
G1 X74.004 Y85.603 E.01418
G1 X74.079 Y85.157 E.01419
G1 X74.183 Y84.717 E.01419
G1 X74.316 Y84.284 E.01418
G1 X74.478 Y83.862 E.01419
G1 X74.667 Y83.451 E.01419
G1 X74.883 Y83.054 E.01418
G1 X75.125 Y82.671 E.01419
G1 X75.392 Y82.306 E.01418
G1 X75.683 Y81.959 E.01419
G1 X75.996 Y81.633 E.01419
G1 X76.33 Y81.327 E.01418
G1 X76.683 Y81.045 E.01418
G1 X77.055 Y80.787 E.01418
G1 X77.447 Y80.551 E.01434
G1 X77.845 Y80.347 E.01404
G1 X78.214 Y80.187 E.01262
G1 X78.572 Y79.656 F9000
;TYPE:External perimeter
G1 F1200
G1 X78.647 Y79.635 E.00244
G1 X78.647 Y86.516 E.21577
G1 X78.665 Y86.793 E.0087
G1 X78.724 Y87.075 E.00903
G1 X78.821 Y87.347 E.00903
G1 X78.953 Y87.602 E.00903
G1 X79.119 Y87.838 E.00903
G1 X79.316 Y88.048 E.00903
G1 X79.539 Y88.23 E.00903
G1 X79.785 Y88.38 E.00903
G1 X80.05 Y88.494 E.00903
G1 X80.327 Y88.572 E.00903
G1 X80.613 Y88.611 E.00903
G1 X80.901 Y88.611 E.00903
G1 X81.186 Y88.572 E.00903
G1 X81.463 Y88.494 E.00903
G1 X81.728 Y88.38 E.00903
G1 X81.974 Y88.23 E.00903
G1 X82.197 Y88.048 E.00903
G1 X82.395 Y87.837 E.00906
G1 X82.569 Y87.584 E.00963
G1 X82.693 Y87.347 E.0084
G1 X82.789 Y87.075 E.00903
G1 X82.848 Y86.793 E.00903
G1 X82.867 Y86.516 E.0087
G1 X82.867 Y79.316 E.22577
G1 X93.047 Y79.316 E.31919
G1 X93.047 Y86.516 E.22577
G1 X93.065 Y86.793 E.0087
G1 X93.124 Y87.075 E.00903
G1 X93.221 Y87.347 E.00903
G1 X93.353 Y87.602 E.00903
G1 X93.519 Y87.838 E.00903
G1 X93.716 Y88.048 E.00903
G1 X93.939 Y88.23 E.00903
G1 X94.185 Y88.38 E.00903
G1 X94.45 Y88.494 E.00903
G1 X94.727 Y88.572 E.00903
G1 X95.013 Y88.611 E.00903
G1 X95.301 Y88.611 E.00903
G1 X95.586 Y88.572 E.00903
G1 X95.863 Y88.494 E.00903
G1 X96.128 Y88.38 E.00903
G1 X96.374 Y88.23 E.00903
G1 X96.598 Y88.048 E.00906
G1 X96.805 Y87.821 E.00963
G1 X96.96 Y87.602 E.0084
G1 X97.093 Y87.347 E.00903
G1 X97.189 Y87.075 E.00903
G1 X97.248 Y86.793 E.00903
G1 X97.267 Y86.516 E.0087
G1 X97.267 Y79.316 E.22577
G1 X107.447 Y79.316 E.31919
G1 X107.447 Y86.516 E.22577
G1 X107.465 Y86.793 E.0087
G1 X107.524 Y87.075 E.00903
G1 X107.621 Y87.347 E.00903
G1 X107.753 Y87.602 E.00903
G1 X107.919 Y87.838 E.00903
G1 X108.117 Y88.049 E.00906
G1 X108.357 Y88.24 E.00963
G1 X108.585 Y88.38 E.0084
G1 X108.85 Y88.494 E.00903
G1 X109.127 Y88.572 E.00903
G1 X109.413 Y88.611 E.00903
G1 X109.701 Y88.611 E.00903
G1 X109.986 Y88.572 E.00903
G1 X110.263 Y88.494 E.00903
G1 X110.528 Y88.38 E.00903
G1 X110.774 Y88.23 E.00903
G1 X110.997 Y88.048 E.00903
G1 X111.195 Y87.837 E.00906
G1 X111.369 Y87.584 E.00963
G1 X111.493 Y87.347 E.0084
G1 X111.589 Y87.075 E.00903
G1 X111.648 Y86.793 E.00903
G1 X111.667 Y86.516 E.0087
G1 X111.667 Y79.316 E.22577
G1 X121.847 Y79.316 E.31919
G1 X121.847 Y86.516 E.22577
G1 X121.865 Y86.793 E.0087
G1 X121.924 Y87.076 E.00906
G1 X122.03 Y87.364 E.00963
G1 X122.153 Y87.602 E.0084
G1 X122.319 Y87.838 E.00903
G1 X122.517 Y88.049 E.00906
G1 X122.757 Y88.24 E.00963
G1 X122.985 Y88.38 E.0084
G1 X123.25 Y88.494 E.00903
G1 X123.527 Y88.572 E.00903
G1 X123.813 Y88.611 E.00903
G1 X124.101 Y88.611 E.00903
G1 X124.386 Y88.572 E.00903
G1 X124.663 Y88.494 E.00903
G1 X124.928 Y88.38 E.00903
G1 X125.174 Y88.23 E.00903
G1 X125.398 Y88.048 E.00906
G1 X125.605 Y87.821 E.00963
G1 X125.76 Y87.602 E.0084
G1 X125.893 Y87.347 E.00903
G1 X125.989 Y87.075 E.00903
G1 X126.048 Y86.793 E.00903
G1 X126.067 Y86.516 E.0087
G1 X126.067 Y79.316 E.22577
G1 X136.247 Y79.316 E.31919
G1 X136.247 Y86.516 E.22577
G1 X136.265 Y86.793 E.0087
G1 X136.324 Y87.075 E.00903
G1 X136.421 Y87.347 E.00903
G1 X136.553 Y87.602 E.00903
G1 X136.719 Y87.838 E.00903
G1 X136.916 Y88.048 E.00903
G1 X137.139 Y88.23 E.00903
G1 X137.385 Y88.38 E.00903
G1 X137.65 Y88.494 E.00903
G1 X137.927 Y88.572 E.00903
G1 X138.213 Y88.611 E.00903
G1 X138.501 Y88.611 E.00903
G1 X138.786 Y88.572 E.00903
G1 X139.063 Y88.494 E.00903
G1 X139.328 Y88.38 E.00903
G1 X139.574 Y88.23 E.00903
G1 X139.797 Y88.048 E.00903
G1 X139.995 Y87.837 E.00906
G1 X140.169 Y87.584 E.00963
G1 X140.293 Y87.347 E.0084
G1 X140.389 Y87.075 E.00903
G1 X140.448 Y86.793 E.00903
G1 X140.467 Y86.516 E.0087
G1 X140.467 Y79.316 E.22577
G1 X150.647 Y79.316 E.31919
G1 X150.647 Y86.516 E.22577
G1 X150.665 Y86.793 E.0087
G1 X150.724 Y87.075 E.00903
G1 X150.821 Y87.347 E.00903
G1 X150.953 Y87.602 E.00903
G1 X151.119 Y87.838 E.00903
G1 X151.316 Y88.048 E.00903
G1 X151.539 Y88.23 E.00903
G1 X151.785 Y88.38 E.00903
G1 X152.05 Y88.494 E.00903
G1 X152.327 Y88.572 E.00903
G1 X152.613 Y88.611 E.00903
G1 X152.901 Y88.611 E.00903
G1 X153.186 Y88.572 E.00903
G1 X153.463 Y88.494 E.00903
G1 X153.728 Y88.38 E.00903
G1 X153.974 Y88.23 E.00903
G1 X154.197 Y88.048 E.00903
G1 X154.395 Y87.837 E.00906
G1 X154.569 Y87.584 E.00963
G1 X154.693 Y87.347 E.0084
G1 X154.789 Y87.075 E.00903
G1 X154.848 Y86.793 E.00903
G1 X154.867 Y86.516 E.0087
G1 X154.867 Y79.635 E.21577
G1 X155.391 Y79.816 E.01741
G1 X155.83 Y80.006 E.01497
G1 X156.254 Y80.224 E.01497
G1 X156.663 Y80.47 E.01497
G1 X157.055 Y80.743 E.01497
G1 X157.428 Y81.041 E.01497
G1 X157.781 Y81.363 E.01497
G1 X158.111 Y81.708 E.01497
G1 X158.418 Y82.073 E.01497
G1 X158.7 Y82.459 E.01497
G1 X158.955 Y82.862 E.01497
G1 X159.183 Y83.282 E.01497
G1 X159.383 Y83.715 E.01497
G1 X159.554 Y84.161 E.01497
G1 X159.694 Y84.618 E.01497
G1 X159.804 Y85.082 E.01497
G1 X159.883 Y85.553 E.01497
G1 X159.931 Y86.028 E.01497
G1 X159.947 Y86.511 E.01513
G1 X159.947 Y93.696 E.22528
G1 X73.567 Y93.696 E2.70838
G1 X73.567 Y86.511 E.22528
G1 X73.583 Y86.028 E.01513
G1 X73.63 Y85.553 E.01497
G1 X73.709 Y85.082 E.01497
G1 X73.819 Y84.618 E.01497
G1 X73.96 Y84.161 E.01497
G1 X74.13 Y83.715 E.01497
G1 X74.33 Y83.282 E.01497
G1 X74.558 Y82.862 E.01497
G1 X74.814 Y82.459 E.01497
G1 X75.095 Y82.073 E.01497
G1 X75.402 Y81.708 E.01497
G1 X75.732 Y81.363 E.01497
G1 X76.085 Y81.041 E.01497
G1 X76.458 Y80.743 E.01497
G1 X76.85 Y80.47 E.01497
G1 X77.263 Y80.222 E.01513
G1 X77.684 Y80.006 E.01482
G1 X78.122 Y79.816 E.01497
G1 X78.515 Y79.676 E.01309
G1 X78.629 Y79.708 F9000
G1 E-7 F3600
G1 X78.391 Y79.992 F9000
G1 X73.822 Y93.44
G1 X150.92 Y87.999
G1 X150.734 Y87.735
G1 X150.585 Y87.449
G1 X150.477 Y87.144
G1 X150.412 Y86.828
G1 X150.391 Y86.525
G1 X150.391 Y79.571
G1 X149.423 Y79.571
G1 X149.423 Y79.806
G1 E7 F2400
;TYPE:Solid infill
;WIDTH:0.42006
G1 F1200
G1 X149.987 Y80.369 E.02498
G1 X149.987 Y80.902 E.01673
G1 X149.06 Y79.975 E.04111
G1 X148.526 Y79.975 E.01673
G1 X149.987 Y81.436 E.06476
G1 X149.987 Y81.969 E.01673
G1 X147.993 Y79.975 E.08841
G1 X147.46 Y79.975 E.01673
G1 X149.987 Y82.502 E.11207
G1 X149.987 Y83.036 E.01673
G1 X146.926 Y79.975 E.13572
G1 X146.393 Y79.975 E.01673
G1 X149.987 Y83.569 E.15938
G1 X149.987 Y84.103 E.01673
G1 X145.86 Y79.975 E.18303
G1 X145.326 Y79.975 E.01673
G1 X149.987 Y84.636 E.20668
G1 X149.987 Y85.169 E.01673
G1 X144.793 Y79.975 E.23034
G1 X144.26 Y79.975 E.01673
G1 X149.987 Y85.703 E.25399
G1 X149.987 Y86.236 E.01673
