; G-Code originally generated by Simplify3D(R) Version 4.1.2
; This calibration test gcode modified by the Teaching Tech Calibration website: https://teachingtechyt.github.io/calibration.html
;M80 ; power supply on
G90
M82
M106 S0
M140 S110 ; custom bed temp
M190 S110 ; custom bed temp
M104 S190 T0 ; custom hot end temp minus 50 degrees
G28 ; home all axes
;G29 ; probe ABL
;M420 S1 ; restore ABL mesh
M109 S240 T0 ; custom hot end temp 
;customstart
G0 Z3; fix for delta printers that home at max
;process Process-1
;layer 1, Z = 0.200
T0
G92 E0.0000
G1 E-4 F2400 ; custom retraction - A
;fan1;
G1 Z0.200 F1200
G1 X90.9380 Y106.1360 F5000 ; custom feedrate
G1 E0 F2400 ; custom un-retraction/prime - A
G92 E0.0000
G1 X145.0470 Y106.1360 E2.3324 F1500 ; custom feedrate
G1 X145.1410 Y106.1390 E2.3364
G1 X145.9330 Y106.1910 E2.3707
G1 X146.1190 Y106.2160 E2.3788
G1 X146.9450 Y106.3800 E2.4150
G1 X147.1260 Y106.4280 E2.4231
G1 X147.9230 Y106.6990 E2.4594
G1 X148.0960 Y106.7700 E2.4675
G1 X148.8650 Y107.1500 E2.5044
G1 X149.0530 Y107.2610 E2.5139
G1 X149.9460 Y107.8860 E2.5609
G1 X150.1150 Y108.0250 E2.5703
G1 X150.7350 Y108.6180 E2.6072
G1 X150.8610 Y108.7560 E2.6153
G1 X151.3780 Y109.4000 E2.6509
G1 X151.4690 Y109.5270 E2.6577
G1 X151.7790 Y110.0140 E2.6825
G1 X151.8420 Y110.1220 E2.6879
G1 X152.1080 Y110.6340 E2.7128
G1 X152.1720 Y110.7760 E2.7195
G1 X152.4720 Y111.5460 E2.7551
G1 X152.5280 Y111.7250 E2.7632
G1 X152.7320 Y112.5570 E2.8001
G1 X152.7680 Y112.7730 E2.8096
G1 X152.8590 Y113.8130 E2.8546
G1 X152.8640 Y113.9380 E2.8599
G1 X152.8640 Y122.0470 E3.2095
G1 X152.8610 Y122.1410 E3.2135
G1 X152.8080 Y122.9490 E3.2485
G1 X152.7770 Y123.1660 E3.2579
G1 X152.5440 Y124.2150 E3.3042
G1 X152.4920 Y124.3950 E3.3123
G1 X152.2790 Y124.9810 E3.3392
G1 X152.2030 Y125.1530 E3.3473
G1 X151.7000 Y126.1200 E3.3943
G1 X151.5650 Y126.3310 E3.4051
G1 X150.9010 Y127.1960 E3.4521
G1 X150.7780 Y127.3370 E3.4601
G1 X150.3370 Y127.7780 E3.4870
G1 X150.1960 Y127.9010 E3.4951
G1 X149.3560 Y128.5460 E3.5408
G1 X149.2000 Y128.6500 E3.5488
G1 X148.6870 Y128.9470 E3.5744
G1 X148.5760 Y129.0040 E3.5798
G1 X148.0530 Y129.2480 E3.6046
G1 X147.9080 Y129.3060 E3.6114
G1 X147.1110 Y129.5770 E3.6476
G1 X146.8990 Y129.6310 E3.6571
G1 X145.8410 Y129.8180 E3.7034
G1 X145.6540 Y129.8380 E3.7115
G1 X145.0940 Y129.8630 E3.7357
G1 X145.0310 Y129.8640 E3.7384
G1 X90.9530 Y129.8640 E6.0694
G1 X90.8590 Y129.8610 E6.0734
G1 X90.0660 Y129.8090 E6.1077
G1 X89.8810 Y129.7840 E6.1158
G1 X89.0550 Y129.6200 E6.1521
G1 X88.8740 Y129.5720 E6.1601
G1 X88.0920 Y129.3060 E6.1957
G1 X87.9470 Y129.2480 E6.2025
G1 X87.4240 Y129.0040 E6.2273
G1 X87.3130 Y128.9470 E6.2327
G1 X86.8140 Y128.6580 E6.2576
G1 X86.6830 Y128.5730 E6.2643
G1 X86.0170 Y128.0840 E6.2999
G1 X85.8730 Y127.9640 E6.3080
G1 X85.2650 Y127.3820 E6.3443
G1 X85.1390 Y127.2440 E6.3524
G1 X84.6020 Y126.5750 E6.3893
G1 X84.4790 Y126.3950 E6.3987
G1 X83.9330 Y125.4500 E6.4457
G1 X83.8390 Y125.2530 E6.4552
G1 X83.5280 Y124.4540 E6.4921
G1 X83.4720 Y124.2750 E6.5002
G1 X83.2720 Y123.4580 E6.5365
G1 X83.2390 Y123.2730 E6.5446
G1 X83.1490 Y122.4520 E6.5802
G1 X83.1410 Y122.2960 E6.5869
G1 X83.1410 Y113.6880 E6.9580
G1 X83.1530 Y113.5010 E6.9660
G1 X83.2910 Y112.4510 E7.0117
G1 X83.3280 Y112.2670 E7.0198
G1 X83.4890 Y111.6650 E7.0467
G1 X83.5500 Y111.4870 E7.0547
G1 X83.9550 Y110.5090 E7.1004
G1 X84.0380 Y110.3400 E7.1085
G1 X84.3500 Y109.8000 E7.1354
G1 X84.4540 Y109.6440 E7.1434
G1 X85.1180 Y108.7790 E7.1904
G1 X85.2870 Y108.5950 E7.2012
G1 X86.1020 Y107.8480 E7.2489
G1 X86.2740 Y107.7130 E7.2583
G1 X87.0000 Y107.2280 E7.2960
G1 X87.1900 Y107.1200 E7.3054
G1 X88.1640 Y106.6660 E7.3517
G1 X88.3390 Y106.5980 E7.3598
G1 X88.9040 Y106.4200 E7.3853
G1 X89.0250 Y106.3880 E7.3907
G1 X89.6030 Y106.2600 E7.4163
G1 X89.7890 Y106.2310 E7.4243
G1 X90.8130 Y106.1410 E7.4686
G1 X90.9380 Y106.1360 E7.4740
G92 E0.0000
G1 E-4 F2400 ; custom retraction - A
;zhop1
G1 X90.9500 Y106.7120 F5000 ; custom feedrate
G1 Z0.200 F1200
G1 E0 F2400 ; custom un-retraction/prime - A
G92 E0.0000
G1 X145.0370 Y106.7120 E2.3314 F1500 ; custom feedrate
G1 X145.1120 Y106.7140 E2.3347
G1 X145.8770 Y106.7650 E2.3677
G1 X146.0260 Y106.7840 E2.3742
G1 X146.8140 Y106.9410 E2.4088
G1 X146.9590 Y106.9800 E2.4153
G1 X147.7200 Y107.2380 E2.4499
G1 X147.8580 Y107.2950 E2.4564
G1 X148.5900 Y107.6560 E2.4916
G1 X148.7410 Y107.7460 E2.4991
G1 X149.5980 Y108.3460 E2.5442
G1 X149.7330 Y108.4570 E2.5517
G1 X150.3230 Y109.0210 E2.5869
G1 X150.4240 Y109.1320 E2.5934
G1 X150.9190 Y109.7490 E2.6275
G1 X150.9920 Y109.8500 E2.6329
G1 X151.2870 Y110.3130 E2.6565
G1 X151.3370 Y110.3990 E2.6608
G1 X151.5900 Y110.8860 E2.6845
G1 X151.6410 Y110.9990 E2.6898
G1 X151.9280 Y111.7370 E2.7240
G1 X151.9730 Y111.8800 E2.7304
G1 X152.1670 Y112.6730 E2.7656
G1 X152.1960 Y112.8450 E2.7731
G1 X152.2840 Y113.8500 E2.8166
G1 X152.2880 Y113.9500 E2.8209
G1 X152.2880 Y122.0370 E3.1695
G1 X152.2860 Y122.1120 E3.1728
G1 X152.2350 Y122.8890 E3.2063
G1 X152.2100 Y123.0630 E3.2139
G1 X151.9860 Y124.0720 E3.2584
G1 X151.9440 Y124.2160 E3.2649
G1 X151.7440 Y124.7660 E3.2902
G1 X151.6830 Y124.9030 E3.2966
G1 X151.2000 Y125.8320 E3.3417
G1 X151.0930 Y126.0000 E3.3503
G1 X150.4560 Y126.8300 E3.3954
G1 X150.3570 Y126.9430 E3.4019
G1 X149.9430 Y127.3570 E3.4271
G1 X149.8300 Y127.4560 E3.4336
G1 X149.0200 Y128.0780 E3.4776
G1 X148.8950 Y128.1610 E3.4841
G1 X148.4100 Y128.4410 E3.5083
G1 X148.3210 Y128.4880 E3.5126
G1 X147.8240 Y128.7190 E3.5362
G1 X147.7080 Y128.7660 E3.5416
G1 X146.9470 Y129.0240 E3.5762
G1 X146.7770 Y129.0680 E3.5838
G1 X145.7590 Y129.2470 E3.6283
G1 X145.6100 Y129.2640 E3.6348
G1 X145.0750 Y129.2870 E3.6579
G1 X145.0250 Y129.2880 E3.6601
G1 X90.9630 Y129.2880 E5.9904
G1 X90.8880 Y129.2860 E5.9937
G1 X90.1230 Y129.2350 E6.0267
G1 X89.9740 Y129.2160 E6.0331
G1 X89.1860 Y129.0590 E6.0678
G1 X89.0410 Y129.0200 E6.0743
G1 X88.2920 Y128.7660 E6.1084
G1 X88.1760 Y128.7190 E6.1137
G1 X87.6790 Y128.4880 E6.1374
G1 X87.5900 Y128.4410 E6.1417
G1 X87.1150 Y128.1670 E6.1653
G1 X87.0110 Y128.0990 E6.1707
G1 X86.3730 Y127.6310 E6.2048
G1 X86.2580 Y127.5350 E6.2113
G1 X85.6770 Y126.9790 E6.2459
G1 X85.5760 Y126.8680 E6.2524
G1 X85.0650 Y126.2320 E6.2876
G1 X84.9660 Y126.0880 E6.2951
G1 X84.4430 Y125.1810 E6.3402
G1 X84.3680 Y125.0240 E6.3478
G1 X84.0720 Y124.2630 E6.3829
G1 X84.0270 Y124.1200 E6.3894
G1 X83.8360 Y123.3390 E6.4240
G1 X83.8100 Y123.1920 E6.4305
G1 X83.7240 Y122.4050 E6.4646
G1 X83.7170 Y122.2810 E6.4700
G1 X83.7170 Y113.7070 E6.8396
G1 X83.7270 Y113.5580 E6.8460
G1 X83.8600 Y112.5450 E6.8900
G1 X83.8890 Y112.3980 E6.8965
G1 X84.0410 Y111.8320 E6.9218
G1 X84.0890 Y111.6900 E6.9282
G1 X84.4800 Y110.7460 E6.9722
G1 X84.5460 Y110.6120 E6.9787
G1 X84.8390 Y110.1050 E7.0040
G1 X84.9220 Y109.9800 E7.0104
G1 X85.5590 Y109.1500 E7.0555
G1 X85.6940 Y109.0030 E7.0641
G1 X86.4750 Y108.2870 E7.1098
G1 X86.6120 Y108.1790 E7.1173
G1 X87.3020 Y107.7190 E7.1530
G1 X87.4540 Y107.6330 E7.1606
G1 X88.3910 Y107.1960 E7.2051
G1 X88.5300 Y107.1420 E7.2116
G1 X89.0650 Y106.9730 E7.2358
G1 X89.1620 Y106.9470 E7.2401
G1 X89.7100 Y106.8260 E7.2643
G1 X89.8580 Y106.8030 E7.2707
G1 X90.8500 Y106.7160 E7.3137
G1 X90.9500 Y106.7120 E7.3180
G92 E0.0000
G1 E-4 F2400 ; custom retraction - A
;zhop1
G1 X91.0060 Y109.2880 F5000 ; custom feedrate
G1 X91.0310 Y110.4400
G1 Z0.200 F1200
G1 E0 F2400 ; custom un-retraction/prime - A
G92 E0.0000
G1 X144.9530 Y110.4400 E2.3243 F1200 ; custom feedrate
G1 X145.4640 Y110.4740 E2.3464
G1 X145.9210 Y110.5640 E2.3664
G1 X146.3610 Y110.7140 E2.3865
G1 X146.7930 Y110.9270 E2.4072
G1 X147.0410 Y111.0850 E2.4199
G1 X147.2750 Y111.2640 E2.4326
G1 X147.6220 Y111.5970 E2.4534
G1 X147.9240 Y111.9720 E2.4741
G1 X148.0820 Y112.2210 E2.4868
G1 X148.2180 Y112.4820 E2.4995
G1 X148.3920 Y112.9300 E2.5203
G1 X148.5070 Y113.3980 E2.5410
G1 X148.5450 Y113.6900 E2.5537
G1 X148.5600 Y114.0310 E2.5684
G1 X148.5600 Y121.9530 E2.9099
G1 X148.5250 Y122.4800 E2.9327
G1 X148.4740 Y122.7700 E2.9454
G1 X148.3940 Y123.0700 E2.9587
G1 X148.2880 Y123.3620 E2.9721
G1 X148.1570 Y123.6430 E2.9855
G1 X148.0010 Y123.9120 E2.9989
G1 X147.8230 Y124.1660 E3.0123
G1 X147.6240 Y124.4040 E3.0257
G1 X147.4040 Y124.6240 E3.0390
G1 X147.1660 Y124.8230 E3.0524
G1 X146.9120 Y125.0010 E3.0658
G1 X146.6430 Y125.1570 E3.0792
G1 X146.3760 Y125.2810 E3.0919
G1 X145.9060 Y125.4410 E3.1133
G1 X145.6180 Y125.5050 E3.1260
G1 X145.3100 Y125.5450 E3.1394
G1 X144.9690 Y125.5600 E3.1541
G1 X91.0470 Y125.5600 E5.4784
G1 X90.5360 Y125.5260 E5.5005
G1 X90.0790 Y125.4360 E5.5206
G1 X89.6240 Y125.2810 E5.5413
G1 X89.3570 Y125.1570 E5.5540
G1 X89.1010 Y125.0090 E5.5667
G1 X88.7140 Y124.7250 E5.5874
G1 X88.3780 Y124.4030 E5.6075
G1 X88.0770 Y124.0280 E5.6282
G1 X87.9180 Y123.7790 E5.6409
G1 X87.7820 Y123.5180 E5.6536
G1 X87.6080 Y123.0690 E5.6744
G1 X87.4970 Y122.6180 E5.6944
G1 X87.4450 Y122.1390 E5.7152
G1 X87.4450 Y113.8450 E6.0727
G1 X87.4720 Y113.5350 E6.0861
G1 X87.5260 Y113.2300 E6.0995
G1 X87.6060 Y112.9300 E6.1128
G1 X87.7120 Y112.6380 E6.1262
G1 X87.8430 Y112.3570 E6.1396
G1 X87.9990 Y112.0880 E6.1530
G1 X88.1770 Y111.8340 E6.1664
G1 X88.3760 Y111.5960 E6.1798
G1 X88.5960 Y111.3760 E6.1931
G1 X88.8220 Y111.1870 E6.2058
G1 X89.2350 Y110.9110 E6.2272
G1 X89.4960 Y110.7750 E6.2400
G1 X89.7830 Y110.6560 E6.2533
G1 X90.0790 Y110.5630 E6.2667
G1 X90.3820 Y110.4950 E6.2801
G1 X90.6900 Y110.4550 E6.2935
G1 X91.0310 Y110.4400 E6.3082
G1 X91.0190 Y109.8640 F5000 ; custom feedrate
G92 E0.0000
G1 X144.9720 Y109.8640 E2.3256 F1200 ; custom feedrate
G1 X145.5400 Y109.9010 E2.3502
G1 X146.0700 Y110.0070 E2.3735
G1 X146.5820 Y110.1810 E2.3968
G1 X147.0760 Y110.4240 E2.4205
G1 X147.3720 Y110.6130 E2.4357
G1 X147.6500 Y110.8260 E2.4508
G1 X148.0480 Y111.2070 E2.4745
G1 X148.3920 Y111.6360 E2.4982
G1 X148.5810 Y111.9320 E2.5134
G1 X148.7430 Y112.2440 E2.5285
G1 X148.9430 Y112.7570 E2.5522
G1 X149.0740 Y113.2910 E2.5760
G1 X149.1190 Y113.6400 E2.5911
G1 X149.1360 Y114.0190 E2.6075
G1 X149.1360 Y121.9720 E2.9503
G1 X149.0980 Y122.5490 E2.9752
G1 X149.0370 Y122.8950 E2.9904
G1 X148.9440 Y123.2430 E3.0059
G1 X148.8200 Y123.5820 E3.0215
G1 X148.6680 Y123.9090 E3.0370
G1 X148.4880 Y124.2220 E3.0526
G1 X148.2810 Y124.5170 E3.0681
G1 X148.0490 Y124.7940 E3.0837
G1 X147.7940 Y125.0490 E3.0992
G1 X147.5170 Y125.2810 E3.1148
G1 X147.2220 Y125.4870 E3.1303
G1 X146.9090 Y125.6680 E3.1459
G1 X146.5910 Y125.8160 E3.1610
G1 X146.0610 Y125.9960 E3.1851
G1 X145.7180 Y126.0720 E3.2003
G1 X145.3600 Y126.1190 E3.2158
G1 X144.9810 Y126.1360 E3.2322
G1 X91.0280 Y126.1360 E5.5578
G1 X90.4600 Y126.0990 E5.5824
G1 X89.9300 Y125.9930 E5.6057
G1 X89.4090 Y125.8160 E5.6294
G1 X89.0910 Y125.6680 E5.6445
G1 X88.7860 Y125.4920 E5.6597
G1 X88.3430 Y125.1670 E5.6834
G1 X87.9520 Y124.7930 E5.7067
G1 X87.6080 Y124.3640 E5.7304
G1 X87.4190 Y124.0680 E5.7456
G1 X87.2570 Y123.7560 E5.7607
G1 X87.0570 Y123.2430 E5.7844
G1 X86.9290 Y122.7180 E5.8077
G1 X86.8690 Y122.1710 E5.8315
G1 X86.8690 Y113.8200 E6.1914
G1 X86.9000 Y113.4600 E6.2070
G1 X86.9630 Y113.1050 E6.2225
G1 X87.0560 Y112.7570 E6.2381
G1 X87.1800 Y112.4170 E6.2536
G1 X87.3320 Y112.0910 E6.2692
G1 X87.5120 Y111.7780 E6.2847
G1 X87.7190 Y111.4830 E6.3003
G1 X87.9510 Y111.2060 E6.3158
G1 X88.2060 Y110.9510 E6.3314
G1 X88.4750 Y110.7250 E6.3465
G1 X88.9410 Y110.4140 E6.3707
G1 X89.2520 Y110.2520 E6.3858
G1 X89.5860 Y110.1140 E6.4013
G1 X89.9300 Y110.0060 E6.4169
G1 X90.2820 Y109.9280 E6.4325
G1 X90.6400 Y109.8810 E6.4480
G1 X91.0190 Y109.8640 E6.4644
G1 X91.0060 Y109.2880 F5000 ; custom feedrate
G92 E0.0000
G1 X144.9910 Y109.2880 E2.3270 F900 ; custom feedrate
G1 X145.6150 Y109.3290 E2.3540
G1 X146.2190 Y109.4490 E2.3805
G1 X146.8030 Y109.6470 E2.4071
G1 X147.3590 Y109.9210 E2.4338
G1 X147.7030 Y110.1400 E2.4514
G1 X148.0260 Y110.3890 E2.4690
G1 X148.4740 Y110.8170 E2.4957
G1 X148.8610 Y111.3000 E2.5224
G1 X149.0800 Y111.6440 E2.5399
G1 X149.2690 Y112.0060 E2.5575
G1 X149.4930 Y112.5830 E2.5842
G1 X149.6410 Y113.1850 E2.6109
G1 X149.6940 Y113.5890 E2.6285
G1 X149.7120 Y114.0060 E2.6465
G1 X149.7120 Y121.9910 E2.9907
G1 X149.6710 Y122.6180 E3.0178
G1 X149.6000 Y123.0200 E3.0354
G1 X149.4940 Y123.4170 E3.0531
G1 X149.3530 Y123.8030 E3.0708
G1 X149.1790 Y124.1760 E3.0885
G1 X148.9740 Y124.5320 E3.1062
G1 X148.7380 Y124.8680 E3.1240
G1 X148.4740 Y125.1830 E3.1417
G1 X148.1830 Y125.4740 E3.1594
G1 X147.8680 Y125.7380 E3.1771
G1 X147.5320 Y125.9740 E3.1948
G1 X147.1760 Y126.1790 E3.2125
G1 X146.8060 Y126.3520 E3.2301
G1 X146.2160 Y126.5520 E3.2570
G1 X145.8180 Y126.6400 E3.2745
G1 X145.4110 Y126.6940 E3.2923
G1 X144.9940 Y126.7120 E3.3103
G1 X91.0090 Y126.7120 E5.6372
G1 X90.3850 Y126.6710 E5.6642
G1 X89.7810 Y126.5510 E5.6908
G1 X89.1940 Y126.3520 E5.7175
G1 X88.8240 Y126.1790 E5.7351
G1 X88.4710 Y125.9750 E5.7526
G1 X87.9720 Y125.6090 E5.7794
G1 X87.5260 Y125.1830 E5.8059
G1 X87.1390 Y124.7000 E5.8326
G1 X86.9200 Y124.3560 E5.8502
G1 X86.7310 Y123.9940 E5.8678
G1 X86.5070 Y123.4170 E5.8945
G1 X86.3600 Y122.8180 E5.9210
G1 X86.2930 Y122.2020 E5.9477
G1 X86.2930 Y113.7940 E6.3102
G1 X86.3290 Y113.3850 E6.3279
G1 X86.4000 Y112.9800 E6.3456
G1 X86.5060 Y112.5830 E6.3633
G1 X86.6470 Y112.1970 E6.3810
G1 X86.8210 Y111.8240 E6.3988
G1 X87.0260 Y111.4680 E6.4165
G1 X87.2620 Y111.1320 E6.4342
G1 X87.5260 Y110.8170 E6.4519
G1 X87.8170 Y110.5260 E6.4696
G1 X88.1290 Y110.2640 E6.4872
G1 X88.6470 Y109.9180 E6.5141
G1 X89.0090 Y109.7300 E6.5316
G1 X89.3890 Y109.5720 E6.5494
G1 X89.7810 Y109.4490 E6.5671
G1 X90.1820 Y109.3600 E6.5848
G1 X90.5890 Y109.3060 E6.6025
G1 X91.0060 Y109.2880 E6.6205
G1 X90.0250 Y125.0520 F5000 ; custom feedrate
G92 E0.0000
G1 X87.9380 Y122.9650 E0.1272 F1200 ; custom feedrate
G1 X87.8380 Y122.5580 E0.1453
G1 X87.7900 Y122.1210 E0.1643
G1 X87.7900 Y122.0030 E0.1693
G1 X90.9980 Y125.2100 E0.3649
G1 X91.0580 Y125.2140 E0.3675
G1 X91.8160 Y125.2140 E0.4002
G1 X87.7900 Y121.1880 E0.6456
G1 X87.7900 Y120.3740 E0.6807
G1 X92.6310 Y125.2140 E0.9758
G1 X93.4460 Y125.2140 E1.0109
G1 X87.7900 Y119.5590 E1.3556
G1 X87.7900 Y118.7450 E1.3907
G1 X94.2600 Y125.2140 E1.7851
G1 X95.0750 Y125.2140 E1.8202
G1 X87.7900 Y117.9300 E2.2643
G1 X87.7900 Y117.1150 E2.2994
G1 X95.8890 Y125.2140 E2.7931
G1 X96.7040 Y125.2140 E2.8282
G1 X87.7900 Y116.3010 E3.3716
G1 X87.7900 Y115.4860 E3.4067
G1 X97.5180 Y125.2140 E3.9997
G1 X98.3330 Y125.2140 E4.0348
G1 X87.7900 Y114.6720 E4.6775
G1 X87.7900 Y113.8600 E4.7125
G1 X99.1480 Y125.2140 E5.4050
G1 X99.9620 Y125.2140 E5.4401
G1 X87.9030 Y113.1560 E6.1752
G1 X87.9360 Y113.0340 E6.1806
G1 X88.0320 Y112.7700 E6.1927
G1 X88.1280 Y112.5650 E6.2024
G1 X100.7770 Y125.2140 E6.9735
G1 X101.5910 Y125.2140 E7.0087
G1 X88.4390 Y112.0620 E7.8104
G1 X88.4510 Y112.0440 E7.8114
G1 X88.6310 Y111.8300 E7.8234
G1 X88.8260 Y111.6350 E7.8353
G1 X102.4060 Y125.2140 E8.6631
G1 X103.2210 Y125.2140 E8.6983
G1 X89.2930 Y111.2870 E9.5473
G1 X89.4110 Y111.2090 E9.5533
G1 X89.6420 Y111.0880 E9.5646
G1 X89.8310 Y111.0100 E9.5734
G1 X104.0350 Y125.2140 E10.4393
G1 X104.8500 Y125.2140 E10.4744
G1 X90.4680 Y110.8330 E11.3511
G1 X90.7200 Y110.8000 E11.3620
G1 X91.0390 Y110.7860 E11.3758
G1 X91.2360 Y110.7860 E11.3843
G1 X105.6640 Y125.2140 E12.2639
G1 X106.4790 Y125.2140 E12.2990
G1 X92.0500 Y110.7860 E13.1786
G1 X92.8650 Y110.7860 E13.2137
G1 X107.2930 Y125.2140 E14.0932
G1 X108.1080 Y125.2140 E14.1284
G1 X93.6790 Y110.7860 E15.0079
G1 X94.4940 Y110.7860 E15.0430
G1 X108.9230 Y125.2140 E15.9226
G1 X109.7370 Y125.2140 E15.9577
G1 X95.3080 Y110.7860 E16.8373
G1 X96.1230 Y110.7860 E16.8724
G1 X110.5520 Y125.2140 E17.7520
G1 X111.3660 Y125.2140 E17.7871
G1 X96.9380 Y110.7860 E18.6667
G1 X97.7520 Y110.7860 E18.7018
G1 X112.1810 Y125.2140 E19.5814
G1 X112.9960 Y125.2140 E19.6165
G1 X98.5670 Y110.7860 E20.4961
G1 X99.3810 Y110.7860 E20.5312
G1 X113.8100 Y125.2140 E21.4108
G1 X114.6250 Y125.2140 E21.4459
G1 X100.1960 Y110.7860 E22.3255
G1 X101.0110 Y110.7860 E22.3606
G1 X115.4390 Y125.2140 E23.2402
G1 X116.2540 Y125.2140 E23.2753
G1 X101.8250 Y110.7860 E24.1548
G1 X102.6400 Y110.7860 E24.1900
G1 X117.0690 Y125.2140 E25.0695
G1 X117.8830 Y125.2140 E25.1046
G1 X103.4540 Y110.7860 E25.9842
G1 X104.2690 Y110.7860 E26.0193
G1 X118.6980 Y125.2140 E26.8989
G1 X119.5120 Y125.2140 E26.9340
G1 X105.0840 Y110.7860 E27.8136
G1 X105.8980 Y110.7860 E27.8487
G1 X120.3270 Y125.2140 E28.7283
G1 X121.1410 Y125.2140 E28.7634
G1 X106.7130 Y110.7860 E29.6430
G1 X107.5270 Y110.7860 E29.6781
G1 X121.9560 Y125.2140 E30.5577
G1 X122.7710 Y125.2140 E30.5928
G1 X108.3420 Y110.7860 E31.4724
G1 X109.1560 Y110.7860 E31.5075
G1 X123.5850 Y125.2140 E32.3871
G1 X124.4000 Y125.2140 E32.4222
G1 X109.9710 Y110.7860 E33.3017
G1 X110.7860 Y110.7860 E33.3369
G1 X125.2140 Y125.2140 E34.2164
G1 X126.0290 Y125.2140 E34.2516
G1 X111.6000 Y110.7860 E35.1311
G1 X112.4150 Y110.7860 E35.1662
G1 X126.8440 Y125.2140 E36.0458
G1 X127.6580 Y125.2140 E36.0809
G1 X113.2290 Y110.7860 E36.9605
G1 X114.0440 Y110.7860 E36.9956
G1 X128.4730 Y125.2140 E37.8752
G1 X129.2870 Y125.2140 E37.9103
G1 X114.8590 Y110.7860 E38.7899
G1 X115.6730 Y110.7860 E38.8250
G1 X130.1020 Y125.2140 E39.7046
G1 X130.9170 Y125.2140 E39.7397
G1 X116.4880 Y110.7860 E40.6193
G1 X117.3020 Y110.7860 E40.6544
G1 X131.7310 Y125.2140 E41.5340
G1 X132.5460 Y125.2140 E41.5691
G1 X118.1170 Y110.7860 E42.4487
G1 X118.9310 Y110.7860 E42.4838
G1 X133.3600 Y125.2140 E43.3633
G1 X134.1750 Y125.2140 E43.3985
G1 X119.7460 Y110.7860 E44.2780
G1 X120.5610 Y110.7860 E44.3131
G1 X134.9890 Y125.2140 E45.1927
G1 X135.8040 Y125.2140 E45.2278
G1 X121.3750 Y110.7860 E46.1074
G1 X122.1900 Y110.7860 E46.1425
G1 X136.6190 Y125.2140 E47.0221
G1 X137.4330 Y125.2140 E47.0572
G1 X123.0040 Y110.7860 E47.9368
G1 X123.8190 Y110.7860 E47.9719
G1 X138.2480 Y125.2140 E48.8515
G1 X139.0620 Y125.2140 E48.8866
G1 X124.6340 Y110.7860 E49.7662
G1 X125.4480 Y110.7860 E49.8013
G1 X139.8770 Y125.2140 E50.6809
G1 X140.6920 Y125.2140 E50.7160
G1 X126.2630 Y110.7860 E51.5956
G1 X127.0770 Y110.7860 E51.6307
G1 X141.5060 Y125.2140 E52.5103
G1 X142.3210 Y125.2140 E52.5454
G1 X127.8920 Y110.7860 E53.4249
G1 X128.7070 Y110.7860 E53.4601
G1 X143.1350 Y125.2140 E54.3396
G1 X143.9500 Y125.2140 E54.3747
G1 X129.5210 Y110.7860 E55.2543
G1 X130.3360 Y110.7860 E55.2894
G1 X144.7650 Y125.2140 E56.1690
G1 X144.9610 Y125.2140 E56.1775
G1 X145.2800 Y125.2000 E56.1912
G1 X145.5320 Y125.1670 E56.2022
G1 X131.1500 Y110.7860 E57.0789
G1 X131.9650 Y110.7860 E57.1140
G1 X146.1670 Y124.9870 E57.9798
G1 X146.2470 Y124.9600 E57.9834
G1 X146.4830 Y124.8500 E57.9947
G1 X146.7120 Y124.7180 E58.0060
G1 X132.7790 Y110.7860 E58.8553
G1 X133.5940 Y110.7860 E58.8904
G1 X147.1740 Y124.3650 E59.7183
G1 X147.3690 Y124.1700 E59.7301
G1 X147.5490 Y123.9560 E59.7422
G1 X147.5610 Y123.9380 E59.7432
G1 X134.4090 Y110.7860 E60.5449
G1 X135.2230 Y110.7860 E60.5800
G1 X147.8720 Y123.4350 E61.3511
G1 X147.9680 Y123.2290 E61.3609
G1 X148.0640 Y122.9660 E61.3730
G1 X148.0970 Y122.8440 E61.3784
G1 X136.0380 Y110.7860 E62.1135
G1 X136.8520 Y110.7860 E62.1486
G1 X148.2020 Y122.1350 E62.8405
G1 X148.2140 Y121.9420 E62.8488
G1 X148.2140 Y121.3330 E62.8751
G1 X137.6670 Y110.7860 E63.5180
G1 X138.4820 Y110.7860 E63.5531
G1 X148.2140 Y120.5180 E64.1465
G1 X148.2140 Y119.7040 E64.1816
G1 X139.2960 Y110.7860 E64.7252
G1 X140.1110 Y110.7860 E64.7603
G1 X148.2140 Y118.8890 E65.2543
G1 X148.2140 Y118.0750 E65.2895
G1 X140.9250 Y110.7860 E65.7338
G1 X141.7400 Y110.7860 E65.7689
G1 X148.2140 Y117.2600 E66.1636
G1 X148.2140 Y116.4450 E66.1987
G1 X142.5550 Y110.7860 E66.5437
G1 X143.3690 Y110.7860 E66.5788
G1 X148.2140 Y115.6310 E66.8742
G1 X148.2140 Y114.8160 E66.9093
G1 X144.1840 Y110.7860 E67.1550
G1 X144.9420 Y110.7860 E67.1877
G1 X145.0020 Y110.7900 E67.1903
G1 X148.2130 Y114.0000 E67.3860
G1 X148.2000 Y113.7200 E67.3981
G1 X148.1660 Y113.4610 E67.4094
G1 X148.0620 Y113.0350 E67.4283
G1 X145.9750 Y110.9480 E67.5555
G92 E0.0000
G1 E-4 F2400 ; custom retraction - A
;layer 2, Z = 0.400
M106 S0; custom fan 0% from layer 2
G1 Z0.400 F1200
G1 X91.0260 Y110.2000 F5000 ; custom feedrate
G1 E0 F2400 ; custom un-retraction/prime - A
G92 E0.0000
G1 X144.9610 Y110.2000 E1.9374 F2400 ; custom feedrate
G1 X145.4960 Y110.2350 E1.9566
G1 X145.9830 Y110.3320 E1.9745
G1 X146.4530 Y110.4920 E1.9923
G1 X146.9110 Y110.7170 E2.0106
G1 X147.1790 Y110.8880 E2.0221
G1 X147.4310 Y111.0820 E2.0335
G1 X147.8000 Y111.4340 E2.0518
G1 X148.1190 Y111.8320 E2.0701
G1 X148.2900 Y112.1010 E2.0816
G1 X148.4370 Y112.3830 E2.0930
G1 X148.6220 Y112.8580 E2.1113
G1 X148.7430 Y113.3530 E2.1296
G1 X148.7840 Y113.6690 E2.1411
G1 X148.8000 Y114.0260 E2.1539
G1 X148.8000 Y121.9610 E2.4389
G1 X148.7640 Y122.5090 E2.4587
G1 X148.7090 Y122.8220 E2.4701
G1 X148.6230 Y123.1420 E2.4820
G1 X148.5100 Y123.4540 E2.4939
G1 X148.3700 Y123.7540 E2.5058
G1 X148.2040 Y124.0410 E2.5177
G1 X148.0140 Y124.3130 E2.5296
G1 X147.8010 Y124.5670 E2.5415
G1 X147.5670 Y124.8010 E2.5534
G1 X147.3130 Y125.0140 E2.5653
G1 X147.0410 Y125.2040 E2.5772
G1 X146.7540 Y125.3700 E2.5891
G1 X146.4660 Y125.5040 E2.6006
G1 X145.9700 Y125.6720 E2.6194
G1 X145.6600 Y125.7410 E2.6308
G1 X145.3310 Y125.7840 E2.6427
G1 X144.9740 Y125.8000 E2.6555
G1 X91.0390 Y125.8000 E4.5929
G1 X90.5040 Y125.7650 E4.6122
G1 X90.0170 Y125.6680 E4.6300
G1 X89.5340 Y125.5040 E4.6483
G1 X89.2460 Y125.3700 E4.6598
G1 X88.9700 Y125.2100 E4.6712
G1 X88.5590 Y124.9090 E4.6895
G1 X88.2000 Y124.5660 E4.7074
G1 X87.8810 Y124.1680 E4.7257
G1 X87.7100 Y123.8990 E4.7371
G1 X87.5630 Y123.6170 E4.7485
G1 X87.3780 Y123.1420 E4.7669
G1 X87.2600 Y122.6600 E4.7847
G1 X87.2050 Y122.1520 E4.8030
G1 X87.2050 Y113.8340 E5.1018
G1 X87.2340 Y113.5040 E5.1137
G1 X87.2910 Y113.1780 E5.1256
G1 X87.3770 Y112.8580 E5.1375
G1 X87.4900 Y112.5460 E5.1494
G1 X87.6300 Y112.2460 E5.1613
G1 X87.7960 Y111.9590 E5.1732
G1 X87.9860 Y111.6870 E5.1851
G1 X88.1990 Y111.4330 E5.1970
G1 X88.4340 Y111.1990 E5.2089
G1 X88.6770 Y110.9950 E5.2204
G1 X89.1120 Y110.7040 E5.2392
G1 X89.3950 Y110.5570 E5.2506
G1 X89.7010 Y110.4300 E5.2625
G1 X90.0170 Y110.3310 E5.2744
G1 X90.3400 Y110.2590 E5.2863
G1 X90.6690 Y110.2160 E5.2982
G1 X91.0260 Y110.2000 E5.3111
G1 X91.0160 Y109.7200 F5000 ; custom feedrate
G92 E0.0000
G1 X144.9770 Y109.7200 E1.9383 F2400 ; custom feedrate
G1 X145.5580 Y109.7580 E1.9593
G1 X146.1070 Y109.8670 E1.9794
G1 X146.6370 Y110.0470 E1.9995
G1 X147.1460 Y110.2980 E2.0199
G1 X147.4540 Y110.4950 E2.0330
G1 X147.7440 Y110.7170 E2.0461
G1 X148.1540 Y111.1090 E2.0665
G1 X148.5100 Y111.5520 E2.0869
G1 X148.7060 Y111.8600 E2.1000
G1 X148.8750 Y112.1850 E2.1132
G1 X149.0800 Y112.7130 E2.1335
G1 X149.2150 Y113.2650 E2.1539
G1 X149.2630 Y113.6270 E2.1670
G1 X149.2800 Y114.0160 E2.1810
G1 X149.2800 Y121.9770 E2.4670
G1 X149.2410 Y122.5660 E2.4882
G1 X149.1780 Y122.9260 E2.5013
G1 X149.0810 Y123.2870 E2.5147
G1 X148.9540 Y123.6380 E2.5282
G1 X148.7960 Y123.9760 E2.5416
G1 X148.6090 Y124.2990 E2.5550
G1 X148.3950 Y124.6050 E2.5684
G1 X148.1550 Y124.8910 E2.5818
G1 X147.8910 Y125.1550 E2.5952
G1 X147.6050 Y125.3950 E2.6086
G1 X147.2990 Y125.6090 E2.6220
G1 X146.9760 Y125.7960 E2.6354
G1 X146.6450 Y125.9500 E2.6486
G1 X146.1000 Y126.1350 E2.6692
G1 X145.7430 Y126.2140 E2.6824
G1 X145.3730 Y126.2630 E2.6958
G1 X144.9840 Y126.2800 E2.7097
G1 X91.0230 Y126.2800 E4.6481
G1 X90.4420 Y126.2420 E4.6690
G1 X89.8930 Y126.1330 E4.6891
G1 X89.3550 Y125.9500 E4.7095
G1 X89.0240 Y125.7960 E4.7226
G1 X88.7080 Y125.6130 E4.7358
G1 X88.2500 Y125.2780 E4.7561
G1 X87.8460 Y124.8900 E4.7763
G1 X87.4900 Y124.4480 E4.7966
G1 X87.2940 Y124.1400 E4.8098
G1 X87.1250 Y123.8160 E4.8229
G1 X86.9200 Y123.2860 E4.8433
G1 X86.7870 Y122.7430 E4.8634
G1 X86.7250 Y122.1790 E4.8838
G1 X86.7250 Y113.8130 E5.1843
G1 X86.7570 Y113.4420 E5.1977
G1 X86.8220 Y113.0740 E5.2111
G1 X86.9190 Y112.7130 E5.2245
G1 X87.0460 Y112.3620 E5.2379
G1 X87.2040 Y112.0240 E5.2513
G1 X87.3910 Y111.7010 E5.2647
G1 X87.6050 Y111.3950 E5.2781
G1 X87.8450 Y111.1090 E5.2915
G1 X88.1090 Y110.8450 E5.3050
G1 X88.3890 Y110.6100 E5.3181
G1 X88.8670 Y110.2900 E5.3388
G1 X89.1920 Y110.1220 E5.3519
G1 X89.5370 Y109.9790 E5.3653
G1 X89.8920 Y109.8670 E5.3787
G1 X90.2570 Y109.7860 E5.3921
G1 X90.6270 Y109.7370 E5.4055
G1 X91.0160 Y109.7200 E5.4195
G1 X91.0050 Y109.2400 F5000 ; custom feedrate
G92 E0.0000
G1 X144.9920 Y109.2400 E1.9393 F1800 ; custom feedrate
G1 X145.6210 Y109.2810 E1.9619
G1 X146.2320 Y109.4030 E1.9843
G1 X146.8210 Y109.6030 E2.0066
G1 X147.3820 Y109.8790 E2.0291
G1 X147.7300 Y110.1010 E2.0439
G1 X148.0570 Y110.3520 E2.0587
G1 X148.5090 Y110.7850 E2.0812
G1 X148.9000 Y111.2720 E2.1036
G1 X149.1220 Y111.6200 E2.1185
G1 X149.3130 Y111.9860 E2.1333
G1 X149.5390 Y112.5690 E2.1558
G1 X149.6880 Y113.1760 E2.1782
G1 X149.7420 Y113.5850 E2.1930
G1 X149.7600 Y114.0050 E2.2081
G1 X149.7600 Y121.9920 E2.4950
G1 X149.7190 Y122.6240 E2.5178
G1 X149.6470 Y123.0300 E2.5326
G1 X149.5390 Y123.4310 E2.5475
G1 X149.3970 Y123.8220 E2.5624
G1 X149.2220 Y124.1980 E2.5773
G1 X149.0140 Y124.5570 E2.5923
G1 X148.7760 Y124.8980 E2.6072
G1 X148.5090 Y125.2160 E2.6221
G1 X148.2160 Y125.5090 E2.6370
G1 X147.8980 Y125.7760 E2.6519
G1 X147.5570 Y126.0140 E2.6668
G1 X147.1980 Y126.2220 E2.6817
G1 X146.8240 Y126.3960 E2.6966
G1 X146.2290 Y126.5980 E2.7191
G1 X145.8270 Y126.6870 E2.7339
G1 X145.4150 Y126.7420 E2.7489
G1 X144.9950 Y126.7600 E2.7640
G1 X91.0080 Y126.7600 E4.7032
G1 X90.3790 Y126.7190 E4.7259
G1 X89.7680 Y126.5970 E4.7482
G1 X89.1760 Y126.3960 E4.7707
G1 X88.8020 Y126.2220 E4.7855
G1 X88.4450 Y126.0160 E4.8003
G1 X87.9410 Y125.6460 E4.8228
G1 X87.4910 Y125.2150 E4.8452
G1 X87.1000 Y124.7280 E4.8676
G1 X86.8780 Y124.3800 E4.8824
G1 X86.6870 Y124.0140 E4.8973
G1 X86.4610 Y123.4310 E4.9197
G1 X86.3130 Y122.8260 E4.9421
G1 X86.2450 Y122.2050 E4.9645
G1 X86.2450 Y113.7920 E5.2667
G1 X86.2810 Y113.3790 E5.2816
G1 X86.3530 Y112.9700 E5.2966
G1 X86.4600 Y112.5690 E5.3115
G1 X86.6030 Y112.1790 E5.3264
G1 X86.7780 Y111.8020 E5.3413
G1 X86.9860 Y111.4420 E5.3562
G1 X87.2240 Y111.1020 E5.3711
G1 X87.4910 Y110.7840 E5.3860
G1 X87.7840 Y110.4910 E5.4010
G1 X88.1000 Y110.2250 E5.4158
G1 X88.6220 Y109.8770 E5.4383
G1 X88.9880 Y109.6860 E5.4532
G1 X89.3720 Y109.5270 E5.4681
G1 X89.7680 Y109.4020 E5.4830
G1 X90.1730 Y109.3130 E5.4979
G1 X90.5850 Y109.2580 E5.5128
G1 X91.0050 Y109.2400 E5.5279
G1 X87.6130 Y113.0880 F5000 ; custom feedrate
G92 E0.0000
G1 X90.0920 Y110.6090 E0.1259 F2400 ; custom feedrate
G1 X90.3900 Y110.5430 E0.1369
G1 X90.6940 Y110.5030 E0.1479
G1 X90.8860 Y110.4940 E0.1548
G1 X87.4930 Y113.8870 E0.3271
G1 X87.4930 Y114.5660 E0.3515
G1 X91.5710 Y110.4880 E0.5587
G1 X92.2500 Y110.4880 E0.5831
G1 X87.4930 Y115.2450 E0.8247
G1 X87.4930 Y115.9240 E0.8491
G1 X92.9290 Y110.4880 E1.1253
G1 X93.6070 Y110.4880 E1.1496
G1 X87.4930 Y116.6030 E1.4603
G1 X87.4930 Y117.2810 E1.4847
G1 X94.2860 Y110.4880 E1.8298
G1 X94.9650 Y110.4880 E1.8541
G1 X87.4930 Y117.9600 E2.2337
G1 X87.4930 Y118.6390 E2.2581
G1 X95.6440 Y110.4880 E2.6722
G1 X96.3230 Y110.4880 E2.6966
G1 X87.4930 Y119.3180 E3.1451
G1 X87.4930 Y119.9970 E3.1695
G1 X97.0010 Y110.4880 E3.6526
G1 X97.6800 Y110.4880 E3.6769
G1 X87.4930 Y120.6760 E4.1945
G1 X87.4930 Y121.3540 E4.2189
G1 X98.3590 Y110.4880 E4.7709
G1 X99.0380 Y110.4880 E4.7953
G1 X87.4930 Y122.0330 E5.3817
G1 X87.4930 Y122.1370 E5.3855
G1 X87.5440 Y122.6090 E5.4025
G1 X87.5550 Y122.6500 E5.4041
G1 X99.7170 Y110.4880 E6.0219
G1 X100.3960 Y110.4880 E6.0463
G1 X87.7030 Y123.1810 E6.6911
G1 X87.8260 Y123.4980 E6.7033
G1 X87.9070 Y123.6550 E6.7097
G1 X101.0740 Y110.4880 E7.3785
G1 X101.7530 Y110.4880 E7.4029
G1 X88.1720 Y124.0700 E8.0929
G1 X88.4130 Y124.3700 E8.1067
G1 X88.4830 Y124.4370 E8.1102
G1 X102.4320 Y110.4880 E8.8188
G1 X103.1110 Y110.4880 E8.8432
G1 X88.8410 Y124.7580 E9.5681
G1 X89.1280 Y124.9690 E9.5809
G1 X89.2430 Y125.0350 E9.5857
G1 X103.7900 Y110.4880 E10.3247
G1 X104.4690 Y110.4880 E10.3491
G1 X89.7000 Y125.2560 E11.0993
G1 X90.0920 Y125.3890 E11.1141
G1 X90.2210 Y125.4150 E11.1189
G1 X105.1470 Y110.4880 E11.8771
G1 X105.8260 Y110.4880 E11.9015
G1 X90.8170 Y125.4970 E12.6640
G1 X91.0490 Y125.5120 E12.6723
G1 X91.4810 Y125.5120 E12.6878
G1 X106.5050 Y110.4880 E13.4510
G1 X107.1840 Y110.4880 E13.4754
G1 X92.1600 Y125.5120 E14.2386
G1 X92.8390 Y125.5120 E14.2630
G1 X107.8630 Y110.4880 E15.0262
G1 X108.5410 Y110.4880 E15.0506
G1 X93.5170 Y125.5120 E15.8138
G1 X94.1960 Y125.5120 E15.8382
G1 X109.2200 Y110.4880 E16.6014
G1 X109.8990 Y110.4880 E16.6258
G1 X94.8750 Y125.5120 E17.3891
G1 X95.5540 Y125.5120 E17.4134
G1 X110.5780 Y110.4880 E18.1767
G1 X111.2570 Y110.4880 E18.2010
G1 X96.2330 Y125.5120 E18.9643
G1 X96.9120 Y125.5120 E18.9886
G1 X111.9360 Y110.4880 E19.7519
G1 X112.6140 Y110.4880 E19.7762
G1 X97.5900 Y125.5120 E20.5395
G1 X98.2690 Y125.5120 E20.5638
G1 X113.2930 Y110.4880 E21.3271
G1 X113.9720 Y110.4880 E21.3514
G1 X98.9480 Y125.5120 E22.1147
G1 X99.6270 Y125.5120 E22.1390
G1 X114.6510 Y110.4880 E22.9023
G1 X115.3300 Y110.4880 E22.9266
G1 X100.3060 Y125.5120 E23.6899
G1 X100.9850 Y125.5120 E23.7142
G1 X116.0090 Y110.4880 E24.4775
G1 X116.6870 Y110.4880 E24.5018
G1 X101.6630 Y125.5120 E25.2651
G1 X102.3420 Y125.5120 E25.2894
G1 X117.3660 Y110.4880 E26.0527
G1 X118.0450 Y110.4880 E26.0771
G1 X103.0210 Y125.5120 E26.8403
G1 X103.7000 Y125.5120 E26.8647
G1 X118.7240 Y110.4880 E27.6279
G1 X119.4030 Y110.4880 E27.6523
G1 X104.3790 Y125.5120 E28.4155
G1 X105.0570 Y125.5120 E28.4399
G1 X120.0810 Y110.4880 E29.2031
G1 X120.7600 Y110.4880 E29.2275
G1 X105.7360 Y125.5120 E29.9907
G1 X106.4150 Y125.5120 E30.0151
G1 X121.4390 Y110.4880 E30.7783
G1 X122.1180 Y110.4880 E30.8027
G1 X107.0940 Y125.5120 E31.5659
G1 X107.7730 Y125.5120 E31.5903
G1 X122.7970 Y110.4880 E32.3535
G1 X123.4760 Y110.4880 E32.3779
G1 X108.4520 Y125.5120 E33.1411
G1 X109.1300 Y125.5120 E33.1655
G1 X124.1540 Y110.4880 E33.9287
G1 X124.8330 Y110.4880 E33.9531
G1 X109.8090 Y125.5120 E34.7163
G1 X110.4880 Y125.5120 E34.7407
G1 X125.5120 Y110.4880 E35.5039
G1 X126.1910 Y110.4880 E35.5283
G1 X111.1670 Y125.5120 E36.2915
G1 X111.8460 Y125.5120 E36.3159
G1 X126.8700 Y110.4880 E37.0791
G1 X127.5490 Y110.4880 E37.1035
G1 X112.5250 Y125.5120 E37.8667
G1 X113.2030 Y125.5120 E37.8911
G1 X128.2270 Y110.4880 E38.6543
G1 X128.9060 Y110.4880 E38.6787
G1 X113.8820 Y125.5120 E39.4419
G1 X114.5610 Y125.5120 E39.4663
G1 X129.5850 Y110.4880 E40.2295
G1 X130.2640 Y110.4880 E40.2539
G1 X115.2400 Y125.5120 E41.0171
G1 X115.9190 Y125.5120 E41.0415
G1 X130.9430 Y110.4880 E41.8047
G1 X131.6210 Y110.4880 E41.8291
G1 X116.5970 Y125.5120 E42.5923
G1 X117.2760 Y125.5120 E42.6167
G1 X132.3000 Y110.4880 E43.3799
G1 X132.9790 Y110.4880 E43.4043
G1 X117.9550 Y125.5120 E44.1675
G1 X118.6340 Y125.5120 E44.1919
G1 X133.6580 Y110.4880 E44.9551
G1 X134.3370 Y110.4880 E44.9795
G1 X119.3130 Y125.5120 E45.7427
G1 X119.9920 Y125.5120 E45.7671
G1 X135.0160 Y110.4880 E46.5303
G1 X135.6940 Y110.4880 E46.5547
G1 X120.6700 Y125.5120 E47.3179
G1 X121.3490 Y125.5120 E47.3423
G1 X136.3730 Y110.4880 E48.1055
G1 X137.0520 Y110.4880 E48.1299
G1 X122.0280 Y125.5120 E48.8931
G1 X122.7070 Y125.5120 E48.9175
G1 X137.7310 Y110.4880 E49.6807
G1 X138.4100 Y110.4880 E49.7051
G1 X123.3860 Y125.5120 E50.4683
G1 X124.0640 Y125.5120 E50.4927
G1 X139.0880 Y110.4880 E51.2559
G1 X139.7670 Y110.4880 E51.2803
G1 X124.7430 Y125.5120 E52.0435
G1 X125.4220 Y125.5120 E52.0679
G1 X140.4460 Y110.4880 E52.8311
G1 X141.1250 Y110.4880 E52.8555
G1 X126.1010 Y125.5120 E53.6187
G1 X126.7800 Y125.5120 E53.6431
G1 X141.8040 Y110.4880 E54.4063
G1 X142.4830 Y110.4880 E54.4307
G1 X127.4590 Y125.5120 E55.1939
G1 X128.1370 Y125.5120 E55.2183
G1 X143.1610 Y110.4880 E55.9815
G1 X143.8400 Y110.4880 E56.0059
G1 X128.8160 Y125.5120 E56.7691
G1 X129.4950 Y125.5120 E56.7935
G1 X144.5190 Y110.4880 E57.5567
G1 X144.9510 Y110.4880 E57.5722
G1 X145.1830 Y110.5030 E57.5806
G1 X130.1740 Y125.5120 E58.3430
G1 X130.8530 Y125.5120 E58.3674
G1 X145.7800 Y110.5850 E59.1257
G1 X145.9080 Y110.6110 E59.1304
G1 X146.3000 Y110.7440 E59.1453
G1 X131.5320 Y125.5120 E59.8955
G1 X132.2100 Y125.5120 E59.9199
G1 X146.7590 Y110.9630 E60.6589
G1 X146.7690 Y110.9680 E60.6593
G1 X147.0140 Y111.1240 E60.6698
G1 X147.1630 Y111.2390 E60.6765
G1 X132.8890 Y125.5120 E61.4016
G1 X133.5680 Y125.5120 E61.4260
G1 X147.5170 Y111.5630 E62.1346
G1 X147.5870 Y111.6290 E62.1381
G1 X147.8280 Y111.9300 E62.1519
G1 X134.2470 Y125.5120 E62.8419
G1 X134.9260 Y125.5120 E62.8663
G1 X148.0930 Y112.3450 E63.5351
G1 X148.1740 Y112.5020 E63.5415
G1 X148.2970 Y112.8190 E63.5537
G1 X135.6040 Y125.5120 E64.1985
G1 X136.2830 Y125.5120 E64.2229
G1 X148.4460 Y113.3500 E64.8407
G1 X148.4590 Y113.4060 E64.8428
G1 X148.4970 Y113.6940 E64.8532
G1 X148.5090 Y113.9650 E64.8630
G1 X136.9620 Y125.5120 E65.4496
G1 X137.6410 Y125.5120 E65.4740
G1 X148.5120 Y114.6410 E66.0262
G1 X148.5120 Y115.3200 E66.0506
G1 X138.3200 Y125.5120 E66.5684
G1 X138.9990 Y125.5120 E66.5927
G1 X148.5120 Y115.9990 E67.0760
G1 X148.5120 Y116.6770 E67.1004
G1 X139.6770 Y125.5120 E67.5492
G1 X140.3560 Y125.5120 E67.5736
G1 X148.5120 Y117.3560 E67.9879
G1 X148.5120 Y118.0350 E68.0123
G1 X141.0350 Y125.5120 E68.3921
G1 X141.7140 Y125.5120 E68.4165
G1 X148.5120 Y118.7140 E68.7618
G1 X148.5120 Y119.3930 E68.7862
G1 X142.3930 Y125.5120 E69.0971
G1 X143.0720 Y125.5120 E69.1215
G1 X148.5120 Y120.0720 E69.3978
G1 X148.5120 Y120.7500 E69.4222
G1 X143.7500 Y125.5120 E69.6641
G1 X144.4290 Y125.5120 E69.6885
G1 X148.5120 Y121.4290 E69.8959
G1 X148.5120 Y121.9510 E69.9147
G1 X148.5010 Y122.1190 E69.9207
G1 X145.1140 Y125.5060 E70.0927
G1 X145.3060 Y125.4970 E70.0996
G1 X145.6100 Y125.4570 E70.1106
G1 X145.8930 Y125.3940 E70.1210
G1 X145.9100 Y125.3880 E70.1217
G1 X148.3870 Y122.9120 E70.2475
G92 E0.0000
G1 E-4 F2400 ; custom retraction - A
;layer 3, Z = 0.600
;fan3;
G1 Z0.600 F1200
G1 X91.0260 Y110.2000 F5000 ; custom feedrate
G1 E0 F2400 ; custom un-retraction/prime - A
G92 E0.0000
G1 X144.9610 Y110.2000 E1.9374 F2400 ; custom feedrate
G1 X145.4960 Y110.2350 E1.9566
G1 X145.9830 Y110.3320 E1.9745
G1 X146.4530 Y110.4920 E1.9923
G1 X146.9110 Y110.7170 E2.0106
G1 X147.1790 Y110.8880 E2.0221
G1 X147.4310 Y111.0820 E2.0335
G1 X147.8000 Y111.4340 E2.0518
G1 X148.1190 Y111.8320 E2.0701
G1 X148.2900 Y112.1010 E2.0816
G1 X148.4370 Y112.3830 E2.0930
G1 X148.6220 Y112.8580 E2.1113
G1 X148.7430 Y113.3530 E2.1296
G1 X148.7840 Y113.6690 E2.1411
G1 X148.8000 Y114.0260 E2.1539
G1 X148.8000 Y121.9610 E2.4389
G1 X148.7640 Y122.5090 E2.4587
G1 X148.7090 Y122.8220 E2.4701
G1 X148.6230 Y123.1420 E2.4820
G1 X148.5100 Y123.4540 E2.4939
G1 X148.3700 Y123.7540 E2.5058
G1 X148.2040 Y124.0410 E2.5177
G1 X148.0140 Y124.3130 E2.5296
G1 X147.8010 Y124.5670 E2.5415
G1 X147.5670 Y124.8010 E2.5534
G1 X147.3130 Y125.0140 E2.5653
G1 X147.0410 Y125.2040 E2.5772
G1 X146.7540 Y125.3700 E2.5891
G1 X146.4660 Y125.5040 E2.6006
G1 X145.9700 Y125.6720 E2.6194
G1 X145.6600 Y125.7410 E2.6308
G1 X145.3310 Y125.7840 E2.6427
G1 X144.9740 Y125.8000 E2.6555
G1 X91.0390 Y125.8000 E4.5929
G1 X90.5040 Y125.7650 E4.6122
G1 X90.0170 Y125.6680 E4.6300
G1 X89.5340 Y125.5040 E4.6483
G1 X89.2460 Y125.3700 E4.6598
G1 X88.9700 Y125.2100 E4.6712
G1 X88.5590 Y124.9090 E4.6895
G1 X88.2000 Y124.5660 E4.7074
G1 X87.8810 Y124.1680 E4.7257
G1 X87.7100 Y123.8990 E4.7371
G1 X87.5630 Y123.6170 E4.7485
G1 X87.3780 Y123.1420 E4.7669
G1 X87.2600 Y122.6600 E4.7847
G1 X87.2050 Y122.1520 E4.8030
G1 X87.2050 Y113.8340 E5.1018
G1 X87.2340 Y113.5040 E5.1137
G1 X87.2910 Y113.1780 E5.1256
G1 X87.3770 Y112.8580 E5.1375
G1 X87.4900 Y112.5460 E5.1494
G1 X87.6300 Y112.2460 E5.1613
G1 X87.7960 Y111.9590 E5.1732
G1 X87.9860 Y111.6870 E5.1851
G1 X88.1990 Y111.4330 E5.1970
G1 X88.4340 Y111.1990 E5.2089
G1 X88.6770 Y110.9950 E5.2204
G1 X89.1120 Y110.7040 E5.2392
G1 X89.3950 Y110.5570 E5.2506
G1 X89.7010 Y110.4300 E5.2625
G1 X90.0170 Y110.3310 E5.2744
G1 X90.3400 Y110.2590 E5.2863
G1 X90.6690 Y110.2160 E5.2982
G1 X91.0260 Y110.2000 E5.3111
G1 X91.0160 Y109.7200 F5000 ; custom feedrate
G92 E0.0000
G1 X144.9770 Y109.7200 E1.9383 F2400 ; custom feedrate
G1 X145.5580 Y109.7580 E1.9593
G1 X146.1070 Y109.8670 E1.9794
G1 X146.6370 Y110.0470 E1.9995
G1 X147.1460 Y110.2980 E2.0199
G1 X147.4540 Y110.4950 E2.0330
G1 X147.7440 Y110.7170 E2.0461
G1 X148.1540 Y111.1090 E2.0665
G1 X148.5100 Y111.5520 E2.0869
G1 X148.7060 Y111.8600 E2.1000
G1 X148.8750 Y112.1850 E2.1132
G1 X149.0800 Y112.7130 E2.1335
G1 X149.2150 Y113.2650 E2.1539
G1 X149.2630 Y113.6270 E2.1670
G1 X149.2800 Y114.0160 E2.1810
G1 X149.2800 Y121.9770 E2.4670
G1 X149.2410 Y122.5660 E2.4882
G1 X149.1780 Y122.9260 E2.5013
G1 X149.0810 Y123.2870 E2.5147
G1 X148.9540 Y123.6380 E2.5282
G1 X148.7960 Y123.9760 E2.5416
G1 X148.6090 Y124.2990 E2.5550
G1 X148.3950 Y124.6050 E2.5684
G1 X148.1550 Y124.8910 E2.5818
G1 X147.8910 Y125.1550 E2.5952
G1 X147.6050 Y125.3950 E2.6086
G1 X147.2990 Y125.6090 E2.6220
G1 X146.9760 Y125.7960 E2.6354
G1 X146.6450 Y125.9500 E2.6486
G1 X146.1000 Y126.1350 E2.6692
G1 X145.7430 Y126.2140 E2.6824
G1 X145.3730 Y126.2630 E2.6958
G1 X144.9840 Y126.2800 E2.7097
G1 X91.0230 Y126.2800 E4.6481
G1 X90.4420 Y126.2420 E4.6690
G1 X89.8930 Y126.1330 E4.6891
G1 X89.3550 Y125.9500 E4.7095
G1 X89.0240 Y125.7960 E4.7226
G1 X88.7080 Y125.6130 E4.7358
G1 X88.2500 Y125.2780 E4.7561
G1 X87.8460 Y124.8900 E4.7763
G1 X87.4900 Y124.4480 E4.7966
G1 X87.2940 Y124.1400 E4.8098
G1 X87.1250 Y123.8160 E4.8229
G1 X86.9200 Y123.2860 E4.8433
G1 X86.7870 Y122.7430 E4.8634
G1 X86.7250 Y122.1790 E4.8838
G1 X86.7250 Y113.8130 E5.1843
G1 X86.7570 Y113.4420 E5.1977
G1 X86.8220 Y113.0740 E5.2111
G1 X86.9190 Y112.7130 E5.2245
G1 X87.0460 Y112.3620 E5.2379
G1 X87.2040 Y112.0240 E5.2513
G1 X87.3910 Y111.7010 E5.2647
G1 X87.6050 Y111.3950 E5.2781
G1 X87.8450 Y111.1090 E5.2915
G1 X88.1090 Y110.8450 E5.3050
G1 X88.3890 Y110.6100 E5.3181
G1 X88.8670 Y110.2900 E5.3388
G1 X89.1920 Y110.1220 E5.3519
G1 X89.5370 Y109.9790 E5.3653
G1 X89.8920 Y109.8670 E5.3787
G1 X90.2570 Y109.7860 E5.3921
G1 X90.6270 Y109.7370 E5.4055
G1 X91.0160 Y109.7200 E5.4195
G1 X91.0050 Y109.2400 F5000 ; custom feedrate
G92 E0.0000
G1 X144.9920 Y109.2400 E1.9393 F1800 ; custom feedrate
G1 X145.6210 Y109.2810 E1.9619
G1 X146.2320 Y109.4030 E1.9843
G1 X146.8210 Y109.6030 E2.0066
G1 X147.3820 Y109.8790 E2.0291
G1 X147.7300 Y110.1010 E2.0439
G1 X148.0570 Y110.3520 E2.0587
G1 X148.5090 Y110.7850 E2.0812
G1 X148.9000 Y111.2720 E2.1036
G1 X149.1220 Y111.6200 E2.1185
G1 X149.3130 Y111.9860 E2.1333
G1 X149.5390 Y112.5690 E2.1558
G1 X149.6880 Y113.1760 E2.1782
G1 X149.7420 Y113.5850 E2.1930
G1 X149.7600 Y114.0050 E2.2081
G1 X149.7600 Y121.9920 E2.4950
G1 X149.7190 Y122.6240 E2.5178
G1 X149.6470 Y123.0300 E2.5326
G1 X149.5390 Y123.4310 E2.5475
G1 X149.3970 Y123.8220 E2.5624
G1 X149.2220 Y124.1980 E2.5773
G1 X149.0140 Y124.5570 E2.5923
G1 X148.7760 Y124.8980 E2.6072
G1 X148.5090 Y125.2160 E2.6221
G1 X148.2160 Y125.5090 E2.6370
G1 X147.8980 Y125.7760 E2.6519
G1 X147.5570 Y126.0140 E2.6668
G1 X147.1980 Y126.2220 E2.6817
G1 X146.8240 Y126.3960 E2.6966
G1 X146.2290 Y126.5980 E2.7191
G1 X145.8270 Y126.6870 E2.7339
G1 X145.4150 Y126.7420 E2.7489
G1 X144.9950 Y126.7600 E2.7640
G1 X91.0080 Y126.7600 E4.7032
G1 X90.3790 Y126.7190 E4.7259
G1 X89.7680 Y126.5970 E4.7482
G1 X89.1760 Y126.3960 E4.7707
G1 X88.8020 Y126.2220 E4.7855
G1 X88.4450 Y126.0160 E4.8003
G1 X87.9410 Y125.6460 E4.8228
G1 X87.4910 Y125.2150 E4.8452
G1 X87.1000 Y124.7280 E4.8676
G1 X86.8780 Y124.3800 E4.8824
G1 X86.6870 Y124.0140 E4.8973
G1 X86.4610 Y123.4310 E4.9197
G1 X86.3130 Y122.8260 E4.9421
G1 X86.2450 Y122.2050 E4.9645
G1 X86.2450 Y113.7920 E5.2667
G1 X86.2810 Y113.3790 E5.2816
G1 X86.3530 Y112.9700 E5.2966
G1 X86.4600 Y112.5690 E5.3115
G1 X86.6030 Y112.1790 E5.3264
G1 X86.7780 Y111.8020 E5.3413
G1 X86.9860 Y111.4420 E5.3562
G1 X87.2240 Y111.1020 E5.3711
G1 X87.4910 Y110.7840 E5.3860
G1 X87.7840 Y110.4910 E5.4010
G1 X88.1000 Y110.2250 E5.4158
G1 X88.6220 Y109.8770 E5.4383
G1 X88.9880 Y109.6860 E5.4532
G1 X89.3720 Y109.5270 E5.4681
G1 X89.7680 Y109.4020 E5.4830
G1 X90.1730 Y109.3130 E5.4979
G1 X90.5850 Y109.2580 E5.5128
G1 X91.0050 Y109.2400 E5.5279
G1 X90.0900 Y125.3890 F5000 ; custom feedrate
G92 E0.0000
G1 X87.6200 Y122.9190 E0.1255 F2400 ; custom feedrate
G1 X87.5440 Y122.6090 E0.1369
G1 X87.4930 Y122.1370 E0.1540
G1 X87.4930 Y122.1130 E0.1548
G1 X90.8810 Y125.5010 E0.3270
G1 X91.0490 Y125.5120 E0.3330
G1 X91.5710 Y125.5120 E0.3518
G1 X87.4930 Y121.4340 E0.5589
G1 X87.4930 Y120.7550 E0.5833
G1 X92.2500 Y125.5120 E0.8250
G1 X92.9290 Y125.5120 E0.8494
G1 X87.4930 Y120.0760 E1.1255
G1 X87.4930 Y119.3970 E1.1499
G1 X93.6070 Y125.5120 E1.4605
G1 X94.2860 Y125.5120 E1.4849
G1 X87.4930 Y118.7190 E1.8300
G1 X87.4930 Y118.0400 E1.8544
G1 X94.9650 Y125.5120 E2.2340
G1 X95.6440 Y125.5120 E2.2583
G1 X87.4930 Y117.3610 E2.6724
G1 X87.4930 Y116.6820 E2.6968
G1 X96.3230 Y125.5120 E3.1454
G1 X97.0010 Y125.5120 E3.1697
G1 X87.4930 Y116.0030 E3.6528
G1 X87.4930 Y115.3240 E3.6772
G1 X97.6800 Y125.5120 E4.1947
G1 X98.3590 Y125.5120 E4.2191
G1 X87.4930 Y114.6460 E4.7711
G1 X87.4930 Y113.9670 E4.7955
G1 X99.0380 Y125.5120 E5.3820
G1 X99.7170 Y125.5120 E5.4063
G1 X87.5530 Y113.3490 E6.0242
G1 X87.5730 Y113.2400 E6.0282
G1 X87.6520 Y112.9440 E6.0392
G1 X87.6990 Y112.8150 E6.0441
G1 X100.3960 Y125.5120 E6.6891
G1 X101.0740 Y125.5120 E6.7135
G1 X87.9060 Y112.3440 E7.3824
G1 X88.0390 Y112.1140 E7.3920
G1 X88.1690 Y111.9280 E7.4001
G1 X101.7530 Y125.5120 E8.0902
G1 X102.4320 Y125.5120 E8.1146
G1 X88.4800 Y111.5600 E8.8233
G1 X88.6280 Y111.4120 E8.8309
G1 X88.8360 Y111.2370 E8.8406
G1 X103.1110 Y125.5120 E9.5658
G1 X103.7900 Y125.5120 E9.5902
G1 X89.2420 Y110.9640 E10.3292
G1 X89.2590 Y110.9520 E10.3300
G1 X89.5160 Y110.8180 E10.3404
G1 X89.6990 Y110.7430 E10.3475
G1 X104.4690 Y125.5120 E11.0978
G1 X105.1470 Y125.5120 E11.1222
G1 X90.2170 Y110.5810 E11.8806
G1 X90.3900 Y110.5430 E11.8870
G1 X90.6940 Y110.5030 E11.8980
G1 X90.8120 Y110.4980 E11.9023
G1 X105.8260 Y125.5120 E12.6650
G1 X106.5050 Y125.5120 E12.6894
G1 X91.4810 Y110.4880 E13.4526
G1 X92.1600 Y110.4880 E13.4770
G1 X107.1840 Y125.5120 E14.2402
G1 X107.8630 Y125.5120 E14.2646
G1 X92.8390 Y110.4880 E15.0278
G1 X93.5170 Y110.4880 E15.0522
G1 X108.5410 Y125.5120 E15.8154
G1 X109.2200 Y125.5120 E15.8398
G1 X94.1960 Y110.4880 E16.6030
G1 X94.8750 Y110.4880 E16.6274
G1 X109.8990 Y125.5120 E17.3906
G1 X110.5780 Y125.5120 E17.4150
G1 X95.5540 Y110.4880 E18.1782
G1 X96.2330 Y110.4880 E18.2026
G1 X111.2570 Y125.5120 E18.9658
G1 X111.9360 Y125.5120 E18.9902
G1 X96.9120 Y110.4880 E19.7534
G1 X97.5900 Y110.4880 E19.7778
G1 X112.6140 Y125.5120 E20.5410
G1 X113.2930 Y125.5120 E20.5654
G1 X98.2690 Y110.4880 E21.3286
G1 X98.9480 Y110.4880 E21.3530
G1 X113.9720 Y125.5120 E22.1162
G1 X114.6510 Y125.5120 E22.1406
G1 X99.6270 Y110.4880 E22.9038
G1 X100.3060 Y110.4880 E22.9282
G1 X115.3300 Y125.5120 E23.6914
G1 X116.0080 Y125.5120 E23.7158
G1 X100.9840 Y110.4880 E24.4790
G1 X101.6630 Y110.4880 E24.5034
G1 X116.6870 Y125.5120 E25.2666
G1 X117.3660 Y125.5120 E25.2910
G1 X102.3420 Y110.4880 E26.0542
G1 X103.0210 Y110.4880 E26.0786
G1 X118.0450 Y125.5120 E26.8418
G1 X118.7240 Y125.5120 E26.8662
G1 X103.7000 Y110.4880 E27.6294
G1 X104.3790 Y110.4880 E27.6538
G1 X119.4030 Y125.5120 E28.4170
G1 X120.0810 Y125.5120 E28.4414
G1 X105.0570 Y110.4880 E29.2046
G1 X105.7360 Y110.4880 E29.2290
G1 X120.7600 Y125.5120 E29.9922
G1 X121.4390 Y125.5120 E30.0166
G1 X106.4150 Y110.4880 E30.7798
G1 X107.0940 Y110.4880 E30.8042
G1 X122.1180 Y125.5120 E31.5674
G1 X122.7970 Y125.5120 E31.5918
G1 X107.7730 Y110.4880 E32.3550
G1 X108.4520 Y110.4880 E32.3794
G1 X123.4760 Y125.5120 E33.1426
G1 X124.1540 Y125.5120 E33.1670
G1 X109.1300 Y110.4880 E33.9302
G1 X109.8090 Y110.4880 E33.9546
G1 X124.8330 Y125.5120 E34.7178
G1 X125.5120 Y125.5120 E34.7422
G1 X110.4880 Y110.4880 E35.5054
G1 X111.1670 Y110.4880 E35.5298
G1 X126.1910 Y125.5120 E36.2930
G1 X126.8700 Y125.5120 E36.3174
G1 X111.8460 Y110.4880 E37.0806
G1 X112.5240 Y110.4880 E37.1050
G1 X127.5480 Y125.5120 E37.8682
G1 X128.2270 Y125.5120 E37.8926
G1 X113.2030 Y110.4880 E38.6558
G1 X113.8820 Y110.4880 E38.6802
G1 X128.9060 Y125.5120 E39.4434
G1 X129.5850 Y125.5120 E39.4678
G1 X114.5610 Y110.4880 E40.2310
G1 X115.2400 Y110.4880 E40.2554
G1 X130.2640 Y125.5120 E41.0186
G1 X130.9430 Y125.5120 E41.0430
G1 X115.9190 Y110.4880 E41.8062
G1 X116.5970 Y110.4880 E41.8306
G1 X131.6210 Y125.5120 E42.5938
G1 X132.3000 Y125.5120 E42.6182
G1 X117.2760 Y110.4880 E43.3814
G1 X117.9550 Y110.4880 E43.4058
G1 X132.9790 Y125.5120 E44.1690
G1 X133.6580 Y125.5120 E44.1934
G1 X118.6340 Y110.4880 E44.9567
G1 X119.3130 Y110.4880 E44.9810
G1 X134.3370 Y125.5120 E45.7443
G1 X135.0160 Y125.5120 E45.7686
G1 X119.9920 Y110.4880 E46.5319
G1 X120.6700 Y110.4880 E46.5562
G1 X135.6940 Y125.5120 E47.3195
G1 X136.3730 Y125.5120 E47.3438
G1 X121.3490 Y110.4880 E48.1071
G1 X122.0280 Y110.4880 E48.1314
G1 X137.0520 Y125.5120 E48.8947
G1 X137.7310 Y125.5120 E48.9190
G1 X122.7070 Y110.4880 E49.6823
G1 X123.3860 Y110.4880 E49.7066
G1 X138.4100 Y125.5120 E50.4699
G1 X139.0880 Y125.5120 E50.4942
G1 X124.0640 Y110.4880 E51.2575
G1 X124.7430 Y110.4880 E51.2818
G1 X139.7670 Y125.5120 E52.0451
G1 X140.4460 Y125.5120 E52.0694
G1 X125.4220 Y110.4880 E52.8327
G1 X126.1010 Y110.4880 E52.8570
G1 X141.1250 Y125.5120 E53.6203
G1 X141.8040 Y125.5120 E53.6447
G1 X126.7800 Y110.4880 E54.4079
G1 X127.4590 Y110.4880 E54.4323
G1 X142.4830 Y125.5120 E55.1955
G1 X143.1610 Y125.5120 E55.2199
G1 X128.1370 Y110.4880 E55.9831
G1 X128.8160 Y110.4880 E56.0075
G1 X143.8400 Y125.5120 E56.7707
G1 X144.5190 Y125.5120 E56.7951
G1 X129.4950 Y110.4880 E57.5583
G1 X130.1740 Y110.4880 E57.5827
G1 X145.1880 Y125.5020 E58.3454
G1 X145.3060 Y125.4970 E58.3496
G1 X145.6100 Y125.4570 E58.3606
G1 X145.7830 Y125.4190 E58.3670
G1 X130.8530 Y110.4880 E59.1255
G1 X131.5320 Y110.4880 E59.1499
G1 X146.3000 Y125.2560 E59.9001
G1 X146.3580 Y125.2360 E59.9023
G1 X146.6210 Y125.1140 E59.9127
G1 X146.7570 Y125.0350 E59.9184
G1 X132.2100 Y110.4880 E60.6574
G1 X132.8890 Y110.4880 E60.6818
G1 X147.1640 Y124.7630 E61.4069
G1 X147.3720 Y124.5880 E61.4167
G1 X147.5200 Y124.4400 E61.4242
G1 X133.5680 Y110.4880 E62.1330
G1 X134.2470 Y110.4880 E62.1573
G1 X147.8310 Y124.0720 E62.8474
G1 X147.9610 Y123.8860 E62.8556
G1 X148.0940 Y123.6560 E62.8651
G1 X134.9260 Y110.4880 E63.5340
G1 X135.6040 Y110.4880 E63.5584
G1 X148.3010 Y123.1850 E64.2034
G1 X148.3480 Y123.0560 E64.2083
G1 X148.4270 Y122.7600 E64.2193
G1 X148.4470 Y122.6510 E64.2233
G1 X136.2830 Y110.4880 E64.8412
G1 X136.9620 Y110.4880 E64.8656
G1 X148.5070 Y122.0330 E65.4520
G1 X148.5120 Y121.9510 E65.4550
G1 X148.5120 Y121.3590 E65.4762
G1 X137.6410 Y110.4880 E66.0285
G1 X138.3200 Y110.4880 E66.0529
G1 X148.5120 Y120.6800 E66.5706
G1 X148.5120 Y120.0010 E66.5950
G1 X138.9990 Y110.4880 E67.0783
G1 X139.6770 Y110.4880 E67.1027
G1 X148.5120 Y119.3230 E67.5515
G1 X148.5120 Y118.6440 E67.5759
G1 X140.3560 Y110.4880 E67.9902
G1 X141.0350 Y110.4880 E68.0146
G1 X148.5120 Y117.9650 E68.3944
G1 X148.5120 Y117.2860 E68.4188
G1 X141.7140 Y110.4880 E68.7641
G1 X142.3930 Y110.4880 E68.7885
G1 X148.5120 Y116.6070 E69.0994
G1 X148.5120 Y115.9290 E69.1238
G1 X143.0710 Y110.4880 E69.4001
G1 X143.7500 Y110.4880 E69.4245
G1 X148.5120 Y115.2500 E69.6664
G1 X148.5120 Y114.5710 E69.6908
G1 X144.4290 Y110.4880 E69.8982
G1 X144.9510 Y110.4880 E69.9170
G1 X145.1190 Y110.4990 E69.9230
G1 X148.5060 Y113.8860 E70.0950
G1 X148.4970 Y113.6940 E70.1019
G1 X148.4590 Y113.4060 E70.1123
G1 X148.3800 Y113.0810 E70.1244
G1 X145.9100 Y110.6110 E70.2498
G92 E0.0000
G1 E-4 F2400 ; custom retraction - A
;layer 4, Z = 0.800
;fan4;
G1 Z0.800 F1200
G1 X91.0260 Y110.2000 F5000 ; custom feedrate
G1 E0 F2400 ; custom un-retraction/prime - A
G92 E0.0000
G1 X144.9610 Y110.2000 E1.9374 F2400 ; custom feedrate
G1 X145.4960 Y110.2350 E1.9566
G1 X145.9830 Y110.3320 E1.9745
G1 X146.4530 Y110.4920 E1.9923
G1 X146.9110 Y110.7170 E2.0106
G1 X147.1790 Y110.8880 E2.0221
G1 X147.4310 Y111.0820 E2.0335
G1 X147.8000 Y111.4340 E2.0518
G1 X148.1190 Y111.8320 E2.0701
G1 X148.2900 Y112.1010 E2.0816
G1 X148.4370 Y112.3830 E2.0930
G1 X148.6220 Y112.8580 E2.1113
G1 X148.7430 Y113.3530 E2.1296
G1 X148.7840 Y113.6690 E2.1411
G1 X148.8000 Y114.0260 E2.1539
G1 X148.8000 Y121.9610 E2.4389
G1 X148.7640 Y122.5090 E2.4587
G1 X148.7090 Y122.8220 E2.4701
G1 X148.6230 Y123.1420 E2.4820
G1 X148.5100 Y123.4540 E2.4939
G1 X148.3700 Y123.7540 E2.5058
G1 X148.2040 Y124.0410 E2.5177
G1 X148.0140 Y124.3130 E2.5296
G1 X147.8010 Y124.5670 E2.5415
G1 X147.5670 Y124.8010 E2.5534
G1 X147.3130 Y125.0140 E2.5653
G1 X147.0410 Y125.2040 E2.5772
G1 X146.7540 Y125.3700 E2.5891
G1 X146.4660 Y125.5040 E2.6006
G1 X145.9700 Y125.6720 E2.6194
G1 X145.6600 Y125.7410 E2.6308
G1 X145.3310 Y125.7840 E2.6427
G1 X144.9740 Y125.8000 E2.6555
G1 X91.0390 Y125.8000 E4.5929
G1 X90.5040 Y125.7650 E4.6122
G1 X90.0170 Y125.6680 E4.6300
G1 X89.5340 Y125.5040 E4.6483
G1 X89.2460 Y125.3700 E4.6598
G1 X88.9700 Y125.2100 E4.6712
G1 X88.5590 Y124.9090 E4.6895
G1 X88.2000 Y124.5660 E4.7074
G1 X87.8810 Y124.1680 E4.7257
G1 X87.7100 Y123.8990 E4.7371
G1 X87.5630 Y123.6170 E4.7485
G1 X87.3780 Y123.1420 E4.7669
G1 X87.2600 Y122.6600 E4.7847
G1 X87.2050 Y122.1520 E4.8030
G1 X87.2050 Y113.8340 E5.1018
G1 X87.2340 Y113.5040 E5.1137
G1 X87.2910 Y113.1780 E5.1256
G1 X87.3770 Y112.8580 E5.1375
G1 X87.4900 Y112.5460 E5.1494
G1 X87.6300 Y112.2460 E5.1613
G1 X87.7960 Y111.9590 E5.1732
G1 X87.9860 Y111.6870 E5.1851
G1 X88.1990 Y111.4330 E5.1970
G1 X88.4340 Y111.1990 E5.2089
G1 X88.6770 Y110.9950 E5.2204
G1 X89.1120 Y110.7040 E5.2392
G1 X89.3950 Y110.5570 E5.2506
G1 X89.7010 Y110.4300 E5.2625
G1 X90.0170 Y110.3310 E5.2744
G1 X90.3400 Y110.2590 E5.2863
G1 X90.6690 Y110.2160 E5.2982
G1 X91.0260 Y110.2000 E5.3111
G1 X91.0160 Y109.7200 F5000 ; custom feedrate
G92 E0.0000
G1 X144.9770 Y109.7200 E1.9383 F2400 ; custom feedrate
G1 X145.5580 Y109.7580 E1.9593
G1 X146.1070 Y109.8670 E1.9794
G1 X146.6370 Y110.0470 E1.9995
G1 X147.1460 Y110.2980 E2.0199
G1 X147.4540 Y110.4950 E2.0330
G1 X147.7440 Y110.7170 E2.0461
G1 X148.1540 Y111.1090 E2.0665
G1 X148.5100 Y111.5520 E2.0869
G1 X148.7060 Y111.8600 E2.1000
G1 X148.8750 Y112.1850 E2.1132
G1 X149.0800 Y112.7130 E2.1335
G1 X149.2150 Y113.2650 E2.1539
G1 X149.2630 Y113.6270 E2.1670
G1 X149.2800 Y114.0160 E2.1810
G1 X149.2800 Y121.9770 E2.4670
G1 X149.2410 Y122.5660 E2.4882
G1 X149.1780 Y122.9260 E2.5013
G1 X149.0810 Y123.2870 E2.5147
G1 X148.9540 Y123.6380 E2.5282
G1 X148.7960 Y123.9760 E2.5416
G1 X148.6090 Y124.2990 E2.5550
G1 X148.3950 Y124.6050 E2.5684
G1 X148.1550 Y124.8910 E2.5818
G1 X147.8910 Y125.1550 E2.5952
G1 X147.6050 Y125.3950 E2.6086
G1 X147.2990 Y125.6090 E2.6220
G1 X146.9760 Y125.7960 E2.6354
G1 X146.6450 Y125.9500 E2.6486
G1 X146.1000 Y126.1350 E2.6692
G1 X145.7430 Y126.2140 E2.6824
G1 X145.3730 Y126.2630 E2.6958
G1 X144.9840 Y126.2800 E2.7097
G1 X91.0230 Y126.2800 E4.6481
G1 X90.4420 Y126.2420 E4.6690
G1 X89.8930 Y126.1330 E4.6891
G1 X89.3550 Y125.9500 E4.7095
G1 X89.0240 Y125.7960 E4.7226
G1 X88.7080 Y125.6130 E4.7358
G1 X88.2500 Y125.2780 E4.7561
G1 X87.8460 Y124.8900 E4.7763
G1 X87.4900 Y124.4480 E4.7966
G1 X87.2940 Y124.1400 E4.8098
G1 X87.1250 Y123.8160 E4.8229
G1 X86.9200 Y123.2860 E4.8433
G1 X86.7870 Y122.7430 E4.8634
G1 X86.7250 Y122.1790 E4.8838
G1 X86.7250 Y113.8130 E5.1843
G1 X86.7570 Y113.4420 E5.1977
G1 X86.8220 Y113.0740 E5.2111
G1 X86.9190 Y112.7130 E5.2245
G1 X87.0460 Y112.3620 E5.2379
G1 X87.2040 Y112.0240 E5.2513
G1 X87.3910 Y111.7010 E5.2647
G1 X87.6050 Y111.3950 E5.2781
G1 X87.8450 Y111.1090 E5.2915
G1 X88.1090 Y110.8450 E5.3050
G1 X88.3890 Y110.6100 E5.3181
G1 X88.8670 Y110.2900 E5.3388
G1 X89.1920 Y110.1220 E5.3519
G1 X89.5370 Y109.9790 E5.3653
G1 X89.8920 Y109.8670 E5.3787
G1 X90.2570 Y109.7860 E5.3921
G1 X90.6270 Y109.7370 E5.4055
G1 X91.0160 Y109.7200 E5.4195
G1 X91.0050 Y109.2400 F5000 ; custom feedrate
G92 E0.0000
G1 X144.9920 Y109.2400 E1.9393 F1800 ; custom feedrate
G1 X145.6210 Y109.2810 E1.9619
G1 X146.2320 Y109.4030 E1.9843
G1 X146.8210 Y109.6030 E2.0066
G1 X147.3820 Y109.8790 E2.0291
G1 X147.7300 Y110.1010 E2.0439
G1 X148.0570 Y110.3520 E2.0587
G1 X148.5090 Y110.7850 E2.0812
G1 X148.9000 Y111.2720 E2.1036
G1 X149.1220 Y111.6200 E2.1185
G1 X149.3130 Y111.9860 E2.1333
G1 X149.5390 Y112.5690 E2.1558
G1 X149.6880 Y113.1760 E2.1782
G1 X149.7420 Y113.5850 E2.1930
G1 X149.7600 Y114.0050 E2.2081
G1 X149.7600 Y121.9920 E2.4950
G1 X149.7190 Y122.6240 E2.5178
G1 X149.6470 Y123.0300 E2.5326
G1 X149.5390 Y123.4310 E2.5475
G1 X149.3970 Y123.8220 E2.5624
G1 X149.2220 Y124.1980 E2.5773
G1 X149.0140 Y124.5570 E2.5923
G1 X148.7760 Y124.8980 E2.6072
G1 X148.5090 Y125.2160 E2.6221
G1 X148.2160 Y125.5090 E2.6370
G1 X147.8980 Y125.7760 E2.6519
G1 X147.5570 Y126.0140 E2.6668
G1 X147.1980 Y126.2220 E2.6817
G1 X146.8240 Y126.3960 E2.6966
G1 X146.2290 Y126.5980 E2.7191
G1 X145.8270 Y126.6870 E2.7339
G1 X145.4150 Y126.7420 E2.7489
G1 X144.9950 Y126.7600 E2.7640
G1 X91.0080 Y126.7600 E4.7032
G1 X90.3790 Y126.7190 E4.7259
G1 X89.7680 Y126.5970 E4.7482
G1 X89.1760 Y126.3960 E4.7707
G1 X88.8020 Y126.2220 E4.7855
G1 X88.4450 Y126.0160 E4.8003
G1 X87.9410 Y125.6460 E4.8228
G1 X87.4910 Y125.2150 E4.8452
G1 X87.1000 Y124.7280 E4.8676
G1 X86.8780 Y124.3800 E4.8824
G1 X86.6870 Y124.0140 E4.8973
G1 X86.4610 Y123.4310 E4.9197
G1 X86.3130 Y122.8260 E4.9421
G1 X86.2450 Y122.2050 E4.9645
G1 X86.2450 Y113.7920 E5.2667
G1 X86.2810 Y113.3790 E5.2816
G1 X86.3530 Y112.9700 E5.2966
G1 X86.4600 Y112.5690 E5.3115
G1 X86.6030 Y112.1790 E5.3264
G1 X86.7780 Y111.8020 E5.3413
G1 X86.9860 Y111.4420 E5.3562
G1 X87.2240 Y111.1020 E5.3711
G1 X87.4910 Y110.7840 E5.3860
G1 X87.7840 Y110.4910 E5.4010
G1 X88.1000 Y110.2250 E5.4158
G1 X88.6220 Y109.8770 E5.4383
G1 X88.9880 Y109.6860 E5.4532
G1 X89.3720 Y109.5270 E5.4681
G1 X89.7680 Y109.4020 E5.4830
G1 X90.1730 Y109.3130 E5.4979
G1 X90.5850 Y109.2580 E5.5128
G1 X91.0050 Y109.2400 E5.5279
G1 X87.6130 Y113.0880 F5000 ; custom feedrate
G92 E0.0000
G1 X90.0920 Y110.6090 E0.1259 F2400 ; custom feedrate
G1 X90.3900 Y110.5430 E0.1369
G1 X90.6940 Y110.5030 E0.1479
G1 X90.8860 Y110.4940 E0.1548
G1 X87.4930 Y113.8870 E0.3271
G1 X87.4930 Y114.5660 E0.3515
G1 X91.5710 Y110.4880 E0.5587
G1 X92.2500 Y110.4880 E0.5831
G1 X87.4930 Y115.2450 E0.8247
G1 X87.4930 Y115.9240 E0.8491
G1 X92.9290 Y110.4880 E1.1253
G1 X93.6070 Y110.4880 E1.1496
G1 X87.4930 Y116.6030 E1.4603
G1 X87.4930 Y117.2810 E1.4847
G1 X94.2860 Y110.4880 E1.8298
G1 X94.9650 Y110.4880 E1.8541
G1 X87.4930 Y117.9600 E2.2337
G1 X87.4930 Y118.6390 E2.2581
G1 X95.6440 Y110.4880 E2.6722
G1 X96.3230 Y110.4880 E2.6966
G1 X91.7550 Y115.0560 E2.9286
G1 X90.7720 Y115.3750 E2.9657
G1 X90.7720 Y116.0390 E2.9896
G1 X87.4930 Y119.3180 E3.1562
G1 X87.4930 Y119.9970 E3.1805
G1 X90.7720 Y116.7180 E3.3471
G1 X90.7720 Y117.3960 E3.3715
G1 X87.4930 Y120.6760 E3.5381
G1 X87.4930 Y121.3540 E3.5625
G1 X90.7720 Y118.0750 E3.7291
G1 X90.7720 Y118.6130 E3.7484
G1 X90.8780 Y118.6480 E3.7524
G1 X87.4930 Y122.0330 E3.9244
G1 X87.4930 Y122.1370 E3.9281
G1 X87.5440 Y122.6090 E3.9452
G1 X87.5550 Y122.6500 E3.9467
G1 X91.3910 Y118.8140 E4.1416
G1 X91.9030 Y118.9810 E4.1609
G1 X87.7030 Y123.1810 E4.3743
G1 X87.8260 Y123.4980 E4.3865
G1 X87.9070 Y123.6550 E4.3929
G1 X92.4150 Y119.1470 E4.6219
G1 X92.9280 Y119.3130 E4.6412
G1 X88.1720 Y124.0700 E4.8829
G1 X88.4130 Y124.3700 E4.8967
G1 X88.4830 Y124.4370 E4.9002
G1 X93.4400 Y119.4800 E5.1520
G1 X93.8510 Y119.6130 E5.1675
G1 X95.2980 Y117.6230 E5.2559
G1 X102.4320 Y110.4880 E5.6184
G1 X103.1110 Y110.4880 E5.6427
G1 X88.8410 Y124.7580 E6.3677
G1 X89.1280 Y124.9690 E6.3805
G1 X89.2430 Y125.0350 E6.3852
G1 X103.7900 Y110.4880 E7.1242
G1 X104.4690 Y110.4880 E7.1486
G1 X89.7000 Y125.2560 E7.8988
G1 X90.0920 Y125.3890 E7.9137
G1 X90.2210 Y125.4150 E7.9184
G1 X105.1470 Y110.4880 E8.6767
G1 X105.8260 Y110.4880 E8.7011
G1 X90.8170 Y125.4970 E9.4635
G1 X91.0490 Y125.5120 E9.4718
G1 X91.4810 Y125.5120 E9.4874
G1 X106.5050 Y110.4880 E10.2506
G1 X107.1840 Y110.4880 E10.2750
G1 X92.1600 Y125.5120 E11.0382
G1 X92.8390 Y125.5120 E11.0626
G1 X107.8630 Y110.4880 E11.8258
G1 X108.5410 Y110.4880 E11.8502
G1 X93.5170 Y125.5120 E12.6134
G1 X94.1960 Y125.5120 E12.6378
G1 X109.2200 Y110.4880 E13.4010
G1 X109.8990 Y110.4880 E13.4254
G1 X94.8750 Y125.5120 E14.1886
G1 X95.5540 Y125.5120 E14.2130
G1 X110.5780 Y110.4880 E14.9762
G1 X111.2570 Y110.4880 E15.0006
G1 X96.2330 Y125.5120 E15.7638
G1 X96.9120 Y125.5120 E15.7882
G1 X111.9360 Y110.4880 E16.5514
G1 X112.6140 Y110.4880 E16.5758
G1 X97.5900 Y125.5120 E17.3390
G1 X98.2690 Y125.5120 E17.3634
G1 X113.2930 Y110.4880 E18.1266
G1 X113.9720 Y110.4880 E18.1510
G1 X98.9480 Y125.5120 E18.9142
G1 X99.6270 Y125.5120 E18.9386
G1 X114.6510 Y110.4880 E19.7018
G1 X115.3300 Y110.4880 E19.7262
G1 X100.3060 Y125.5120 E20.4894
G1 X100.9850 Y125.5120 E20.5138
G1 X116.0090 Y110.4880 E21.2770
G1 X116.6870 Y110.4880 E21.3014
G1 X101.6630 Y125.5120 E22.0646
G1 X102.3420 Y125.5120 E22.0890
G1 X117.3660 Y110.4880 E22.8522
G1 X118.0450 Y110.4880 E22.8766
G1 X103.0210 Y125.5120 E23.6398
G1 X103.7000 Y125.5120 E23.6642
G1 X118.7240 Y110.4880 E24.4274
G1 X119.4030 Y110.4880 E24.4518
G1 X104.3790 Y125.5120 E25.2150
G1 X105.0570 Y125.5120 E25.2394
G1 X120.0810 Y110.4880 E26.0026
G1 X120.7600 Y110.4880 E26.0270
G1 X105.7360 Y125.5120 E26.7902
G1 X106.4150 Y125.5120 E26.8146
G1 X121.4390 Y110.4880 E27.5778
G1 X122.1180 Y110.4880 E27.6022
G1 X107.0940 Y125.5120 E28.3654
G1 X107.7730 Y125.5120 E28.3898
G1 X122.7970 Y110.4880 E29.1530
G1 X123.4760 Y110.4880 E29.1774
G1 X108.4520 Y125.5120 E29.9406
G1 X109.1300 Y125.5120 E29.9650
G1 X124.1540 Y110.4880 E30.7282
G1 X124.8330 Y110.4880 E30.7526
G1 X109.8090 Y125.5120 E31.5158
G1 X110.4880 Y125.5120 E31.5402
G1 X125.5120 Y110.4880 E32.3034
G1 X126.1910 Y110.4880 E32.3278
G1 X111.1670 Y125.5120 E33.0910
G1 X111.8460 Y125.5120 E33.1154
G1 X126.8700 Y110.4880 E33.8786
G1 X127.5490 Y110.4880 E33.9030
G1 X112.5250 Y125.5120 E34.6662
G1 X113.2030 Y125.5120 E34.6906
G1 X128.2270 Y110.4880 E35.4538
G1 X128.9060 Y110.4880 E35.4782
G1 X113.8820 Y125.5120 E36.2414
G1 X114.5610 Y125.5120 E36.2658
G1 X129.5850 Y110.4880 E37.0290
G1 X130.2640 Y110.4880 E37.0534
G1 X115.2400 Y125.5120 E37.8166
G1 X115.9190 Y125.5120 E37.8410
G1 X130.9430 Y110.4880 E38.6042
G1 X131.6210 Y110.4880 E38.6286
G1 X116.5970 Y125.5120 E39.3918
G1 X117.2760 Y125.5120 E39.4162
G1 X132.3000 Y110.4880 E40.1794
G1 X132.9790 Y110.4880 E40.2038
G1 X117.9550 Y125.5120 E40.9670
G1 X118.6340 Y125.5120 E40.9914
G1 X133.6580 Y110.4880 E41.7546
G1 X134.3370 Y110.4880 E41.7790
G1 X119.3130 Y125.5120 E42.5423
G1 X119.9920 Y125.5120 E42.5666
G1 X135.0160 Y110.4880 E43.3299
G1 X135.6940 Y110.4880 E43.3542
G1 X120.6700 Y125.5120 E44.1175
G1 X121.3490 Y125.5120 E44.1418
G1 X136.3730 Y110.4880 E44.9051
G1 X137.0520 Y110.4880 E44.9294
G1 X122.0280 Y125.5120 E45.6927
G1 X122.7070 Y125.5120 E45.7170
G1 X137.7310 Y110.4880 E46.4803
G1 X138.4100 Y110.4880 E46.5046
G1 X123.3860 Y125.5120 E47.2679
G1 X124.0640 Y125.5120 E47.2922
G1 X139.0880 Y110.4880 E48.0555
G1 X139.7670 Y110.4880 E48.0798
G1 X124.7430 Y125.5120 E48.8431
G1 X125.4220 Y125.5120 E48.8674
G1 X140.4460 Y110.4880 E49.6307
G1 X141.1250 Y110.4880 E49.6550
G1 X126.1010 Y125.5120 E50.4183
G1 X126.7800 Y125.5120 E50.4426
G1 X141.8040 Y110.4880 E51.2059
G1 X142.4830 Y110.4880 E51.2303
G1 X127.4590 Y125.5120 E51.9935
G1 X128.1370 Y125.5120 E52.0179
G1 X143.1610 Y110.4880 E52.7811
G1 X143.8400 Y110.4880 E52.8055
G1 X128.8160 Y125.5120 E53.5687
G1 X129.4950 Y125.5120 E53.5931
G1 X144.5190 Y110.4880 E54.3563
G1 X144.9510 Y110.4880 E54.3718
G1 X145.1830 Y110.5030 E54.3801
G1 X130.1740 Y125.5120 E55.1426
G1 X130.8530 Y125.5120 E55.1670
G1 X145.7800 Y110.5850 E55.9252
G1 X145.9080 Y110.6110 E55.9300
G1 X146.3000 Y110.7440 E55.9448
G1 X142.5410 Y114.5020 E56.1357
G1 X142.1490 Y114.3750 E56.1506
G1 X140.7680 Y116.2750 E56.2349
G1 X131.5320 Y125.5120 E56.7042
G1 X132.2100 Y125.5120 E56.7285
G1 X140.4490 Y117.2730 E57.1471
G1 X140.7350 Y117.6670 E57.1645
G1 X132.8890 Y125.5120 E57.5631
G1 X133.5680 Y125.5120 E57.5874
G1 X141.0200 Y118.0600 E57.9660
G1 X141.3060 Y118.4530 E57.9835
G1 X134.2470 Y125.5120 E58.3421
G1 X134.9260 Y125.5120 E58.3665
G1 X141.5910 Y118.8460 E58.7051
G1 X141.8770 Y119.2390 E58.7225
G1 X135.6040 Y125.5120 E59.0412
G1 X136.2830 Y125.5120 E59.0656
G1 X142.1980 Y119.5980 E59.3660
G1 X143.2030 Y119.2710 E59.4040
G1 X136.9620 Y125.5120 E59.7210
G1 X137.6410 Y125.5120 E59.7454
G1 X144.2090 Y118.9440 E60.0791
G1 X145.2140 Y118.6170 E60.1171
G1 X138.3200 Y125.5120 E60.4673
G1 X138.9990 Y125.5120 E60.4917
G1 X148.5120 Y115.9990 E60.9750
G1 X148.5120 Y116.6770 E60.9993
G1 X139.6770 Y125.5120 E61.4481
G1 X140.3560 Y125.5120 E61.4725
G1 X148.5120 Y117.3560 E61.8868
G1 X148.5120 Y118.0350 E61.9112
G1 X141.0350 Y125.5120 E62.2911
G1 X141.7140 Y125.5120 E62.3154
G1 X148.5120 Y118.7140 E62.6608
G1 X148.5120 Y119.3930 E62.6852
G1 X142.3930 Y125.5120 E62.9960
G1 X143.0720 Y125.5120 E63.0204
G1 X148.5120 Y120.0720 E63.2968
G1 X148.5120 Y120.7500 E63.3212
G1 X143.7500 Y125.5120 E63.5631
G1 X144.4290 Y125.5120 E63.5874
G1 X148.5120 Y121.4290 E63.7949
G1 X148.5120 Y121.9510 E63.8136
G1 X148.5010 Y122.1190 E63.8196
G1 X145.1140 Y125.5060 E63.9917
G1 X145.3060 Y125.4970 E63.9986
G1 X145.6100 Y125.4570 E64.0096
G1 X145.7520 Y125.4260 E64.0148
G1 X145.8930 Y125.3940 E64.0200
G1 X145.9100 Y125.3890 E64.0207
G1 X148.3870 Y122.9120 E64.1464
G1 X145.2280 Y118.6040 F5000 ; custom feedrate
G92 E0.0000
G1 X148.5120 Y115.3200 E0.1668 F2400 ; custom feedrate
G1 X148.5120 Y114.6410 E0.1912
G1 X145.2280 Y117.9250 E0.3580
G1 X145.2280 Y117.2460 E0.3824
G1 X148.5090 Y113.9650 E0.5491
G1 X148.4970 Y113.6940 E0.5588
G1 X148.4590 Y113.4060 E0.5693
G1 X148.4460 Y113.3500 E0.5713
G1 X145.2280 Y116.5670 E0.7348
G1 X145.2280 Y115.8880 E0.7592
G1 X148.2970 Y112.8190 E0.9151
G1 X148.1740 Y112.5020 E0.9273
G1 X148.1100 Y112.3790 E0.9323
G1 X148.0930 Y112.3450 E0.9337
G1 X145.1030 Y115.3350 E1.0855
G1 X144.5910 Y115.1680 E1.1049
G1 X147.8280 Y111.9300 E1.2694
G1 X147.5870 Y111.6290 E1.2832
G1 X147.5170 Y111.5630 E1.2867
G1 X144.0780 Y115.0020 E1.4614
G1 X143.5660 Y114.8350 E1.4808
G1 X147.1630 Y111.2390 E1.6635
G1 X147.0140 Y111.1240 E1.6702
G1 X146.8680 Y111.0310 E1.6764
G1 X146.7690 Y110.9690 E1.6806
G1 X146.7590 Y110.9630 E1.6810
G1 X143.0540 Y114.6690 E1.8693
G1 X95.5410 Y116.7010 F5000 ; custom feedrate
G92 E0.0000
G1 X101.7530 Y110.4880 E0.3156 F2400 ; custom feedrate
G1 X101.0740 Y110.4880 E0.3400
G1 X95.2550 Y116.3070 E0.6356
G1 X94.9690 Y115.9140 E0.6531
G1 X100.3960 Y110.4880 E0.9287
G1 X99.7170 Y110.4880 E0.9531
G1 X94.6840 Y115.5210 E1.2088
G1 X94.3980 Y115.1280 E1.2262
G1 X99.0380 Y110.4880 E1.4619
G1 X98.3590 Y110.4880 E1.4863
G1 X94.1120 Y114.7350 E1.7020
G1 X93.8510 Y114.3750 E1.7180
G1 X93.7660 Y114.4030 E1.7212
G1 X97.6800 Y110.4880 E1.9201
G1 X97.0010 Y110.4880 E1.9445
G1 X92.7600 Y114.7290 E2.1600
G92 E0.0000
G1 E-4 F2400 ; custom retraction - A
;layer 5, Z = 1.000
;fan5;
;
G1 Z1.000 F1200
G1 X91.0260 Y110.2000 F5000 ; custom feedrate
G1 E0 F2400 ; custom un-retraction/prime - A
G92 E0.0000
G1 X144.9610 Y110.2000 E1.9374 F2400 ; custom feedrate
G1 X145.4960 Y110.2350 E1.9566
G1 X145.9830 Y110.3320 E1.9745
G1 X146.4530 Y110.4920 E1.9923
G1 X146.9110 Y110.7170 E2.0106
G1 X147.1790 Y110.8880 E2.0221
G1 X147.4310 Y111.0820 E2.0335
G1 X147.8000 Y111.4340 E2.0518
G1 X148.1190 Y111.8320 E2.0701
G1 X148.2900 Y112.1010 E2.0816
G1 X148.4370 Y112.3830 E2.0930
G1 X148.6220 Y112.8580 E2.1113
G1 X148.7430 Y113.3530 E2.1296
G1 X148.7840 Y113.6690 E2.1411
G1 X148.8000 Y114.0260 E2.1539
G1 X148.8000 Y121.9610 E2.4389
G1 X148.7640 Y122.5090 E2.4587
G1 X148.7090 Y122.8220 E2.4701
G1 X148.6230 Y123.1420 E2.4820
G1 X148.5100 Y123.4540 E2.4939
G1 X148.3700 Y123.7540 E2.5058
G1 X148.2040 Y124.0410 E2.5177
G1 X148.0140 Y124.3130 E2.5296
G1 X147.8010 Y124.5670 E2.5415
G1 X147.5670 Y124.8010 E2.5534
G1 X147.3130 Y125.0140 E2.5653
G1 X147.0410 Y125.2040 E2.5772
G1 X146.7540 Y125.3700 E2.5891
G1 X146.4660 Y125.5040 E2.6006
G1 X145.9700 Y125.6720 E2.6194
G1 X145.6600 Y125.7410 E2.6308
G1 X145.3310 Y125.7840 E2.6427
G1 X144.9740 Y125.8000 E2.6555
G1 X91.0390 Y125.8000 E4.5929
G1 X90.5040 Y125.7650 E4.6122
G1 X90.0170 Y125.6680 E4.6300
G1 X89.5340 Y125.5040 E4.6483
G1 X89.2460 Y125.3700 E4.6598
G1 X88.9700 Y125.2100 E4.6712
G1 X88.5590 Y124.9090 E4.6895
G1 X88.2000 Y124.5660 E4.7074
G1 X87.8810 Y124.1680 E4.7257
G1 X87.7100 Y123.8990 E4.7371
G1 X87.5630 Y123.6170 E4.7485
G1 X87.3780 Y123.1420 E4.7669
G1 X87.2600 Y122.6600 E4.7847
G1 X87.2050 Y122.1520 E4.8030
G1 X87.2050 Y113.8340 E5.1018
G1 X87.2340 Y113.5040 E5.1137
G1 X87.2910 Y113.1780 E5.1256
G1 X87.3770 Y112.8580 E5.1375
G1 X87.4900 Y112.5460 E5.1494
G1 X87.6300 Y112.2460 E5.1613
G1 X87.7960 Y111.9590 E5.1732
G1 X87.9860 Y111.6870 E5.1851
G1 X88.1990 Y111.4330 E5.1970
G1 X88.4340 Y111.1990 E5.2089
G1 X88.6770 Y110.9950 E5.2204
G1 X89.1120 Y110.7040 E5.2392
G1 X89.3950 Y110.5570 E5.2506
G1 X89.7010 Y110.4300 E5.2625
G1 X90.0170 Y110.3310 E5.2744
G1 X90.3400 Y110.2590 E5.2863
G1 X90.6690 Y110.2160 E5.2982
G1 X91.0260 Y110.2000 E5.3111
G1 X91.0160 Y109.7200 F5000 ; custom feedrate
G92 E0.0000
G1 X144.9770 Y109.7200 E1.9383 F2400 ; custom feedrate
G1 X145.5580 Y109.7580 E1.9593
G1 X146.1070 Y109.8670 E1.9794
G1 X146.6370 Y110.0470 E1.9995
G1 X147.1460 Y110.2980 E2.0199
G1 X147.4540 Y110.4950 E2.0330
G1 X147.7440 Y110.7170 E2.0461
G1 X148.1540 Y111.1090 E2.0665
G1 X148.5100 Y111.5520 E2.0869
G1 X148.7060 Y111.8600 E2.1000
G1 X148.8750 Y112.1850 E2.1132
G1 X149.0800 Y112.7130 E2.1335
G1 X149.2150 Y113.2650 E2.1539
G1 X149.2630 Y113.6270 E2.1670
G1 X149.2800 Y114.0160 E2.1810
G1 X149.2800 Y121.9770 E2.4670
G1 X149.2410 Y122.5660 E2.4882
G1 X149.1780 Y122.9260 E2.5013
G1 X149.0810 Y123.2870 E2.5147
G1 X148.9540 Y123.6380 E2.5282
G1 X148.7960 Y123.9760 E2.5416
G1 X148.6090 Y124.2990 E2.5550
G1 X148.3950 Y124.6050 E2.5684
G1 X148.1550 Y124.8910 E2.5818
G1 X147.8910 Y125.1550 E2.5952
G1 X147.6050 Y125.3950 E2.6086
G1 X147.2990 Y125.6090 E2.6220
G1 X146.9760 Y125.7960 E2.6354
G1 X146.6450 Y125.9500 E2.6486
G1 X146.1000 Y126.1350 E2.6692
G1 X145.7430 Y126.2140 E2.6824
G1 X145.3730 Y126.2630 E2.6958
G1 X144.9840 Y126.2800 E2.7097
G1 X91.0230 Y126.2800 E4.6481
G1 X90.4420 Y126.2420 E4.6690
G1 X89.8930 Y126.1330 E4.6891
G1 X89.3550 Y125.9500 E4.7095
G1 X89.0240 Y125.7960 E4.7226
G1 X88.7080 Y125.6130 E4.7358
G1 X88.2500 Y125.2780 E4.7561
G1 X87.8460 Y124.8900 E4.7763
G1 X87.4900 Y124.4480 E4.7966
G1 X87.2940 Y124.1400 E4.8098
G1 X87.1250 Y123.8160 E4.8229
G1 X86.9200 Y123.2860 E4.8433
G1 X86.7870 Y122.7430 E4.8634
G1 X86.7250 Y122.1790 E4.8838
G1 X86.7250 Y113.8130 E5.1843
G1 X86.7570 Y113.4420 E5.1977
G1 X86.8220 Y113.0740 E5.2111
G1 X86.9190 Y112.7130 E5.2245
G1 X87.0460 Y112.3620 E5.2379
G1 X87.2040 Y112.0240 E5.2513
G1 X87.3910 Y111.7010 E5.2647
G1 X87.6050 Y111.3950 E5.2781
G1 X87.8450 Y111.1090 E5.2915
G1 X88.1090 Y110.8450 E5.3050
G1 X88.3890 Y110.6100 E5.3181
G1 X88.8670 Y110.2900 E5.3388
G1 X89.1920 Y110.1220 E5.3519
G1 X89.5370 Y109.9790 E5.3653
G1 X89.8920 Y109.8670 E5.3787
G1 X90.2570 Y109.7860 E5.3921
G1 X90.6270 Y109.7370 E5.4055
G1 X91.0160 Y109.7200 E5.4195
G1 X91.0050 Y109.2400 F5000 ; custom feedrate
G92 E0.0000
G1 X144.9920 Y109.2400 E1.9393 F1800 ; custom feedrate
G1 X145.6210 Y109.2810 E1.9619
G1 X146.2320 Y109.4030 E1.9843
G1 X146.8210 Y109.6030 E2.0066
G1 X147.3820 Y109.8790 E2.0291
G1 X147.7300 Y110.1010 E2.0439
G1 X148.0570 Y110.3520 E2.0587
G1 X148.5090 Y110.7850 E2.0812
G1 X148.9000 Y111.2720 E2.1036
G1 X149.1220 Y111.6200 E2.1185
G1 X149.3130 Y111.9860 E2.1333
G1 X149.5390 Y112.5690 E2.1558
G1 X149.6880 Y113.1760 E2.1782
G1 X149.7420 Y113.5850 E2.1930
G1 X149.7600 Y114.0050 E2.2081
G1 X149.7600 Y121.9920 E2.4950
G1 X149.7190 Y122.6240 E2.5178
G1 X149.6470 Y123.0300 E2.5326
G1 X149.5390 Y123.4310 E2.5475
G1 X149.3970 Y123.8220 E2.5624
G1 X149.2220 Y124.1980 E2.5773
G1 X149.0140 Y124.5570 E2.5923
G1 X148.7760 Y124.8980 E2.6072
G1 X148.5090 Y125.2160 E2.6221
G1 X148.2160 Y125.5090 E2.6370
G1 X147.8980 Y125.7760 E2.6519
G1 X147.5570 Y126.0140 E2.6668
G1 X147.1980 Y126.2220 E2.6817
G1 X146.8240 Y126.3960 E2.6966
G1 X146.2290 Y126.5980 E2.7191
G1 X145.8270 Y126.6870 E2.7339
G1 X145.4150 Y126.7420 E2.7489
G1 X144.9950 Y126.7600 E2.7640
G1 X91.0080 Y126.7600 E4.7032
G1 X90.3790 Y126.7190 E4.7259
G1 X89.7680 Y126.5970 E4.7482
G1 X89.1760 Y126.3960 E4.7707
G1 X88.8020 Y126.2220 E4.7855
G1 X88.4450 Y126.0160 E4.8003
G1 X87.9410 Y125.6460 E4.8228
G1 X87.4910 Y125.2150 E4.8452
G1 X87.1000 Y124.7280 E4.8676
G1 X86.8780 Y124.3800 E4.8824
G1 X86.6870 Y124.0140 E4.8973
G1 X86.4610 Y123.4310 E4.9197
G1 X86.3130 Y122.8260 E4.9421
G1 X86.2450 Y122.2050 E4.9645
G1 X86.2450 Y113.7920 E5.2667
G1 X86.2810 Y113.3790 E5.2816
G1 X86.3530 Y112.9700 E5.2966
G1 X86.4600 Y112.5690 E5.3115
G1 X86.6030 Y112.1790 E5.3264
G1 X86.7780 Y111.8020 E5.3413
G1 X86.9860 Y111.4420 E5.3562
G1 X87.2240 Y111.1020 E5.3711
G1 X87.4910 Y110.7840 E5.3860
G1 X87.7840 Y110.4910 E5.4010
G1 X88.1000 Y110.2250 E5.4158
G1 X88.6220 Y109.8770 E5.4383
G1 X88.9880 Y109.6860 E5.4532
G1 X89.3720 Y109.5270 E5.4681
G1 X89.7680 Y109.4020 E5.4830
G1 X90.1730 Y109.3130 E5.4979
G1 X90.5850 Y109.2580 E5.5128
G1 X91.0050 Y109.2400 E5.5279
G1 X95.5510 Y117.2730 F5000 ; custom feedrate
G92 E0.0000
G1 X103.7900 Y125.5120 E0.4185 F2400 ; custom feedrate
G1 X103.1110 Y125.5120 E0.4429
G1 X95.2650 Y117.6670 E0.8414
G1 X94.9800 Y118.0600 E0.8589
G1 X102.4320 Y125.5120 E1.2375
G1 X101.7530 Y125.5120 E1.2619
G1 X94.6940 Y118.4530 E1.6205
G1 X94.4090 Y118.8460 E1.6379
G1 X101.0740 Y125.5120 E1.9765
G1 X100.3960 Y125.5120 E2.0009
G1 X94.1230 Y119.2390 E2.3196
G1 X93.8510 Y119.6130 E2.3362
G1 X93.8020 Y119.5980 E2.3380
G1 X99.7170 Y125.5120 E2.6385
G1 X99.0380 Y125.5120 E2.6629
G1 X92.7970 Y119.2710 E2.9799
G1 X91.7910 Y118.9440 E3.0179
G1 X98.3590 Y125.5120 E3.3515
G1 X97.6800 Y125.5120 E3.3759
G1 X90.7860 Y118.6170 E3.7261
G1 X90.0900 Y125.3890 F5000 ; custom feedrate
G92 E0.0000
G1 X87.6200 Y122.9190 E0.1255 F2400 ; custom feedrate
G1 X87.5440 Y122.6090 E0.1369
G1 X87.4930 Y122.1370 E0.1540
G1 X87.4930 Y122.1130 E0.1548
G1 X90.8810 Y125.5010 E0.3270
G1 X91.0490 Y125.5120 E0.3330
G1 X91.5710 Y125.5120 E0.3518
G1 X87.4930 Y121.4340 E0.5589
G1 X87.4930 Y120.7550 E0.5833
G1 X92.2500 Y125.5120 E0.8250
G1 X92.9290 Y125.5120 E0.8494
G1 X87.4930 Y120.0760 E1.1255
G1 X87.4930 Y119.3970 E1.1499
G1 X93.6070 Y125.5120 E1.4605
G1 X94.2860 Y125.5120 E1.4849
G1 X87.4930 Y118.7190 E1.8300
G1 X87.4930 Y118.0400 E1.8544
G1 X94.9650 Y125.5120 E2.2340
G1 X95.6440 Y125.5120 E2.2583
G1 X87.4930 Y117.3610 E2.6724
G1 X87.4930 Y116.6820 E2.6968
G1 X96.3230 Y125.5120 E3.1454
G1 X97.0010 Y125.5120 E3.1697
G1 X87.4930 Y116.0030 E3.6528
G1 X87.4930 Y115.3240 E3.6772
G1 X90.7720 Y118.6040 E3.8437
G1 X90.7720 Y117.9250 E3.8681
G1 X87.4930 Y114.6460 E4.0347
G1 X87.4930 Y113.9670 E4.0591
G1 X90.7720 Y117.2460 E4.2257
G1 X90.7720 Y116.5670 E4.2501
G1 X87.5530 Y113.3490 E4.4136
G1 X87.5730 Y113.2400 E4.4175
G1 X87.6520 Y112.9440 E4.4285
G1 X87.6990 Y112.8150 E4.4335
G1 X90.7720 Y115.8880 E4.5896
G1 X90.7720 Y115.3750 E4.6080
G1 X90.8970 Y115.3350 E4.6127
G1 X87.9060 Y112.3440 E4.7647
G1 X88.0390 Y112.1140 E4.7742
G1 X88.1690 Y111.9280 E4.7823
G1 X91.4090 Y115.1680 E4.9469
G1 X91.9220 Y115.0020 E4.9663
G1 X88.4800 Y111.5600 E5.1411
G1 X88.6280 Y111.4120 E5.1487
G1 X88.7590 Y111.3020 E5.1548
G1 X88.8360 Y111.2370 E5.1584
G1 X92.4340 Y114.8350 E5.3412
G1 X92.9470 Y114.6690 E5.3605
G1 X89.2420 Y110.9640 E5.5488
G1 X89.2500 Y110.9590 E5.5491
G1 X89.2590 Y110.9520 E5.5495
G1 X89.3810 Y110.8890 E5.5544
G1 X89.5160 Y110.8180 E5.5599
G1 X89.6990 Y110.7430 E5.5670
G1 X93.4590 Y114.5020 E5.7580
G1 X93.8510 Y114.3750 E5.7728
G1 X95.2320 Y116.2750 E5.8572
G1 X104.4690 Y125.5120 E6.3264
G1 X105.1470 Y125.5120 E6.3508
G1 X90.2170 Y110.5810 E7.1093
G1 X90.3900 Y110.5430 E7.1157
G1 X90.6940 Y110.5030 E7.1267
G1 X90.8120 Y110.4980 E7.1309
G1 X105.8260 Y125.5120 E7.8937
G1 X106.5050 Y125.5120 E7.9181
G1 X91.4810 Y110.4880 E8.6813
G1 X92.1600 Y110.4880 E8.7057
G1 X107.1840 Y125.5120 E9.4689
G1 X107.8630 Y125.5120 E9.4933
G1 X92.8390 Y110.4880 E10.2565
G1 X93.5170 Y110.4880 E10.2809
G1 X108.5410 Y125.5120 E11.0441
G1 X109.2200 Y125.5120 E11.0685
G1 X94.1960 Y110.4880 E11.8317
G1 X94.8750 Y110.4880 E11.8561
G1 X109.8990 Y125.5120 E12.6193
G1 X110.5780 Y125.5120 E12.6437
G1 X95.5540 Y110.4880 E13.4069
G1 X96.2330 Y110.4880 E13.4313
G1 X111.2570 Y125.5120 E14.1945
G1 X111.9360 Y125.5120 E14.2189
G1 X96.9120 Y110.4880 E14.9821
G1 X97.5900 Y110.4880 E15.0065
G1 X112.6140 Y125.5120 E15.7697
G1 X113.2930 Y125.5120 E15.7941
G1 X98.2690 Y110.4880 E16.5573
G1 X98.9480 Y110.4880 E16.5817
G1 X113.9720 Y125.5120 E17.3449
G1 X114.6510 Y125.5120 E17.3693
G1 X99.6270 Y110.4880 E18.1325
G1 X100.3060 Y110.4880 E18.1569
G1 X115.3300 Y125.5120 E18.9201
G1 X116.0080 Y125.5120 E18.9445
G1 X100.9840 Y110.4880 E19.7077
G1 X101.6630 Y110.4880 E19.7321
G1 X116.6870 Y125.5120 E20.4953
G1 X117.3660 Y125.5120 E20.5197
G1 X102.3420 Y110.4880 E21.2829
G1 X103.0210 Y110.4880 E21.3073
G1 X118.0450 Y125.5120 E22.0705
G1 X118.7240 Y125.5120 E22.0949
G1 X103.7000 Y110.4880 E22.8581
G1 X104.3790 Y110.4880 E22.8825
G1 X119.4030 Y125.5120 E23.6457
G1 X120.0810 Y125.5120 E23.6701
G1 X105.0570 Y110.4880 E24.4333
G1 X105.7360 Y110.4880 E24.4577
G1 X120.7600 Y125.5120 E25.2209
G1 X121.4390 Y125.5120 E25.2453
G1 X106.4150 Y110.4880 E26.0085
G1 X107.0940 Y110.4880 E26.0329
G1 X122.1180 Y125.5120 E26.7961
G1 X122.7970 Y125.5120 E26.8205
G1 X107.7730 Y110.4880 E27.5837
G1 X108.4520 Y110.4880 E27.6081
G1 X123.4760 Y125.5120 E28.3713
G1 X124.1540 Y125.5120 E28.3957
G1 X109.1300 Y110.4880 E29.1589
G1 X109.8090 Y110.4880 E29.1833
G1 X124.8330 Y125.5120 E29.9465
G1 X125.5120 Y125.5120 E29.9709
G1 X110.4880 Y110.4880 E30.7341
G1 X111.1670 Y110.4880 E30.7585
G1 X126.1910 Y125.5120 E31.5217
G1 X126.8700 Y125.5120 E31.5461
G1 X111.8460 Y110.4880 E32.3093
G1 X112.5240 Y110.4880 E32.3337
G1 X127.5480 Y125.5120 E33.0969
G1 X128.2270 Y125.5120 E33.1213
G1 X113.2030 Y110.4880 E33.8845
G1 X113.8820 Y110.4880 E33.9089
G1 X128.9060 Y125.5120 E34.6721
G1 X129.5850 Y125.5120 E34.6965
G1 X114.5610 Y110.4880 E35.4597
G1 X115.2400 Y110.4880 E35.4841
G1 X130.2640 Y125.5120 E36.2473
G1 X130.9430 Y125.5120 E36.2717
G1 X115.9190 Y110.4880 E37.0349
G1 X116.5970 Y110.4880 E37.0593
G1 X131.6210 Y125.5120 E37.8225
G1 X132.3000 Y125.5120 E37.8469
G1 X117.2760 Y110.4880 E38.6101
G1 X117.9550 Y110.4880 E38.6345
G1 X132.9790 Y125.5120 E39.3977
G1 X133.6580 Y125.5120 E39.4221
G1 X118.6340 Y110.4880 E40.1853
G1 X119.3130 Y110.4880 E40.2097
G1 X134.3370 Y125.5120 E40.9729
G1 X135.0160 Y125.5120 E40.9973
G1 X119.9920 Y110.4880 E41.7605
G1 X120.6700 Y110.4880 E41.7849
G1 X135.6940 Y125.5120 E42.5481
G1 X136.3730 Y125.5120 E42.5725
G1 X121.3490 Y110.4880 E43.3357
G1 X122.0280 Y110.4880 E43.3601
G1 X137.0520 Y125.5120 E44.1233
G1 X137.7310 Y125.5120 E44.1477
G1 X122.7070 Y110.4880 E44.9109
G1 X123.3860 Y110.4880 E44.9353
G1 X138.4100 Y125.5120 E45.6985
G1 X139.0880 Y125.5120 E45.7229
G1 X124.0640 Y110.4880 E46.4861
G1 X124.7430 Y110.4880 E46.5105
G1 X139.7670 Y125.5120 E47.2737
G1 X140.4460 Y125.5120 E47.2981
G1 X125.4220 Y110.4880 E48.0613
G1 X126.1010 Y110.4880 E48.0857
G1 X141.1250 Y125.5120 E48.8489
G1 X141.8040 Y125.5120 E48.8733
G1 X126.7800 Y110.4880 E49.6365
G1 X127.4590 Y110.4880 E49.6609
G1 X142.4830 Y125.5120 E50.4241
G1 X143.1610 Y125.5120 E50.4485
G1 X128.1370 Y110.4880 E51.2117
G1 X128.8160 Y110.4880 E51.2361
G1 X143.8400 Y125.5120 E51.9993
G1 X144.5190 Y125.5120 E52.0237
G1 X129.4950 Y110.4880 E52.7870
G1 X130.1740 Y110.4880 E52.8113
G1 X145.1880 Y125.5020 E53.5741
G1 X145.3060 Y125.4970 E53.5783
G1 X145.6100 Y125.4570 E53.5893
G1 X145.7520 Y125.4260 E53.5946
G1 X145.7830 Y125.4190 E53.5957
G1 X130.8530 Y110.4880 E54.3542
G1 X131.5320 Y110.4880 E54.3786
G1 X146.3000 Y125.2560 E55.1288
G1 X146.3580 Y125.2360 E55.1310
G1 X146.3870 Y125.2230 E55.1321
G1 X146.6210 Y125.1140 E55.1414
G1 X146.7220 Y125.0560 E55.1456
G1 X146.7570 Y125.0350 E55.1471
G1 X132.2100 Y110.4880 E55.8861
G1 X132.8890 Y110.4880 E55.9104
G1 X147.1640 Y124.7630 E56.6356
G1 X147.3720 Y124.5880 E56.6453
G1 X147.5200 Y124.4400 E56.6529
G1 X142.5600 Y119.4800 E56.9049
G1 X142.1490 Y119.6130 E56.9204
G1 X140.7020 Y117.6220 E57.0088
G1 X133.5680 Y110.4880 E57.3712
G1 X134.2470 Y110.4880 E57.3956
G1 X140.4590 Y116.7010 E57.7112
G1 X140.7450 Y116.3070 E57.7286
G1 X134.9260 Y110.4880 E58.0243
G1 X135.6040 Y110.4880 E58.0486
G1 X141.0310 Y115.9140 E58.3243
G1 X141.3160 Y115.5210 E58.3418
G1 X136.2830 Y110.4880 E58.5974
G1 X136.9620 Y110.4880 E58.6218
G1 X141.6020 Y115.1280 E58.8575
G1 X141.8880 Y114.7350 E58.8750
G1 X137.6410 Y110.4880 E59.0907
G1 X138.3200 Y110.4880 E59.1151
G1 X142.2340 Y114.4030 E59.3140
G1 X143.2400 Y114.7290 E59.3519
G1 X138.9990 Y110.4880 E59.5674
G1 X139.6770 Y110.4880 E59.5918
G1 X144.2460 Y115.0560 E59.8238
G1 X145.2280 Y115.3750 E59.8610
G1 X145.2280 Y116.0390 E59.8848
G1 X148.5120 Y119.3230 E60.0516
G1 X148.5120 Y118.6440 E60.0760
G1 X140.3560 Y110.4880 E60.4903
G1 X141.0350 Y110.4880 E60.5147
G1 X148.5120 Y117.9650 E60.8945
G1 X148.5120 Y117.2860 E60.9189
G1 X141.7140 Y110.4880 E61.2642
G1 X142.3930 Y110.4880 E61.2886
G1 X148.5120 Y116.6070 E61.5995
G1 X148.5120 Y115.9290 E61.6239
G1 X143.0710 Y110.4880 E61.9002
G1 X143.7500 Y110.4880 E61.9246
G1 X148.5120 Y115.2500 E62.1665
G1 X148.5120 Y114.5710 E62.1909
G1 X144.4290 Y110.4880 E62.3983
G1 X144.9510 Y110.4880 E62.4171
G1 X145.1190 Y110.4990 E62.4231
G1 X148.5060 Y113.8860 E62.5951
G1 X148.4970 Y113.6940 E62.6020
G1 X148.4590 Y113.4060 E62.6125
G1 X148.3800 Y113.0810 E62.6245
G1 X145.9100 Y110.6110 E62.7499
G1 X145.2280 Y116.7180 F5000 ; custom feedrate
G92 E0.0000
G1 X148.5120 Y120.0010 E0.1668 F2400 ; custom feedrate
G1 X148.5120 Y120.6800 E0.1912
G1 X145.2280 Y117.3960 E0.3580
G1 X145.2280 Y118.0750 E0.3824
G1 X148.5120 Y121.3590 E0.5492
G1 X148.5120 Y121.9510 E0.5705
G1 X148.5070 Y122.0330 E0.5734
G1 X145.1220 Y118.6480 E0.7454
G1 X144.6090 Y118.8140 E0.7647
G1 X148.4470 Y122.6510 E0.9597
G1 X148.4270 Y122.7600 E0.9636
G1 X148.3480 Y123.0560 E0.9746
G1 X148.3010 Y123.1850 E0.9796
G1 X144.0970 Y118.9810 E1.1931
G1 X143.5850 Y119.1470 E1.2125
G1 X148.0940 Y123.6560 E1.4416
G1 X147.9610 Y123.8860 E1.4511
G1 X147.8800 Y124.0020 E1.4562
G1 X147.8310 Y124.0720 E1.4592
G1 X143.0720 Y119.3130 E1.7010
G92 E0.0000
G1 E-4 F2400 ; custom retraction - A
;layer 6, Z = 1.200
;fan6;
G1 Z1.200 F1200
G1 X140.4830 Y116.9940 F5000 ; custom feedrate
G1 E0 F2400 ; custom un-retraction/prime - A
G92 E0.0000
G1 X142.2220 Y114.6010 E0.1063 F2400 ; custom feedrate
G1 X145.0360 Y115.5150 E0.2125
G1 X145.0360 Y118.4730 E0.3188
G1 X142.2220 Y119.3880 E0.4251
G1 X140.4830 Y116.9940 E0.5314
G1 X139.8900 Y116.9940 F5000 ; custom feedrate
G92 E0.0000
G1 X142.0390 Y114.0360 E0.1313 F2400 ; custom feedrate
G1 X145.5160 Y115.1660 E0.2627
G1 X145.5160 Y118.8220 E0.3940
G1 X142.0390 Y119.9520 E0.5253
G1 X139.8900 Y116.9940 E0.6566
G1 X139.2970 Y116.9940 F5000 ; custom feedrate
G92 E0.0000
G1 X141.8560 Y113.4720 E0.1564 F1800 ; custom feedrate
G1 X145.9960 Y114.8170 E0.3128
G1 X145.9960 Y119.1710 E0.4691
G1 X141.8560 Y120.5160 E0.6255
G1 X139.2970 Y116.9940 E0.7819
G92 E0.0000
G1 E-4 F2400 ; custom retraction - A
;zhop1
G1 X95.5170 Y116.9940 F5000 ; custom feedrate
G1 Z1.200 F1200
G1 E0 F2400 ; custom un-retraction/prime - A
G92 E0.0000
G1 X93.7780 Y119.3880 E0.1063 F2400 ; custom feedrate
G1 X90.9640 Y118.4730 E0.2125
G1 X90.9640 Y115.5150 E0.3188
G1 X93.7780 Y114.6010 E0.4251
G1 X95.5170 Y116.9940 E0.5314
G1 X96.1100 Y116.9940 F5000 ; custom feedrate
G92 E0.0000
G1 X93.9610 Y119.9520 E0.1313 F2400 ; custom feedrate
G1 X90.4840 Y118.8220 E0.2627
G1 X90.4840 Y115.1660 E0.3940
G1 X93.9610 Y114.0360 E0.5253
G1 X96.1100 Y116.9940 E0.6566
G1 X96.7030 Y116.9940 F5000 ; custom feedrate
G92 E0.0000
G1 X94.1440 Y120.5160 E0.1564 F1800 ; custom feedrate
G1 X90.0040 Y119.1710 E0.3128
G1 X90.0040 Y114.8170 E0.4691
G1 X94.1440 Y113.4720 E0.6255
G1 X96.7030 Y116.9940 E0.7819
G92 E0.0000
G1 E-4 F2400 ; custom retraction - A
;layer 7, Z = 1.400
;fan7;
G1 Z1.400 F1200
G1 X95.5170 Y116.9940 F5000 ; custom feedrate
G1 E0 F2400 ; custom un-retraction/prime - A
G92 E0.0000
G1 X93.7780 Y119.3880 E0.1063 F2400 ; custom feedrate
G1 X90.9640 Y118.4730 E0.2125
G1 X90.9640 Y115.5150 E0.3188
G1 X93.7780 Y114.6010 E0.4251
G1 X95.5170 Y116.9940 E0.5314
G1 X96.1100 Y116.9940 F5000 ; custom feedrate
G92 E0.0000
G1 X93.9610 Y119.9520 E0.1313 F2400 ; custom feedrate
G1 X90.4840 Y118.8220 E0.2627
G1 X90.4840 Y115.1660 E0.3940
G1 X93.9610 Y114.0360 E0.5253
G1 X96.1100 Y116.9940 E0.6566
G1 X96.7030 Y116.9940 F5000 ; custom feedrate
G92 E0.0000
G1 X94.1440 Y120.5160 E0.1564 F1800 ; custom feedrate
G1 X90.0040 Y119.1710 E0.3128
G1 X90.0040 Y114.8170 E0.4691
G1 X94.1440 Y113.4720 E0.6255
G1 X96.7030 Y116.9940 E0.7819
G92 E0.0000
G1 E-4 F2400 ; custom retraction - A
;zhop1
G1 X140.4830 Y116.9940 F5000 ; custom feedrate
G1 Z1.400 F1200
G1 E0 F2400 ; custom un-retraction/prime - A
G92 E0.0000
G1 X142.2220 Y114.6010 E0.1063 F2400 ; custom feedrate
G1 X145.0360 Y115.5150 E0.2125
G1 X145.0360 Y118.4730 E0.3188
G1 X142.2220 Y119.3880 E0.4251
G1 X140.4830 Y116.9940 E0.5314
G1 X139.8900 Y116.9940 F5000 ; custom feedrate
G92 E0.0000
G1 X142.0390 Y114.0360 E0.1313 F2400 ; custom feedrate
G1 X145.5160 Y115.1660 E0.2627
G1 X145.5160 Y118.8220 E0.3940
G1 X142.0390 Y119.9520 E0.5253
G1 X139.8900 Y116.9940 E0.6566
G1 X139.2970 Y116.9940 F5000 ; custom feedrate
G92 E0.0000
G1 X141.8560 Y113.4720 E0.1564 F1800 ; custom feedrate
G1 X145.9960 Y114.8170 E0.3128
G1 X145.9960 Y119.1710 E0.4691
G1 X141.8560 Y120.5160 E0.6255
G1 X139.2970 Y116.9940 E0.7819
G92 E0.0000
G1 E-4 F2400 ; custom retraction - A
;layer 8, Z = 1.600
;fan8;
G1 Z1.600 F1200
G1 X140.4830 Y116.9940 F5000 ; custom feedrate
G1 E0 F2400 ; custom un-retraction/prime - A
G92 E0.0000
G1 X142.2220 Y114.6010 E0.1063 F2400 ; custom feedrate
G1 X145.0360 Y115.5150 E0.2125
G1 X145.0360 Y118.4730 E0.3188
G1 X142.2220 Y119.3880 E0.4251
G1 X140.4830 Y116.9940 E0.5314
G1 X139.8900 Y116.9940 F5000 ; custom feedrate
G92 E0.0000
G1 X142.0390 Y114.0360 E0.1313 F2400 ; custom feedrate
G1 X145.5160 Y115.1660 E0.2627
G1 X145.5160 Y118.8220 E0.3940
G1 X142.0390 Y119.9520 E0.5253
G1 X139.8900 Y116.9940 E0.6566
G1 X139.2970 Y116.9940 F5000 ; custom feedrate
G92 E0.0000
G1 X141.8560 Y113.4720 E0.1564 F1800 ; custom feedrate
G1 X145.9960 Y114.8170 E0.3128
G1 X145.9960 Y119.1710 E0.4691
G1 X141.8560 Y120.5160 E0.6255
G1 X139.2970 Y116.9940 E0.7819
G92 E0.0000
G1 E-4 F2400 ; custom retraction - A
;zhop1
G1 X95.5170 Y116.9940 F5000 ; custom feedrate
G1 Z1.600 F1200
G1 E0 F2400 ; custom un-retraction/prime - A
G92 E0.0000
G1 X93.7780 Y119.3880 E0.1063 F2400 ; custom feedrate
G1 X90.9640 Y118.4730 E0.2125
G1 X90.9640 Y115.5150 E0.3188
G1 X93.7780 Y114.6010 E0.4251
G1 X95.5170 Y116.9940 E0.5314
G1 X96.1100 Y116.9940 F5000 ; custom feedrate
G92 E0.0000
G1 X93.9610 Y119.9520 E0.1313 F2400 ; custom feedrate
G1 X90.4840 Y118.8220 E0.2627
G1 X90.4840 Y115.1660 E0.3940
G1 X93.9610 Y114.0360 E0.5253
G1 X96.1100 Y116.9940 E0.6566
G1 X96.7030 Y116.9940 F5000 ; custom feedrate
G92 E0.0000
G1 X94.1440 Y120.5160 E0.1564 F1800 ; custom feedrate
G1 X90.0040 Y119.1710 E0.3128
G1 X90.0040 Y114.8170 E0.4691
G1 X94.1440 Y113.4720 E0.6255
G1 X96.7030 Y116.9940 E0.7819
G92 E0.0000
G1 E-4 F2400 ; custom retraction - A
;layer 9, Z = 1.800
;fan9;
G1 Z1.800 F1200
G1 X95.5170 Y116.9940 F5000 ; custom feedrate
G1 E0 F2400 ; custom un-retraction/prime - A
G92 E0.0000
G1 X93.7780 Y119.3880 E0.1063 F2400 ; custom feedrate
G1 X90.9640 Y118.4730 E0.2125
G1 X90.9640 Y115.5150 E0.3188
G1 X93.7780 Y114.6010 E0.4251
G1 X95.5170 Y116.9940 E0.5314
G1 X96.1100 Y116.9940 F5000 ; custom feedrate
G92 E0.0000
G1 X93.9610 Y119.9520 E0.1313 F2400 ; custom feedrate
G1 X90.4840 Y118.8220 E0.2627
G1 X90.4840 Y115.1660 E0.3940
G1 X93.9610 Y114.0360 E0.5253
G1 X96.1100 Y116.9940 E0.6566
G1 X96.7030 Y116.9940 F5000 ; custom feedrate
G92 E0.0000
G1 X94.1440 Y120.5160 E0.1564 F1800 ; custom feedrate
G1 X90.0040 Y119.1710 E0.3128
G1 X90.0040 Y114.8170 E0.4691
G1 X94.1440 Y113.4720 E0.6255
G1 X96.7030 Y116.9940 E0.7819
G92 E0.0000
G1 E-4 F2400 ; custom retraction - A
;zhop1
G1 X140.4830 Y116.9940 F5000 ; custom feedrate
G1 Z1.800 F1200
G1 E0 F2400 ; custom un-retraction/prime - A
G92 E0.0000
G1 X142.2220 Y114.6010 E0.1063 F2400 ; custom feedrate
G1 X145.0360 Y115.5150 E0.2125
G1 X145.0360 Y118.4730 E0.3188
G1 X142.2220 Y119.3880 E0.4251
G1 X140.4830 Y116.9940 E0.5314
G1 X139.8900 Y116.9940 F5000 ; custom feedrate
G92 E0.0000
G1 X142.0390 Y114.0360 E0.1313 F2400 ; custom feedrate
G1 X145.5160 Y115.1660 E0.2627
G1 X145.5160 Y118.8220 E0.3940
G1 X142.0390 Y119.9520 E0.5253
G1 X139.8900 Y116.9940 E0.6566
G1 X139.2970 Y116.9940 F5000 ; custom feedrate
G92 E0.0000
G1 X141.8560 Y113.4720 E0.1564 F1800 ; custom feedrate
G1 X145.9960 Y114.8170 E0.3128
G1 X145.9960 Y119.1710 E0.4691
G1 X141.8560 Y120.5160 E0.6255
G1 X139.2970 Y116.9940 E0.7819
G92 E0.0000
G1 E-4 F2400 ; custom retraction - A
;layer 10, Z = 2.000
;fan10;
G1 Z2.000 F1200
G1 X140.4830 Y116.9940 F5000 ; custom feedrate
G1 E0 F2400 ; custom un-retraction/prime - A
G92 E0.0000
G1 X142.2220 Y114.6010 E0.1063 F2400 ; custom feedrate
G1 X145.0360 Y115.5150 E0.2125
G1 X145.0360 Y118.4730 E0.3188
G1 X142.2220 Y119.3880 E0.4251
G1 X140.4830 Y116.9940 E0.5314
G1 X139.8900 Y116.9940 F5000 ; custom feedrate
G92 E0.0000
G1 X142.0390 Y114.0360 E0.1313 F2400 ; custom feedrate
G1 X145.5160 Y115.1660 E0.2627
G1 X145.5160 Y118.8220 E0.3940
G1 X142.0390 Y119.9520 E0.5253
G1 X139.8900 Y116.9940 E0.6566
G1 X139.2970 Y116.9940 F5000 ; custom feedrate
G92 E0.0000
G1 X141.8560 Y113.4720 E0.1564 F1800 ; custom feedrate
G1 X145.9960 Y114.8170 E0.3128
G1 X145.9960 Y119.1710 E0.4691
G1 X141.8560 Y120.5160 E0.6255
G1 X139.2970 Y116.9940 E0.7819
G92 E0.0000
G1 E-4 F2400 ; custom retraction - A
;zhop1
G1 X95.5170 Y116.9940 F5000 ; custom feedrate
G1 Z2.000 F1200
G1 E0 F2400 ; custom un-retraction/prime - A
G92 E0.0000
G1 X93.7780 Y119.3880 E0.1063 F2400 ; custom feedrate
G1 X90.9640 Y118.4730 E0.2125
G1 X90.9640 Y115.5150 E0.3188
G1 X93.7780 Y114.6010 E0.4251
G1 X95.5170 Y116.9940 E0.5314
G1 X96.1100 Y116.9940 F5000 ; custom feedrate
G92 E0.0000
G1 X93.9610 Y119.9520 E0.1313 F2400 ; custom feedrate
G1 X90.4840 Y118.8220 E0.2627
G1 X90.4840 Y115.1660 E0.3940
G1 X93.9610 Y114.0360 E0.5253
G1 X96.1100 Y116.9940 E0.6566
G1 X96.7030 Y116.9940 F5000 ; custom feedrate
G92 E0.0000
G1 X94.1440 Y120.5160 E0.1564 F1800 ; custom feedrate
G1 X90.0040 Y119.1710 E0.3128
G1 X90.0040 Y114.8170 E0.4691
G1 X94.1440 Y113.4720 E0.6255
G1 X96.7030 Y116.9940 E0.7819
G92 E0.0000
G1 E-4 F2400 ; custom retraction - A
;process Process-2
;layer 11, Z = 2.200
;fan11;
G1 Z2.200 F1200
G1 X95.5170 Y116.9940 F5000 ; custom feedrate
G1 E0 F2400 ; custom un-retraction/prime - A
G92 E0.0000
G1 X93.7780 Y119.3880 E0.1063 F2400 ; custom feedrate
G1 X90.9640 Y118.4730 E0.2125
G1 X90.9640 Y115.5150 E0.3188
G1 X93.7780 Y114.6010 E0.4251
G1 X95.5170 Y116.9940 E0.5314
G1 X96.1100 Y116.9940 F5000 ; custom feedrate
G92 E0.0000
G1 X93.9610 Y119.9520 E0.1313 F2400 ; custom feedrate
G1 X90.4840 Y118.8220 E0.2627
G1 X90.4840 Y115.1660 E0.3940
G1 X93.9610 Y114.0360 E0.5253
G1 X96.1100 Y116.9940 E0.6566
G1 X96.7030 Y116.9940 F5000 ; custom feedrate
G92 E0.0000
G1 X94.1440 Y120.5160 E0.1564 F1800 ; custom feedrate
G1 X90.0040 Y119.1710 E0.3128
G1 X90.0040 Y114.8170 E0.4691
G1 X94.1440 Y113.4720 E0.6255
G1 X96.7030 Y116.9940 E0.7819
G92 E0.0000
G1 E-4 F2400 ; custom retraction - A
;zhop1
G1 X140.4830 Y116.9940 F5000 ; custom feedrate
G1 Z2.200 F1200
G1 E0 F2400 ; custom un-retraction/prime - A
G92 E0.0000
G1 X142.2220 Y114.6010 E0.1063 F2400 ; custom feedrate
G1 X145.0360 Y115.5150 E0.2125
G1 X145.0360 Y118.4730 E0.3188
G1 X142.2220 Y119.3880 E0.4251
G1 X140.4830 Y116.9940 E0.5314
G1 X139.8900 Y116.9940 F5000 ; custom feedrate
G92 E0.0000
G1 X142.0390 Y114.0360 E0.1313 F2400 ; custom feedrate
G1 X145.5160 Y115.1660 E0.2627
G1 X145.5160 Y118.8220 E0.3940
G1 X142.0390 Y119.9520 E0.5253
G1 X139.8900 Y116.9940 E0.6566
G1 X139.2970 Y116.9940 F5000 ; custom feedrate
G92 E0.0000
G1 X141.8560 Y113.4720 E0.1564 F1800 ; custom feedrate
G1 X145.9960 Y114.8170 E0.3128
G1 X145.9960 Y119.1710 E0.4691
G1 X141.8560 Y120.5160 E0.6255
G1 X139.2970 Y116.9940 E0.7819
G92 E0.0000
G1 E-4 F2400 ; custom retraction - A
;layer 12, Z = 2.400
;fan12;
G1 Z2.400 F1200
G1 X140.4830 Y116.9940 F5000 ; custom feedrate
G1 E0 F2400 ; custom un-retraction/prime - A
G92 E0.0000
G1 X142.2220 Y114.6010 E0.1063 F2400 ; custom feedrate
G1 X145.0360 Y115.5150 E0.2125
G1 X145.0360 Y118.4730 E0.3188
G1 X142.2220 Y119.3880 E0.4251
G1 X140.4830 Y116.9940 E0.5314
G1 X139.8900 Y116.9940 F5000 ; custom feedrate
G92 E0.0000
G1 X142.0390 Y114.0360 E0.1313 F2400 ; custom feedrate
G1 X145.5160 Y115.1660 E0.2627
G1 X145.5160 Y118.8220 E0.3940
G1 X142.0390 Y119.9520 E0.5253
G1 X139.8900 Y116.9940 E0.6566
G1 X139.2970 Y116.9940 F5000 ; custom feedrate
G92 E0.0000
G1 X141.8560 Y113.4720 E0.1564 F1800 ; custom feedrate
G1 X145.9960 Y114.8170 E0.3128
G1 X145.9960 Y119.1710 E0.4691
G1 X141.8560 Y120.5160 E0.6255
G1 X139.2970 Y116.9940 E0.7819
G92 E0.0000
G1 E-4 F2400 ; custom retraction - A
;zhop1
G1 X95.5170 Y116.9940 F5000 ; custom feedrate
G1 Z2.400 F1200
G1 E0 F2400 ; custom un-retraction/prime - A
G92 E0.0000
G1 X93.7780 Y119.3880 E0.1063 F2400 ; custom feedrate
G1 X90.9640 Y118.4730 E0.2125
G1 X90.9640 Y115.5150 E0.3188
G1 X93.7780 Y114.6010 E0.4251
G1 X95.5170 Y116.9940 E0.5314
G1 X96.1100 Y116.9940 F5000 ; custom feedrate
G92 E0.0000
G1 X93.9610 Y119.9520 E0.1313 F2400 ; custom feedrate
G1 X90.4840 Y118.8220 E0.2627
G1 X90.4840 Y115.1660 E0.3940
G1 X93.9610 Y114.0360 E0.5253
G1 X96.1100 Y116.9940 E0.6566
G1 X96.7030 Y116.9940 F5000 ; custom feedrate
G92 E0.0000
G1 X94.1440 Y120.5160 E0.1564 F1800 ; custom feedrate
G1 X90.0040 Y119.1710 E0.3128
G1 X90.0040 Y114.8170 E0.4691
G1 X94.1440 Y113.4720 E0.6255
G1 X96.7030 Y116.9940 E0.7819
G92 E0.0000
G1 E-4 F2400 ; custom retraction - A
;layer 13, Z = 2.600
;fan13;
G1 Z2.600 F1200
G1 X95.5170 Y116.9940 F5000 ; custom feedrate
G1 E0 F2400 ; custom un-retraction/prime - A
G92 E0.0000
G1 X93.7780 Y119.3880 E0.1063 F2400 ; custom feedrate
G1 X90.9640 Y118.4730 E0.2125
G1 X90.9640 Y115.5150 E0.3188
G1 X93.7780 Y114.6010 E0.4251
G1 X95.5170 Y116.9940 E0.5314
G1 X96.1100 Y116.9940 F5000 ; custom feedrate
G92 E0.0000
G1 X93.9610 Y119.9520 E0.1313 F2400 ; custom feedrate
G1 X90.4840 Y118.8220 E0.2627
G1 X90.4840 Y115.1660 E0.3940
G1 X93.9610 Y114.0360 E0.5253
G1 X96.1100 Y116.9940 E0.6566
G1 X96.7030 Y116.9940 F5000 ; custom feedrate
G92 E0.0000
G1 X94.1440 Y120.5160 E0.1564 F1800 ; custom feedrate
G1 X90.0040 Y119.1710 E0.3128
G1 X90.0040 Y114.8170 E0.4691
G1 X94.1440 Y113.4720 E0.6255
G1 X96.7030 Y116.9940 E0.7819
G92 E0.0000
G1 E-4 F2400 ; custom retraction - A
;zhop1
G1 X140.4830 Y116.9940 F5000 ; custom feedrate
G1 Z2.600 F1200
G1 E0 F2400 ; custom un-retraction/prime - A
G92 E0.0000
G1 X142.2220 Y114.6010 E0.1063 F2400 ; custom feedrate
G1 X145.0360 Y115.5150 E0.2125
G1 X145.0360 Y118.4730 E0.3188
G1 X142.2220 Y119.3880 E0.4251
G1 X140.4830 Y116.9940 E0.5314
G1 X139.8900 Y116.9940 F5000 ; custom feedrate
G92 E0.0000
G1 X142.0390 Y114.0360 E0.1313 F2400 ; custom feedrate
G1 X145.5160 Y115.1660 E0.2627
G1 X145.5160 Y118.8220 E0.3940
G1 X142.0390 Y119.9520 E0.5253
G1 X139.8900 Y116.9940 E0.6566
G1 X139.2970 Y116.9940 F5000 ; custom feedrate
G92 E0.0000
G1 X141.8560 Y113.4720 E0.1564 F1800 ; custom feedrate
G1 X145.9960 Y114.8170 E0.3128
G1 X145.9960 Y119.1710 E0.4691
G1 X141.8560 Y120.5160 E0.6255
G1 X139.2970 Y116.9940 E0.7819
G92 E0.0000
G1 E-4 F2400 ; custom retraction - A
;layer 14, Z = 2.800
;fan14;
G1 Z2.800 F1200
G1 X140.4830 Y116.9940 F5000 ; custom feedrate
G1 E0 F2400 ; custom un-retraction/prime - A
G92 E0.0000
G1 X142.2220 Y114.6010 E0.1063 F2400 ; custom feedrate
G1 X145.0360 Y115.5150 E0.2125
G1 X145.0360 Y118.4730 E0.3188
G1 X142.2220 Y119.3880 E0.4251
G1 X140.4830 Y116.9940 E0.5314
G1 X139.8900 Y116.9940 F5000 ; custom feedrate
G92 E0.0000
G1 X142.0390 Y114.0360 E0.1313 F2400 ; custom feedrate
G1 X145.5160 Y115.1660 E0.2627
G1 X145.5160 Y118.8220 E0.3940
G1 X142.0390 Y119.9520 E0.5253
G1 X139.8900 Y116.9940 E0.6566
G1 X139.2970 Y116.9940 F5000 ; custom feedrate
G92 E0.0000
G1 X141.8560 Y113.4720 E0.1564 F1800 ; custom feedrate
G1 X145.9960 Y114.8170 E0.3128
G1 X145.9960 Y119.1710 E0.4691
G1 X141.8560 Y120.5160 E0.6255
G1 X139.2970 Y116.9940 E0.7819
G92 E0.0000
G1 E-4 F2400 ; custom retraction - A
;zhop1
G1 X95.5170 Y116.9940 F5000 ; custom feedrate
G1 Z2.800 F1200
G1 E0 F2400 ; custom un-retraction/prime - A
G92 E0.0000
G1 X93.7780 Y119.3880 E0.1063 F2400 ; custom feedrate
G1 X90.9640 Y118.4730 E0.2125
G1 X90.9640 Y115.5150 E0.3188
G1 X93.7780 Y114.6010 E0.4251
G1 X95.5170 Y116.9940 E0.5314
G1 X96.1100 Y116.9940 F5000 ; custom feedrate
G92 E0.0000
G1 X93.9610 Y119.9520 E0.1313 F2400 ; custom feedrate
G1 X90.4840 Y118.8220 E0.2627
G1 X90.4840 Y115.1660 E0.3940
G1 X93.9610 Y114.0360 E0.5253
G1 X96.1100 Y116.9940 E0.6566
G1 X96.7030 Y116.9940 F5000 ; custom feedrate
G92 E0.0000
G1 X94.1440 Y120.5160 E0.1564 F1800 ; custom feedrate
G1 X90.0040 Y119.1710 E0.3128
G1 X90.0040 Y114.8170 E0.4691
G1 X94.1440 Y113.4720 E0.6255
G1 X96.7030 Y116.9940 E0.7819
G92 E0.0000
G1 E-4 F2400 ; custom retraction - A
;layer 15, Z = 3.000
;fan15;
G1 Z3.000 F1200
G1 X95.5170 Y116.9940 F5000 ; custom feedrate
G1 E0 F2400 ; custom un-retraction/prime - A
G92 E0.0000
G1 X93.7780 Y119.3880 E0.1063 F2400 ; custom feedrate
G1 X90.9640 Y118.4730 E0.2125
G1 X90.9640 Y115.5150 E0.3188
G1 X93.7780 Y114.6010 E0.4251
G1 X95.5170 Y116.9940 E0.5314
G1 X96.1100 Y116.9940 F5000 ; custom feedrate
G92 E0.0000
G1 X93.9610 Y119.9520 E0.1313 F2400 ; custom feedrate
G1 X90.4840 Y118.8220 E0.2627
G1 X90.4840 Y115.1660 E0.3940
G1 X93.9610 Y114.0360 E0.5253
G1 X96.1100 Y116.9940 E0.6566
G1 X96.7030 Y116.9940 F5000 ; custom feedrate
G92 E0.0000
G1 X94.1440 Y120.5160 E0.1564 F1800 ; custom feedrate
G1 X90.0040 Y119.1710 E0.3128
G1 X90.0040 Y114.8170 E0.4691
G1 X94.1440 Y113.4720 E0.6255
G1 X96.7030 Y116.9940 E0.7819
G92 E0.0000
G1 E-4 F2400 ; custom retraction - A
;zhop1
G1 X140.4830 Y116.9940 F5000 ; custom feedrate
G1 Z3.000 F1200
G1 E0 F2400 ; custom un-retraction/prime - A
G92 E0.0000
G1 X142.2220 Y114.6010 E0.1063 F2400 ; custom feedrate
G1 X145.0360 Y115.5150 E0.2125
G1 X145.0360 Y118.4730 E0.3188
G1 X142.2220 Y119.3880 E0.4251
G1 X140.4830 Y116.9940 E0.5314
G1 X139.8900 Y116.9940 F5000 ; custom feedrate
G92 E0.0000
G1 X142.0390 Y114.0360 E0.1313 F2400 ; custom feedrate
G1 X145.5160 Y115.1660 E0.2627
G1 X145.5160 Y118.8220 E0.3940
G1 X142.0390 Y119.9520 E0.5253
G1 X139.8900 Y116.9940 E0.6566
G1 X139.2970 Y116.9940 F5000 ; custom feedrate
G92 E0.0000
G1 X141.8560 Y113.4720 E0.1564 F1800 ; custom feedrate
G1 X145.9960 Y114.8170 E0.3128
G1 X145.9960 Y119.1710 E0.4691
G1 X141.8560 Y120.5160 E0.6255
G1 X139.2970 Y116.9940 E0.7819
G92 E0.0000
G1 E-4 F2400 ; custom retraction - A
;layer 16, Z = 3.200
;fan16;
G1 Z3.200 F1200
G1 X140.4830 Y116.9940 F5000 ; custom feedrate
G1 E0 F2400 ; custom un-retraction/prime - A
G92 E0.0000
G1 X142.2220 Y114.6010 E0.1063 F2400 ; custom feedrate
G1 X145.0360 Y115.5150 E0.2125
G1 X145.0360 Y118.4730 E0.3188
G1 X142.2220 Y119.3880 E0.4251
G1 X140.4830 Y116.9940 E0.5314
G1 X139.8900 Y116.9940 F5000 ; custom feedrate
G92 E0.0000
G1 X142.0390 Y114.0360 E0.1313 F2400 ; custom feedrate
G1 X145.5160 Y115.1660 E0.2627
G1 X145.5160 Y118.8220 E0.3940
G1 X142.0390 Y119.9520 E0.5253
G1 X139.8900 Y116.9940 E0.6566
G1 X139.2970 Y116.9940 F5000 ; custom feedrate
G92 E0.0000
G1 X141.8560 Y113.4720 E0.1564 F1800 ; custom feedrate
G1 X145.9960 Y114.8170 E0.3128
G1 X145.9960 Y119.1710 E0.4691
G1 X141.8560 Y120.5160 E0.6255
G1 X139.2970 Y116.9940 E0.7819
G92 E0.0000
G1 E-4 F2400 ; custom retraction - A
;zhop1
G1 X95.5170 Y116.9940 F5000 ; custom feedrate
G1 Z3.200 F1200
G1 E0 F2400 ; custom un-retraction/prime - A
G92 E0.0000
G1 X93.7780 Y119.3880 E0.1063 F2400 ; custom feedrate
G1 X90.9640 Y118.4730 E0.2125
G1 X90.9640 Y115.5150 E0.3188
G1 X93.7780 Y114.6010 E0.4251
G1 X95.5170 Y116.9940 E0.5314
G1 X96.1100 Y116.9940 F5000 ; custom feedrate
G92 E0.0000
G1 X93.9610 Y119.9520 E0.1313 F2400 ; custom feedrate
G1 X90.4840 Y118.8220 E0.2627
G1 X90.4840 Y115.1660 E0.3940
G1 X93.9610 Y114.0360 E0.5253
G1 X96.1100 Y116.9940 E0.6566
G1 X96.7030 Y116.9940 F5000 ; custom feedrate
G92 E0.0000
G1 X94.1440 Y120.5160 E0.1564 F1800 ; custom feedrate
G1 X90.0040 Y119.1710 E0.3128
G1 X90.0040 Y114.8170 E0.4691
G1 X94.1440 Y113.4720 E0.6255
G1 X96.7030 Y116.9940 E0.7819
G92 E0.0000
G1 E-4 F2400 ; custom retraction - A
;layer 17, Z = 3.400
;fan17;
G1 Z3.400 F1200
G1 X95.5170 Y116.9940 F5000 ; custom feedrate
G1 E0 F2400 ; custom un-retraction/prime - A
G92 E0.0000
G1 X93.7780 Y119.3880 E0.1063 F2400 ; custom feedrate
G1 X90.9640 Y118.4730 E0.2125
G1 X90.9640 Y115.5150 E0.3188
G1 X93.7780 Y114.6010 E0.4251
G1 X95.5170 Y116.9940 E0.5314
G1 X96.1100 Y116.9940 F5000 ; custom feedrate
G92 E0.0000
G1 X93.9610 Y119.9520 E0.1313 F2400 ; custom feedrate
G1 X90.4840 Y118.8220 E0.2627
G1 X90.4840 Y115.1660 E0.3940
G1 X93.9610 Y114.0360 E0.5253
G1 X96.1100 Y116.9940 E0.6566
G1 X96.7030 Y116.9940 F5000 ; custom feedrate
G92 E0.0000
G1 X94.1440 Y120.5160 E0.1564 F1800 ; custom feedrate
G1 X90.0040 Y119.1710 E0.3128
G1 X90.0040 Y114.8170 E0.4691
G1 X94.1440 Y113.4720 E0.6255
G1 X96.7030 Y116.9940 E0.7819
G92 E0.0000
G1 E-4 F2400 ; custom retraction - A
;zhop1
G1 X140.4830 Y116.9940 F5000 ; custom feedrate
G1 Z3.400 F1200
G1 E0 F2400 ; custom un-retraction/prime - A
G92 E0.0000
G1 X142.2220 Y114.6010 E0.1063 F2400 ; custom feedrate
G1 X145.0360 Y115.5150 E0.2125
G1 X145.0360 Y118.4730 E0.3188
G1 X142.2220 Y119.3880 E0.4251
G1 X140.4830 Y116.9940 E0.5314
G1 X139.8900 Y116.9940 F5000 ; custom feedrate
G92 E0.0000
G1 X142.0390 Y114.0360 E0.1313 F2400 ; custom feedrate
G1 X145.5160 Y115.1660 E0.2627
G1 X145.5160 Y118.8220 E0.3940
G1 X142.0390 Y119.9520 E0.5253
G1 X139.8900 Y116.9940 E0.6566
G1 X139.2970 Y116.9940 F5000 ; custom feedrate
G92 E0.0000
G1 X141.8560 Y113.4720 E0.1564 F1800 ; custom feedrate
G1 X145.9960 Y114.8170 E0.3128
G1 X145.9960 Y119.1710 E0.4691
G1 X141.8560 Y120.5160 E0.6255
G1 X139.2970 Y116.9940 E0.7819
G92 E0.0000
G1 E-4 F2400 ; custom retraction - A
;layer 18, Z = 3.600
;fan18;
G1 Z3.600 F1200
G1 X140.4830 Y116.9940 F5000 ; custom feedrate
G1 E0 F2400 ; custom un-retraction/prime - A
G92 E0.0000
G1 X142.2220 Y114.6010 E0.1063 F2400 ; custom feedrate
G1 X145.0360 Y115.5150 E0.2125
G1 X145.0360 Y118.4730 E0.3188
G1 X142.2220 Y119.3880 E0.4251
G1 X140.4830 Y116.9940 E0.5314
G1 X139.8900 Y116.9940 F5000 ; custom feedrate
G92 E0.0000
G1 X142.0390 Y114.0360 E0.1313 F2400 ; custom feedrate
G1 X145.5160 Y115.1660 E0.2627
G1 X145.5160 Y118.8220 E0.3940
G1 X142.0390 Y119.9520 E0.5253
G1 X139.8900 Y116.9940 E0.6566
G1 X139.2970 Y116.9940 F5000 ; custom feedrate
G92 E0.0000
G1 X141.8560 Y113.4720 E0.1564 F1800 ; custom feedrate
G1 X145.9960 Y114.8170 E0.3128
G1 X145.9960 Y119.1710 E0.4691
G1 X141.8560 Y120.5160 E0.6255
G1 X139.2970 Y116.9940 E0.7819
G92 E0.0000
G1 E-4 F2400 ; custom retraction - A
;zhop1
G1 X95.5170 Y116.9940 F5000 ; custom feedrate
G1 Z3.600 F1200
G1 E0 F2400 ; custom un-retraction/prime - A
G92 E0.0000
G1 X93.7780 Y119.3880 E0.1063 F2400 ; custom feedrate
G1 X90.9640 Y118.4730 E0.2125
G1 X90.9640 Y115.5150 E0.3188
G1 X93.7780 Y114.6010 E0.4251
G1 X95.5170 Y116.9940 E0.5314
G1 X96.1100 Y116.9940 F5000 ; custom feedrate
G92 E0.0000
G1 X93.9610 Y119.9520 E0.1313 F2400 ; custom feedrate
G1 X90.4840 Y118.8220 E0.2627
G1 X90.4840 Y115.1660 E0.3940
G1 X93.9610 Y114.0360 E0.5253
G1 X96.1100 Y116.9940 E0.6566
G1 X96.7030 Y116.9940 F5000 ; custom feedrate
G92 E0.0000
G1 X94.1440 Y120.5160 E0.1564 F1800 ; custom feedrate
G1 X90.0040 Y119.1710 E0.3128
G1 X90.0040 Y114.8170 E0.4691
G1 X94.1440 Y113.4720 E0.6255
G1 X96.7030 Y116.9940 E0.7819
G92 E0.0000
G1 E-4 F2400 ; custom retraction - A
;layer 19, Z = 3.800
;fan19;
G1 Z3.800 F1200
G1 X95.5170 Y116.9940 F5000 ; custom feedrate
G1 E0 F2400 ; custom un-retraction/prime - A
G92 E0.0000
G1 X93.7780 Y119.3880 E0.1063 F2400 ; custom feedrate
G1 X90.9640 Y118.4730 E0.2125
G1 X90.9640 Y115.5150 E0.3188
G1 X93.7780 Y114.6010 E0.4251
G1 X95.5170 Y116.9940 E0.5314
