; generated by PrusaSlicer 2.4.2+win64 on 2022-08-06 at 17:23:14 UTC

; 

; external perimeters extrusion width = 0.45mm
; perimeters extrusion width = 0.45mm
; infill extrusion width = 0.45mm
; solid infill extrusion width = 0.45mm
; top infill extrusion width = 0.45mm
; first layer extrusion width = 0.40mm

M107
;TYPE:Custom
G90 ; use absolute coordinates
M83 ; extruder relative mode
M140 S110 ; set final bed temp
M104 S170 ; set temporary nozzle temp to prevent oozing during homing
G4 S10 ; allow partial nozzle warmup
G28 ; home all axis
G1 Z50 F300
G1 X10 Y10 F3000
M190 S104.5 ; wait for bed temp to stabilize at 90%
M140 S110 ; set final bed temp
M104 S245 ; set final nozzle temp
M109 S245 ; wait for nozzle temp to stabilize
G1 Z0.28 F240
G92 E0
G1 Y180 E10 F1500 ; prime the nozzle
G1 X10.3 F5000
G92 E0
G1 Y10 E10 F1200 ; prime the nozzle
G92 E0
G21 ; set units to millimeters
G90 ; use absolute coordinates
M83 ; use relative distances for extrusion
; Filament gcode
M107
;LAYER_CHANGE
;Z:0.2
;HEIGHT:0.2
;BEFORE_LAYER_CHANGE
G92 E0
;0.2


G1 E-7 F3600
G1 Z.2 F9000
;AFTER_LAYER_CHANGE
;0.2
G1 X89.729 Y63.751
G1 E7 F2400
M204 S500
;TYPE:Skirt/Brim
;WIDTH:0.4
G1 X102.979 Y45.102 E.67921
G1 X105.014 Y42.501 E.09807
G1 X106.732 Y40.699 E.07393
G1 X108.484 Y39.126 E.0699
G1 X110.376 Y37.662 E.07105
G1 X112.396 Y36.312 E.07212
G1 X114.542 Y35.071 E.07361
G1 X117.028 Y33.848 E.08225
G1 X123.025 Y31.565 E.19053
G1 X125.572 Y30.819 E.07879
G1 X129.053 Y29.988 E.10626
G1 X131.584 Y29.495 E.07658
G1 X139.107 Y28.482 E.22539
G1 X146.006 Y28.031 E.20528
G1 X148.489 Y27.961 E.07375
G1 X154.574 Y27.962 E.18068
G1 X159.31 Y28.141 E.1407
G1 X162.73 Y28.381 E.10181
G1 X169.989 Y29.262 E.21711
G1 X175.107 Y30.253 E.15476
G1 X177.451 Y30.835 E.07171
G1 X179.925 Y31.56 E.07656
G1 X186.242 Y33.98 E.20086
G1 X188.52 Y35.125 E.0757
G1 X190.676 Y36.379 E.07405
G1 X193.541 Y38.373 E.10364
G1 X195.366 Y39.893 E.07051
G1 X197.158 Y41.634 E.07418
G1 X198.692 Y43.382 E.06906
G1 X200.076 Y45.235 E.06868
G1 X201.307 Y47.19 E.06856
G1 X202.383 Y49.244 E.06887
G1 X203.645 Y52.339 E.09924
G1 X204.336 Y54.606 E.07036
G1 X204.896 Y57.094 E.07572
G1 X205.265 Y59.509 E.07254
G1 X205.532 Y63.15 E.10839
G1 X205.533 Y65.848 E.08011
G1 X205.265 Y69.489 E.1084
G1 X204.871 Y72.041 E.07667
G1 X204.339 Y74.387 E.07145
G1 X203.3 Y77.614 E.10066
G1 X202.385 Y79.754 E.06909
G1 X201.312 Y81.804 E.0687
G1 X200.006 Y83.872 E.07263
G1 X131.443 Y180.363 E3.51456
G1 X129.984 Y182.164 E.06881
G1 X128.266 Y183.967 E.07393
G1 X125.699 Y186.196 E.10095
G1 X123.63 Y187.691 E.07577
G1 X120.566 Y189.535 E.10619
G1 X117.97 Y190.817 E.08597
G1 X111.686 Y193.198 E.19952
G1 X108.332 Y194.128 E.10335
G1 X105.879 Y194.691 E.07473
G1 X102.039 Y195.401 E.11593
G1 X96.04 Y196.167 E.17959
G1 X93.689 Y196.371 E.07005
G1 X87.805 Y196.674 E.17493
G1 X80.524 Y196.705 E.2162
G1 X75.65 Y196.522 E.14481
G1 X70.993 Y196.167 E.13866
G1 X64.841 Y195.378 E.18418
G1 X61.162 Y194.693 E.11109
G1 X58.708 Y194.13 E.07477
G1 X55.073 Y193.105 E.11213
G1 X48.756 Y190.685 E.20086
G1 X45.384 Y188.927 E.11291
G1 X42.416 Y187.007 E.10495
G1 X39.632 Y184.773 E.106
G1 X37.84 Y183.032 E.07418
G1 X35.69 Y180.497 E.09868
G1 X34.285 Y178.463 E.07339
G1 X32.684 Y175.565 E.0983
G1 X31.7 Y173.281 E.07384
G1 X30.662 Y170.059 E.1005
G1 X29.92 Y166.509 E.1077
G1 X29.523 Y162.792 E.11098
G1 X29.462 Y158.936 E.11453
G1 X29.733 Y155.176 E.1119
G1 X30.126 Y152.624 E.07667
G1 X30.985 Y149.131 E.1068
G1 X32.135 Y145.972 E.09983
G1 X33.203 Y143.734 E.07362
G1 X34.992 Y140.793 E.10221
G1 X89.695 Y63.8 E2.80428
G1 X89.986 Y64.006 F9000
G1 F2400
G1 X103.268 Y45.311 E.68092
G1 X105.286 Y42.732 E.09724
G1 X106.975 Y40.959 E.0727
G1 X108.708 Y39.404 E.06912
G1 X110.58 Y37.955 E.0703
G1 X112.58 Y36.618 E.07141
G1 X114.707 Y35.388 E.07295
G1 X117.155 Y34.182 E.08103
G1 X123.152 Y31.898 E.19053
G1 X125.661 Y31.165 E.0776
G1 X129.129 Y30.337 E.10589
G1 X131.644 Y29.847 E.07607
G1 X139.14 Y28.838 E.22455
G1 X146.018 Y28.388 E.20468
G1 X148.489 Y28.318 E.07339
G1 X154.566 Y28.319 E.18042
G1 X159.291 Y28.497 E.14042
G1 X162.702 Y28.737 E.10151
G1 X169.944 Y29.616 E.21662
G1 X175.024 Y30.6 E.15362
G1 X177.355 Y31.179 E.07133
G1 X179.798 Y31.894 E.07557
G1 X186.087 Y34.302 E.19995
G1 X188.346 Y35.436 E.07506
G1 X190.482 Y36.679 E.07336
G1 X193.327 Y38.659 E.10292
G1 X195.132 Y40.162 E.06975
G1 X196.796 Y41.771 E.06873
G1 X198.318 Y43.488 E.06813
G1 X199.695 Y45.311 E.06782
G1 X200.994 Y47.362 E.0721
G1 X202.057 Y49.392 E.06803
G1 X203.31 Y52.461 E.09842
G1 X203.992 Y54.703 E.06957
G1 X204.544 Y57.154 E.07461
G1 X204.909 Y59.546 E.07185
G1 X205.176 Y63.165 E.10774
G1 X205.176 Y65.832 E.07919
G1 X204.91 Y69.452 E.10775
G1 X204.522 Y71.969 E.07561
G1 X203.995 Y74.291 E.07069
G1 X202.964 Y77.492 E.09987
G1 X202.06 Y79.607 E.06828
G1 X201 Y81.632 E.06787
G1 X199.714 Y83.665 E.07143
G1 X131.153 Y180.155 E3.51449
G1 X129.712 Y181.933 E.06798
G1 X128.022 Y183.706 E.0727
G1 X125.475 Y185.918 E.10017
G1 X123.436 Y187.391 E.07467
G1 X120.392 Y189.223 E.1055
G1 X117.843 Y190.483 E.08443
G1 X111.584 Y192.856 E.19873
G1 X108.243 Y193.782 E.10295
G1 X105.808 Y194.341 E.07418
G1 X101.994 Y195.046 E.11516
G1 X95.994 Y195.813 E.17959
G1 X93.661 Y196.015 E.06955
G1 X87.797 Y196.317 E.17434
G1 X80.524 Y196.347 E.21594
G1 X75.672 Y196.166 E.14417
G1 X71.039 Y195.813 E.13796
G1 X64.901 Y195.026 E.18374
G1 X61.234 Y194.343 E.11075
G1 X58.797 Y193.784 E.07423
G1 X55.2 Y192.771 E.11095
G1 X48.911 Y190.364 E.19995
G1 X45.568 Y188.621 E.11193
G1 X42.62 Y186.714 E.10424
G1 X39.866 Y184.503 E.10487
G1 X38.103 Y182.79 E.07298
G1 X35.971 Y180.277 E.09785
G1 X34.591 Y178.278 E.07213
G1 X33.003 Y175.405 E.09746
G1 X32.036 Y173.159 E.0726
G1 X31.006 Y169.962 E.09972
G1 X30.272 Y166.449 E.10658
G1 X29.879 Y162.766 E.10995
G1 X29.819 Y158.941 E.1136
G1 X30.088 Y155.214 E.11095
G1 X30.476 Y152.697 E.07561
G1 X31.325 Y149.241 E.10566
G1 X32.466 Y146.107 E.09903
G1 X33.516 Y143.907 E.07238
G1 X35.283 Y141 E.10101
G1 X89.951 Y64.055 E2.80249
G1 X90.242 Y64.262 F9000
G1 F2400
G1 X103.558 Y45.52 E.68263
G1 X105.559 Y42.963 E.0964
G1 X107.219 Y41.22 E.07148
G1 X108.932 Y39.682 E.06834
G1 X110.785 Y38.248 E.06956
G1 X112.764 Y36.924 E.07071
G1 X114.871 Y35.705 E.07229
G1 X117.282 Y34.516 E.07981
G1 X123.279 Y32.232 E.19053
G1 X125.75 Y31.511 E.07642
G1 X129.206 Y30.686 E.10552
G1 X131.704 Y30.199 E.07556
G1 X139.172 Y29.194 E.22372
G1 X146.03 Y28.745 E.20407
G1 X154.557 Y28.676 E.25317
G1 X158.152 Y28.796 E.1068
G1 X162.673 Y29.093 E.13453
G1 X169.899 Y29.971 E.21612
G1 X174.941 Y30.947 E.15249
G1 X177.26 Y31.523 E.07095
G1 X179.671 Y32.228 E.07458
G1 X185.932 Y34.623 E.19904
G1 X188.172 Y35.748 E.07442
G1 X190.288 Y36.979 E.07268
G1 X193.113 Y38.945 E.10219
G1 X194.898 Y40.432 E.06899
G1 X196.543 Y42.023 E.06793
G1 X198.046 Y43.719 E.0673
G1 X199.405 Y45.52 E.06698
G1 X200.682 Y47.535 E.07083
G1 X201.732 Y49.539 E.0672
G1 X202.974 Y52.583 E.09761
G1 X203.648 Y54.8 E.06879
G1 X204.192 Y57.214 E.07349
G1 X204.554 Y59.583 E.07116
G1 X204.819 Y63.181 E.10709
G1 X204.819 Y65.817 E.07828
G1 X204.555 Y69.415 E.1071
G1 X204.172 Y71.896 E.07456
G1 X203.651 Y74.194 E.06994
G1 X202.628 Y77.37 E.09908
G1 X201.735 Y79.459 E.06746
G1 X200.687 Y81.459 E.06703
G1 X199.423 Y83.458 E.07023
G1 X130.863 Y179.946 E3.51442
G1 X129.439 Y181.703 E.06714
G1 X127.778 Y183.445 E.07148
G1 X125.251 Y185.64 E.09939
G1 X123.242 Y187.091 E.07357
G1 X120.218 Y188.912 E.10482
G1 X117.716 Y190.15 E.08288
G1 X111.482 Y192.513 E.19794
G1 X108.154 Y193.436 E.10255
G1 X105.737 Y193.991 E.07363
G1 X101.949 Y194.692 E.11438
G1 X95.949 Y195.458 E.17959
G1 X93.632 Y195.659 E.06905
G1 X87.77 Y195.96 E.17428
G1 X80.524 Y195.99 E.21515
G1 X75.693 Y195.81 E.14353
G1 X71.084 Y195.458 E.13726
G1 X64.96 Y194.674 E.18329
G1 X61.305 Y193.993 E.11042
G1 X58.886 Y193.438 E.07368
G1 X55.327 Y192.437 E.10977
G1 X49.066 Y190.042 E.19904
G1 X45.752 Y188.315 E.11095
G1 X42.824 Y186.421 E.10354
G1 X40.1 Y184.233 E.10374
G1 X38.366 Y182.549 E.07177
G1 X36.252 Y180.057 E.09702
G1 X34.896 Y178.093 E.07086
G1 X33.322 Y175.245 E.09662
G1 X32.371 Y173.037 E.07137
G1 X31.35 Y169.865 E.09893
G1 X30.623 Y166.388 E.10547
G1 X30.235 Y162.74 E.10893
G1 X30.176 Y158.946 E.11267
G1 X30.443 Y155.251 E.10999
G1 X30.826 Y152.769 E.07456
G1 X31.665 Y149.35 E.10452
G1 X32.796 Y146.242 E.09822
G1 X33.829 Y144.08 E.07114
G1 X35.575 Y141.207 E.09981
G1 X90.207 Y64.311 E2.80071
G1 E-4.9 F3600
;WIPE_START
G1 F7200
G1 X92.64 Y60.887 E-1.995
;WIPE_END
G1 E-.105 F3600
G1 X140.488 Y95.059 F9000
G1 E7 F2400
;TYPE:Perimeter
G1 X141.549 Y95.152 E.03163
G1 X143.795 Y95.303 E.06682
G1 X146.088 Y95.414 E.06815
G1 X147.475 Y95.456 E.04121
G1 X147.475 Y95.928 E.01403
G1 X146.177 Y95.89 E.03856
G1 X143.919 Y95.785 E.06711
G1 X141.721 Y95.641 E.06539
G1 X140.488 Y95.536 E.03674
G1 X140.488 Y95.119 E.01237
G1 X140.131 Y94.67 F9000
G1 F2400
G1 X141.577 Y94.796 E.04309
G1 X143.816 Y94.947 E.06662
G1 X146.102 Y95.057 E.06795
G1 X147.832 Y95.109 E.0514
G1 X147.832 Y96.296 E.03524
G1 X146.163 Y96.247 E.04957
G1 X143.899 Y96.141 E.06731
G1 X141.694 Y95.997 E.0656
G1 X140.131 Y95.864 E.04658
G1 X140.131 Y94.73 E.03367
G1 X139.774 Y94.28 F9000
;TYPE:External perimeter
G1 F2400
G1 X141.605 Y94.44 E.05456
G1 X143.836 Y94.59 E.06641
G1 X146.116 Y94.7 E.06776
G1 X148.189 Y94.763 E.0616
G1 X148.189 Y96.664 E.05644
G1 X146.15 Y96.604 E.06058
G1 X143.879 Y96.498 E.0675
G1 X141.667 Y96.353 E.0658
G1 X139.774 Y96.192 E.05642
G1 X139.774 Y94.34 E.05498
G1 X140.152 Y94.412 F9000
G1 E-4.9 F3600
;WIPE_START
G1 F7200
G1 X141.605 Y94.44 E-.87079
G1 X143.836 Y94.59 E-1.06243
G1 X143.966 Y94.597 E-.06178
;WIPE_END
G1 E-.105 F3600
G1 X155.488 Y95.456 F9000
G1 E7 F2400
;TYPE:Perimeter
G1 X156.875 Y95.414 E.0412
G1 X159.168 Y95.303 E.06815
G1 X161.413 Y95.152 E.06682
G1 X162.475 Y95.059 E.03164
G1 X162.475 Y95.536 E.01416
G1 X161.253 Y95.64 E.03642
G1 X159.039 Y95.785 E.06587
G1 X156.783 Y95.891 E.06707
G1 X155.488 Y95.928 E.03845
G1 X155.488 Y95.516 E.01225
G1 X155.131 Y95.109 F9000
G1 F2400
G1 X156.861 Y95.057 E.0514
G1 X159.147 Y94.947 E.06795
G1 X161.386 Y94.796 E.06662
G1 X162.832 Y94.669 E.0431
G1 X162.832 Y95.864 E.03547
G1 X161.28 Y95.996 E.04626
G1 X159.059 Y96.142 E.06607
G1 X156.796 Y96.247 E.06726
G1 X155.131 Y96.296 E.04946
G1 X155.131 Y95.169 E.03346
G1 X154.774 Y94.763 F9000
;TYPE:External perimeter
G1 F2400
G1 X156.847 Y94.7 E.06159
G1 X159.127 Y94.59 E.06775
G1 X161.358 Y94.44 E.06641
G1 X163.189 Y94.279 E.05457
G1 X163.189 Y96.192 E.05678
G1 X161.306 Y96.352 E.05611
G1 X159.079 Y96.498 E.06627
G1 X156.81 Y96.604 E.06745
G1 X154.774 Y96.664 E.06047
G1 X154.774 Y94.823 E.05466
G1 X155.164 Y94.852 F9000
G1 E-4.9 F3600
;WIPE_START
G1 F7200
G1 X156.847 Y94.7 E-.98656
G1 X158.968 Y94.598 E-1.00844
;WIPE_END
G1 E-.105 F3600
G1 X127.342 Y91.349 F9000
G1 E7 F2400
;TYPE:Perimeter
G1 X127.162 Y92.862 E.04523
G1 X129.025 Y93.313 E.05693
G1 X130.418 Y93.619 E.04235
G1 X132.475 Y94.014 E.06218
G1 X132.475 Y94.493 E.01422
G1 X131.286 Y94.28 E.03587
G1 X129.023 Y93.801 E.06866
G1 X126.855 Y93.264 E.06632
G1 X125.488 Y92.871 E.04224
G1 X125.487 Y91.349 E.04519
G1 X127.282 Y91.349 E.05331
G1 X127.702 Y91.345 F9000
G1 F2400
G1 X127.554 Y92.59 E.03722
G1 X129.106 Y92.965 E.04741
G1 X130.491 Y93.27 E.04213
G1 X132.832 Y93.715 E.07074
G1 X132.832 Y94.919 E.03577
G1 X131.217 Y94.631 E.04871
G1 X128.943 Y94.149 E.06901
G1 X126.763 Y93.609 E.0667
G1 X125.131 Y93.14 E.05042
G1 X125.13 Y90.992 E.06378
G1 X132.834 Y90.992 E.22876
G1 X132.834 Y91.345 E.01047
G1 X127.762 Y91.345 E.15059
G1 X128.019 Y91.702 F9000
;TYPE:External perimeter
G1 F2400
G1 X127.946 Y92.317 E.0184
G1 X129.186 Y92.618 E.03788
G1 X130.564 Y92.92 E.04191
G1 X131.981 Y93.201 E.04287
G1 X133.189 Y93.415 E.03645
G1 X133.189 Y95.346 E.05731
G1 X131.149 Y94.981 E.06154
G1 X128.863 Y94.498 E.06937
G1 X126.671 Y93.954 E.06707
G1 X124.774 Y93.409 E.0586
G1 X124.772 Y90.635 E.08237
G1 X133.191 Y90.635 E.24997
G1 X133.191 Y91.702 E.03167
G1 X128.079 Y91.702 E.15178
G1 X127.619 Y91.697 F9000
G1 X127.168 Y91.909
;TYPE:Solid infill
;WIDTH:0.433622
G1 F2400
G1 X126.876 Y91.617 E.01339
G1 X126.324 Y91.617 E.01795
G1 X126.964 Y92.258 E.02942
G1 X126.905 Y92.751 E.01615
G1 X125.755 Y91.617 E.05248
G1 X125.755 Y92.154 E.01743
G1 X126.713 Y93.112 E.04402
G1 E-4.9 F3600
;WIPE_START
G1 F7200
G1 X125.755 Y92.154 E-.64361
G1 X125.755 Y91.617 E-.25479
G1 X126.905 Y92.751 E-.7673
G1 X126.964 Y92.258 E-.23613
G1 X126.825 Y92.119 E-.09317
;WIPE_END
G1 E-.105 F3600
G1 X170.488 Y94.014 F9000
G1 E7 F2400
;TYPE:Perimeter
;WIDTH:0.4
G1 X172.545 Y93.619 E.06218
G1 X173.938 Y93.313 E.04235
G1 X175.801 Y92.862 E.05693
G1 X175.621 Y91.349 E.04523
G1 X177.476 Y91.349 E.05508
G1 X177.476 Y92.871 E.04519
G1 X176.108 Y93.264 E.04224
G1 X173.94 Y93.801 E.0663
G1 X171.678 Y94.28 E.06866
G1 X170.488 Y94.493 E.0359
G1 X170.488 Y94.074 E.01244
G1 X170.131 Y93.715 F9000
G1 F2400
G1 X172.472 Y93.27 E.07074
G1 X173.858 Y92.965 E.04213
G1 X175.409 Y92.59 E.04741
G1 X175.261 Y91.345 E.03722
G1 X170.129 Y91.345 E.15237
G1 X170.129 Y90.992 E.01047
G1 X177.833 Y90.992 E.22875
G1 X177.832 Y93.14 E.06378
G1 X176.2 Y93.609 E.05042
G1 X174.02 Y94.149 E.06668
G1 X171.747 Y94.631 E.06901
G1 X170.131 Y94.919 E.04873
G1 X170.131 Y93.775 E.03398
G1 X169.774 Y93.415 F9000
;TYPE:External perimeter
G1 F2400
G1 X170.983 Y93.201 E.03645
G1 X172.399 Y92.92 E.04287
G1 X173.777 Y92.618 E.04191
G1 X175.017 Y92.317 E.03788
G1 X174.944 Y91.702 E.0184
G1 X169.772 Y91.702 E.15356
G1 X169.772 Y90.635 E.03167
G1 X178.191 Y90.635 E.24996
G1 X178.189 Y93.409 E.08237
G1 X176.293 Y93.954 E.0586
G1 X174.1 Y94.497 E.06706
G1 X171.815 Y94.981 E.06936
G1 X169.774 Y95.346 E.06156
G1 X169.774 Y93.475 E.05553
G1 X170.172 Y93.456 F9000
G1 E-4.9 F3600
;WIPE_START
G1 F7200
G1 X170.983 Y93.201 E-.5887
G1 X172.399 Y92.92 E-.68576
G1 X173.777 Y92.618 E-.67041
G1 X173.88 Y92.593 E-.05013
;WIPE_END
G1 E-.105 F3600
G1 X177.369 Y92.191 F9000
G1 E7 F2400
;TYPE:Solid infill
;WIDTH:0.406036
G1 X176.795 Y91.617 E.0245
G1 X176.282 Y91.617 E.0155
G1 X177.208 Y92.544 E.03955
G1 X177.208 Y92.67 E.00381
G1 X176.907 Y92.756 E.00946
G1 X175.944 Y91.793 E.04113
G1 X176.013 Y92.376 E.01773
G1 X176.508 Y92.871 E.02112
G1 X176.109 Y92.985 E.01253
G1 X175.899 Y92.775 E.00896
G1 E-4.9 F3600
;WIPE_START
G1 F7200
G1 X176.109 Y92.985 E-.14095
G1 X176.508 Y92.871 E-.19718
G1 X176.013 Y92.376 E-.3323
G1 X175.944 Y91.793 E-.27896
G1 X176.907 Y92.756 E-.64709
G1 X177.208 Y92.67 E-.14876
G1 X177.208 Y92.544 E-.05987
G1 X176.925 Y92.261 E-.1899
;WIPE_END
G1 E-.105 F3600
G1 X147.834 Y91.345 F9000
G1 E7 F2400
;TYPE:Perimeter
;WIDTH:0.4
G1 X140.129 Y91.345 E.22878
G1 X140.129 Y90.992 E.01047
G1 X147.834 Y90.992 E.22878
G1 X147.834 Y91.285 E.00869
G1 X148.191 Y91.702 F9000
;TYPE:External perimeter
G1 F2400
G1 X139.772 Y91.702 E.24998
G1 X139.772 Y90.635 E.03167
G1 X148.191 Y90.635 E.24998
G1 X148.191 Y91.642 E.02989
G1 X147.792 Y91.685 F9000
G1 E-4.9 F3600
;WIPE_START
G1 F7200
G1 X143.991 Y91.672 E-1.995
;WIPE_END
G1 E-.105 F3600
G1 X155.129 Y91.345 F9000
G1 E7 F2400
;TYPE:Perimeter
G1 X155.129 Y90.992 E.01047
G1 X162.834 Y90.992 E.22878
G1 X162.834 Y91.345 E.01047
G1 X155.189 Y91.345 E.227
G1 X154.772 Y91.642 F9000
;TYPE:External perimeter
G1 F2400
G1 X154.772 Y90.635 E.02989
G1 X163.191 Y90.635 E.24998
G1 X163.191 Y91.702 E.03167
G1 X154.772 Y91.702 E.24998
G1 X154.958 Y91.288 F9000
G1 E-4.9 F3600
;WIPE_START
G1 F7200
G1 X154.772 Y90.635 E-.50667
G1 X157.905 Y90.635 E-1.48833
;WIPE_END
G1 E-.105 F3600
G1 X117.474 Y89.726 F9000
G1 E7 F2400
;TYPE:Perimeter
G1 X115.952 Y88.897 E.05147
G1 X115.036 Y88.346 E.03173
G1 X114.15 Y87.772 E.03136
G1 X113.297 Y87.178 E.03086
G1 X112.481 Y86.568 E.03026
G1 X111.694 Y85.934 E.03
G1 X110.944 Y85.283 E.02948
G1 X110.224 Y84.609 E.0293
G1 X109.536 Y83.914 E.02902
G1 X108.883 Y83.203 E.02865
G1 X108.26 Y82.469 E.0286
G1 X107.673 Y81.717 E.02833
G1 X107.114 Y80.942 E.02837
G1 X106.587 Y80.146 E.02835
G1 X106.095 Y79.333 E.02822
G1 X105.632 Y78.495 E.02843
G1 X105.203 Y77.64 E.0284
G1 X104.804 Y76.759 E.02871
