; generated by PrusaSlicer 2.4.2+win64 on 2022-08-19 at 23:57:12 UTC

; 

; external perimeters extrusion width = 0.45mm
; perimeters extrusion width = 0.45mm
; infill extrusion width = 0.45mm
; solid infill extrusion width = 0.45mm
; top infill extrusion width = 0.40mm
; first layer extrusion width = 0.42mm

M107
;TYPE:Custom
G90 ; use absolute coordinates
M83 ; extruder relative mode
M140 S60 ; set final bed temp
M104 S170 ; set temporary nozzle temp to prevent oozing during homing
G4 S10 ; allow partial nozzle warmup
G28 ; home all axis
G1 Z50 F300
G1 X3 Y10 F3000
M190 S57 ; wait for bed temp to stabilize at 90%
M140 S60 ; set final bed temp
M104 S240 ; set final nozzle temp
M109 S240 ; wait for nozzle temp to stabilize
G1 Z0.28 F240
G92 E0
G1 Y180 E10 F1500 ; prime the nozzle
G1 X3.3 F5000
G92 E0
G1 Y20 E10 F1200 ; prime the nozzle
G92 E0
G21 ; set units to millimeters
G90 ; use absolute coordinates
M83 ; use relative distances for extrusion
M900 K0
M107
;LAYER_CHANGE
;Z:0.2
;HEIGHT:0.2
;BEFORE_LAYER_CHANGE
G92 E0
;0.2


G1 Z.2 F9000
;AFTER_LAYER_CHANGE
;0.2
G1 X91.749 Y99.385
M204 P500
;TYPE:Skirt/Brim
;WIDTH:0.42
G1 F954.706
G1 X102.61 Y89.674 E.45681
G1 X104.861 Y88.814 E.07555
G1 X124.551 Y88.814 E.61736
G1 X126.798 Y89.67 E.0754
G1 X139.247 Y100.767 E.52291
G1 X140.167 Y102.115 E.05115
G1 X140.377 Y103.288 E.03738
G1 X140.377 Y124.193 E.65544
G1 X139.983 Y125.776 E.05115
G1 X139.431 Y126.537 E.02948
G1 X128.824 Y137.536 E.47909
G1 X126.913 Y138.528 E.06751
G1 X103.558 Y142.154 E.74106
G1 X102.696 Y142.181 E.02702
G1 X101.542 Y142.051 E.03643
G1 X100.69 Y141.825 E.02765
G1 X99.622 Y141.367 E.03643
G1 X98.887 Y140.917 E.02702
G1 X97.995 Y140.173 E.03643
G1 X97.407 Y139.516 E.02765
G1 X96.916 Y138.807 E.02702
G1 X91.047 Y128.245 E.37884
G1 X90.623 Y126.606 E.05309
G1 X90.623 Y101.902 E.77456
G1 X91.017 Y100.319 E.05115
G1 X91.712 Y99.432 E.03533
G1 X102.158 Y133.01 F9000
;TYPE:Perimeter
G1 F954.706
G1 X102.411 Y132.938 E.00824
G1 X102.705 Y132.895 E.0093
G1 X102.973 Y132.886 E.00844
G1 X103.256 Y132.913 E.0089
G1 X103.534 Y132.973 E.0089
G1 X103.801 Y133.068 E.0089
G1 X104.055 Y133.194 E.0089
G1 X104.292 Y133.351 E.0089
G1 X104.509 Y133.537 E.00897
G1 X104.708 Y133.758 E.0093
G1 X104.863 Y133.977 E.00844
G1 X104.997 Y134.227 E.0089
G1 X105.1 Y134.492 E.0089
G1 X105.169 Y134.768 E.0089
G1 X105.204 Y135.049 E.0089
G1 X105.204 Y135.333 E.0089
G1 X105.169 Y135.615 E.0089
G1 X105.1 Y135.89 E.0089
G1 X104.997 Y136.155 E.0089
G1 X104.863 Y136.405 E.0089
G1 X104.699 Y136.637 E.0089
G1 X104.508 Y136.847 E.0089
G1 X104.292 Y137.031 E.0089
G1 X104.055 Y137.188 E.0089
G1 X103.801 Y137.315 E.0089
G1 X103.534 Y137.409 E.0089
G1 X103.256 Y137.47 E.0089
G1 X102.973 Y137.496 E.0089
G1 X102.69 Y137.487 E.0089
G1 X102.409 Y137.444 E.0089
G1 X102.136 Y137.366 E.0089
G1 X101.875 Y137.256 E.0089
G1 X101.627 Y137.113 E.00897
G1 X101.391 Y136.932 E.0093
G1 X101.198 Y136.745 E.00844
G1 X101.02 Y136.524 E.0089
G1 X100.871 Y136.282 E.0089
G1 X100.752 Y136.024 E.0089
G1 X100.666 Y135.754 E.0089
G1 X100.614 Y135.475 E.0089
G1 X100.597 Y135.191 E.0089
G1 X100.614 Y134.908 E.0089
G1 X100.666 Y134.629 E.0089
G1 X100.752 Y134.358 E.0089
G1 X100.871 Y134.1 E.0089
G1 X101.02 Y133.859 E.0089
G1 X101.198 Y133.638 E.0089
G1 X101.402 Y133.44 E.0089
G1 X101.629 Y133.269 E.0089
G1 X101.875 Y133.127 E.0089
G1 X102.102 Y133.031 E.00775
G1 X102.262 Y133.373 F9000
;TYPE:External perimeter
G1 F954.706
G1 X102.491 Y133.308 E.00747
G1 X102.738 Y133.271 E.00784
G1 X102.962 Y133.264 E.00702
G1 X103.198 Y133.286 E.00744
G1 X103.43 Y133.337 E.00744
G1 X103.654 Y133.416 E.00744
G1 X103.867 Y133.521 E.00744
G1 X104.064 Y133.653 E.00744
G1 X104.245 Y133.808 E.00747
G1 X104.412 Y133.994 E.00784
G1 X104.542 Y134.176 E.00702
G1 X104.654 Y134.385 E.00744
G1 X104.74 Y134.607 E.00744
G1 X104.798 Y134.837 E.00744
G1 X104.827 Y135.073 E.00744
G1 X104.827 Y135.31 E.00744
G1 X104.798 Y135.546 E.00744
G1 X104.74 Y135.776 E.00744
G1 X104.654 Y135.997 E.00744
G1 X104.542 Y136.206 E.00744
G1 X104.405 Y136.4 E.00744
G1 X104.245 Y136.576 E.00744
G1 X104.064 Y136.73 E.00744
G1 X103.867 Y136.861 E.00744
G1 X103.654 Y136.967 E.00744
G1 X103.43 Y137.046 E.00744
G1 X103.198 Y137.097 E.00744
G1 X102.962 Y137.119 E.00744
G1 X102.725 Y137.111 E.00744
G1 X102.49 Y137.075 E.00744
G1 X102.262 Y137.01 E.00744
G1 X102.043 Y136.917 E.00744
G1 X101.837 Y136.798 E.00747
G1 X101.638 Y136.646 E.00784
G1 X101.478 Y136.49 E.00702
G1 X101.329 Y136.305 E.00744
G1 X101.204 Y136.103 E.00744
G1 X101.105 Y135.888 E.00744
G1 X101.033 Y135.662 E.00744
G1 X100.989 Y135.428 E.00744
G1 X100.974 Y135.191 E.00744
G1 X100.989 Y134.954 E.00744
G1 X101.033 Y134.721 E.00744
G1 X101.105 Y134.495 E.00744
G1 X101.204 Y134.279 E.00744
G1 X101.329 Y134.077 E.00744
G1 X101.478 Y133.892 E.00744
G1 X101.648 Y133.727 E.00744
G1 X101.837 Y133.584 E.00744
G1 X102.043 Y133.465 E.00744
G1 X102.206 Y133.396 E.00556
G1 X102.305 Y133.139 F9000
G1 X101.772 Y132.623
;TYPE:Perimeter
G1 F954.706
G1 X95.064 Y126.154 E.29218
G1 X95.064 Y102.379 E.74546
G1 X105.267 Y93.255 E.42914
G1 X124.145 Y93.255 E.5919
G1 X135.936 Y103.765 E.49524
G1 X135.936 Y123.763 E.62701
G1 X125.941 Y134.127 E.45145
G1 X105.499 Y134.127 E.64094
G1 X105.485 Y134.476 E.01096
G1 X105.341 Y134.07 E.01353
G1 X105.184 Y133.778 E.01036
G1 X105.003 Y133.522 E.00985
G1 X104.773 Y133.267 E.01076
G1 X104.52 Y133.05 E.01047
G1 X104.244 Y132.867 E.01036
G1 X103.949 Y132.72 E.01036
G1 X103.637 Y132.61 E.01036
G1 X103.314 Y132.539 E.01036
G1 X102.985 Y132.509 E.01036
G1 X102.671 Y132.518 E.00985
G1 X102.332 Y132.569 E.01076
G1 X102.011 Y132.66 E.01047
G1 X101.706 Y132.789 E.01036
G1 X101.539 Y132.886 E.00606
G1 X101.732 Y132.668 E.00914
G1 X101.25 Y132.643 F9000
G1 F954.706
G1 X94.687 Y126.314 E.28587
G1 X94.687 Y102.21 E.75577
G1 X105.123 Y92.878 E.43895
G1 X124.289 Y92.878 E.60092
G1 X136.313 Y103.596 E.50504
G1 X136.313 Y123.915 E.63709
G1 X126.101 Y134.504 E.46124
G1 X105.861 Y134.504 E.63462
G1 X105.823 Y135.422 E.02882
G1 X105.74 Y135.914 E.01564
G1 X105.577 Y136.386 E.01564
G1 X105.481 Y136.582 E.00687
G1 X105.2 Y137.009 E.01602
G1 X104.885 Y137.348 E.0145
G1 X104.49 Y137.652 E.01564
G1 X104.049 Y137.887 E.01564
G1 X103.845 Y137.965 E.00687
G1 X103.36 Y138.084 E.01564
G1 X102.875 Y138.12 E.01525
G1 X102.378 Y138.073 E.01564
G1 X102.164 Y138.026 E.00687
G1 X101.683 Y137.855 E.01602
G1 X101.279 Y137.63 E.0145
G1 X100.88 Y137.31 E.01602
G1 X100.727 Y137.153 E.00687
G1 X100.419 Y136.745 E.01602
G1 X100.304 Y136.545 E.00724
G1 X100.204 Y136.331 E.00743
G1 X100.048 Y135.849 E.01586
G1 X100.007 Y135.634 E.00687
G1 X99.974 Y135.124 E.01602
G1 X99.988 Y134.893 E.00725
G1 X100.021 Y134.664 E.00725
G1 X100.153 Y134.183 E.01564
G1 X100.363 Y133.731 E.01564
G1 X100.486 Y133.535 E.00725
G1 X100.632 Y133.34 E.00764
G1 X101.21 Y132.688 E.02732
G1 X100.728 Y132.663 F9000
;TYPE:External perimeter
G1 F954.706
G1 X94.31 Y126.474 E.27955
G1 X94.31 Y102.041 E.76609
G1 X104.979 Y92.501 E.44875
G1 X124.432 Y92.501 E.60994
G1 X136.69 Y103.427 E.51485
G1 X136.69 Y124.067 E.64716
G1 X126.262 Y134.881 E.47104
G1 X106.223 Y134.881 E.6283
G1 X106.199 Y135.462 E.01821
G1 X106.107 Y136.008 E.01736
G1 X105.926 Y136.531 E.01736
G1 X105.808 Y136.77 E.00835
G1 X105.502 Y137.236 E.0175
G1 X105.326 Y137.442 E.00849
G1 X105.134 Y137.632 E.00848
G1 X104.695 Y137.97 E.01736
G1 X104.206 Y138.231 E.01736
G1 X103.957 Y138.326 E.00835
G1 X103.419 Y138.457 E.01736
G1 X102.871 Y138.498 E.01723
G1 X102.32 Y138.447 E.01736
G1 X102.06 Y138.389 E.00835
G1 X101.534 Y138.202 E.0175
G1 X101.062 Y137.939 E.01695
G1 X100.626 Y137.59 E.0175
G1 X100.44 Y137.399 E.00835
G1 X100.104 Y136.954 E.0175
G1 X99.852 Y136.469 E.01713
G1 X99.682 Y135.943 E.01732
G1 X99.632 Y135.682 E.00835
G1 X99.596 Y135.125 E.0175
G1 X99.651 Y134.587 E.01695
G1 X99.798 Y134.053 E.01736
G1 X100.031 Y133.551 E.01736
G1 X100.339 Y133.101 E.01709
G1 X100.688 Y132.708 E.01647
G1 X100.995 Y132.366 F9000
G1 X101.186 Y133.201
;TYPE:Gap fill
;WIDTH:0.310547
G1 F1200
G1 X100.974 Y133.423 E.00684
;WIDTH:0.287464
G1 X100.964 Y133.434 E.00031
;WIDTH:0.293833
G1 X100.875 Y133.538 E.00285
;WIDTH:0.293832
G1 X100.771 Y133.673 E.00356
;WIDTH:0.288245
G1 X100.762 Y133.685 E.00031
;WIDTH:0.291054
G1 X100.744 Y133.712 E.00066
;WIDTH:0.292037
G1 X100.639 Y133.88 E.00412
;WIDTH:0.292036
G1 X100.602 Y133.948 E.00159
;WIDTH:0.28286
G1 X100.596 Y133.961 E.00029
;WIDTH:0.283045
G1 X100.467 Y134.24 E.00613
;WIDTH:0.284009
G1 X100.461 Y134.254 E.0003
;WIDTH:0.289083
G1 X100.447 Y134.291 E.00082
;WIDTH:0.289082
G1 X100.371 Y134.547 E.00547
;WIDTH:0.278781
G1 X100.367 Y134.561 E.00028
;WIDTH:0.293111
G1 X100.328 Y134.728 E.00357
;WIDTH:0.293112
G1 X100.306 Y134.862 E.00282
;WIDTH:0.28782
G1 X100.304 Y134.877 E.00031
;WIDTH:0.291762
G1 X100.299 Y134.925 E.001
G1 X100.287 Y135.123 E.00411
;WIDTH:0.291509
G1 X100.287 Y135.184 E.00125
;WIDTH:0.283904
G1 X100.288 Y135.199 E.0003
;WIDTH:0.282948
G1 X100.307 Y135.505 E.00613
;WIDTH:0.282957
G1 X100.309 Y135.52 E.00029
;WIDTH:0.291996
G1 X100.318 Y135.594 E.00156
;WIDTH:0.291995
G1 X100.351 Y135.772 E.00373
;WIDTH:0.291207
G1 X100.364 Y135.822 E.00108
;WIDTH:0.284508
G1 X100.368 Y135.836 E.0003
;WIDTH:0.28351
G1 X100.462 Y136.129 E.00615
;WIDTH:0.282654
G1 X100.467 Y136.143 E.00029
;WIDTH:0.291865
G1 X100.496 Y136.216 E.00162
;WIDTH:0.291864
G1 X100.582 Y136.401 E.00423
;WIDTH:0.290673
G1 X100.593 Y136.423 E.00051
;WIDTH:0.288448
G1 X100.6 Y136.436 E.00031
;WIDTH:0.293171
G1 X100.681 Y136.572 E.0033
;WIDTH:0.29317
G1 X100.766 Y136.695 E.0031
;WIDTH:0.279448
G1 X100.774 Y136.707 E.00029
;WIDTH:0.288531
G1 X100.963 Y136.949 E.00627
;WIDTH:0.288589
G1 X100.964 Y136.95 E.00003
;WIDTH:0.288589
G1 X100.973 Y136.96 E.00028
;WIDTH:0.293142
G1 X101.091 Y137.078 E.00346
;WIDTH:0.293141
G1 X101.185 Y137.161 E.00261
;WIDTH:0.281207
G1 X101.196 Y137.169 E.00027
;WIDTH:0.287382
G1 X101.448 Y137.367 E.0065
;WIDTH:0.288373
G1 X101.458 Y137.375 E.00027
;WIDTH:0.288416
G1 X101.461 Y137.376 E.00006
;WIDTH:0.293581
G1 X101.629 Y137.476 E.00409
;WIDTH:0.293579
G1 X101.729 Y137.53 E.00237
;WIDTH:0.287186
G1 X101.743 Y137.537 E.00031
;WIDTH:0.291833
G1 X101.806 Y137.566 E.00145
;WIDTH:0.291834
G1 X102.027 Y137.653 E.00491
;WIDTH:0.278034
G1 X102.041 Y137.657 E.00028
;WIDTH:0.292325
G1 X102.251 Y137.725 E.00457
;WIDTH:0.292325
G1 X102.335 Y137.746 E.0018
;WIDTH:0.287144
G1 X102.35 Y137.749 E.00031
;WIDTH:0.292083
G1 X102.427 Y137.763 E.00162
;WIDTH:0.292084
G1 X102.654 Y137.792 E.00475
;WIDTH:0.277997
G1 X102.669 Y137.793 E.00028
;WIDTH:0.290947
G1 X102.878 Y137.806 E.00432
;WIDTH:0.290947
G1 X102.976 Y137.804 E.00202
;WIDTH:0.280733
G1 X102.99 Y137.803 E.00029
;WIDTH:0.285819
G1 X103.296 Y137.778 E.0062
;WIDTH:0.287024
G1 X103.311 Y137.776 E.0003
;WIDTH:0.287055
G1 X103.311 Y137.776 E0
;WIDTH:0.287057
G1 X103.611 Y137.706 E.00623
;WIDTH:0.28007
G1 X103.625 Y137.703 E.00029
;WIDTH:0.293085
G1 X103.751 Y137.665 E.00274
;WIDTH:0.293085
G1 X103.916 Y137.605 E.00365
;WIDTH:0.288512
G1 X103.92 Y137.603 E.0001
;WIDTH:0.28848
G1 X103.929 Y137.598 E.00021
;WIDTH:0.28775
G1 X104.203 Y137.458 E.00625
;WIDTH:0.279756
G1 X104.215 Y137.451 E.00029
;WIDTH:0.291341
G1 X104.319 Y137.389 E.00251
;WIDTH:0.291341
G1 X104.471 Y137.28 E.00384
;WIDTH:0.278171
G1 X104.482 Y137.272 E.00028
;WIDTH:0.291294
G1 X104.679 Y137.112 E.00522
;WIDTH:0.291294
G1 X104.719 Y137.075 E.00113
;WIDTH:0.287353
G1 X104.729 Y137.065 E.00031
;WIDTH:0.293773
G1 X104.819 Y136.971 E.0027
;WIDTH:0.293772
G1 X104.937 Y136.838 E.00371
;WIDTH:0.288474
G1 X104.946 Y136.826 E.00031
;WIDTH:0.289001
G1 X104.95 Y136.822 E.00012
;WIDTH:0.289004
G1 X105.12 Y136.573 E.00617
;WIDTH:0.279211
G1 X105.128 Y136.561 E.00029
;WIDTH:0.293172
G1 X105.208 Y136.426 E.00325
;WIDTH:0.293171
G1 X105.277 Y136.292 E.00314
;WIDTH:0.288221
G1 X105.283 Y136.278 E.00031
;WIDTH:0.289447
G1 X105.289 Y136.266 E.00029
;WIDTH:0.289446
G1 X105.39 Y135.99 E.00601
;WIDTH:0.278972
G1 X105.394 Y135.976 E.00029
;WIDTH:0.291531
G1 X105.436 Y135.837 E.00301
;WIDTH:0.291532
G1 X105.469 Y135.678 E.00335
;WIDTH:0.27858
G1 X105.472 Y135.664 E.00028
;WIDTH:0.290264
G1 X105.512 Y135.39 E.0057
;WIDTH:0.290264
G1 X105.514 Y135.36 E.00062
;WIDTH:0.2878
G1 X105.515 Y135.345 E.00031
;WIDTH:0.300274
G1 X105.521 Y135.038 E.00657
;WIDTH:0.301917
G1 X105.521 Y135.022 E.00034
;WIDTH:0.336707
G1 X105.506 Y134.664 E.00876
G1 X101.395 Y133.007 F9000
;WIDTH:0.336713
G1 F1200
G1 X101.198 Y133.189 E.00654
;WIDTH:0.312814
G1 X101.186 Y133.201 E.00037
G1 X128.702 Y97.469 F9000
;TYPE:Solid infill
;WIDTH:0.420379
G1 F953.746
G1 X135.653 Y104.42 E.30851
G1 X135.653 Y104.954 E.01675
G1 X125.881 Y95.182 E.43374
G1 X124.037 Y93.538 E.07752
G1 X123.704 Y93.538 E.01047
G1 X135.653 Y105.487 E.53038
G1 X135.653 Y106.021 E.01675
G1 X123.17 Y93.538 E.55408
G1 X122.636 Y93.538 E.01675
G1 X135.653 Y106.555 E.57777
G1 X135.653 Y107.089 E.01675
G1 X122.102 Y93.538 E.60146
G1 X121.569 Y93.538 E.01675
G1 X135.653 Y107.623 E.62516
G1 X135.653 Y108.156 E.01675
G1 X121.035 Y93.538 E.64885
G1 X120.501 Y93.538 E.01675
G1 X135.653 Y108.69 E.67254
G1 X135.653 Y109.224 E.01675
G1 X119.967 Y93.538 E.69624
G1 X119.433 Y93.538 E.01675
G1 X135.653 Y109.758 E.71993
G1 X135.653 Y110.292 E.01675
G1 X118.9 Y93.538 E.74362
G1 X118.366 Y93.538 E.01675
G1 X135.653 Y110.826 E.76732
G1 X135.653 Y111.359 E.01675
G1 X117.832 Y93.538 E.79101
G1 X117.298 Y93.538 E.01675
G1 X135.653 Y111.893 E.81471
G1 X135.653 Y112.427 E.01675
G1 X116.764 Y93.538 E.8384
G1 X116.231 Y93.538 E.01675
G1 X135.653 Y112.961 E.86209
G1 X135.653 Y113.495 E.01675
G1 X115.697 Y93.538 E.88579
G1 X115.163 Y93.538 E.01675
G1 X135.653 Y114.028 E.90948
G1 X135.653 Y114.562 E.01675
G1 X114.629 Y93.538 E.93317
G1 X114.095 Y93.538 E.01675
G1 X135.653 Y115.096 E.95687
G1 X135.653 Y115.63 E.01675
G1 X113.561 Y93.538 E.98056
G1 X113.028 Y93.538 E.01675
G1 X135.653 Y116.164 E1.00426
G1 X135.653 Y116.697 E.01675
G1 X112.494 Y93.538 E1.02795
G1 X111.96 Y93.538 E.01675
G1 X135.653 Y117.231 E1.05164
G1 X135.653 Y117.765 E.01675
G1 X111.426 Y93.538 E1.07534
G1 X110.892 Y93.538 E.01675
G1 X135.653 Y118.299 E1.09903
G1 X135.653 Y118.833 E.01675
G1 X110.359 Y93.538 E1.12272
G1 X109.825 Y93.538 E.01675
G1 X135.653 Y119.366 E1.14642
G1 X135.653 Y119.9 E.01675
G1 X109.291 Y93.538 E1.17011
G1 X108.757 Y93.538 E.01675
G1 X135.653 Y120.434 E1.19381
G1 X135.653 Y120.968 E.01675
G1 X108.223 Y93.538 E1.2175
G1 X107.69 Y93.538 E.01675
G1 X135.653 Y121.502 E1.24119
G1 X135.653 Y122.035 E.01675
G1 X107.156 Y93.538 E1.26489
G1 X106.622 Y93.538 E.01675
G1 X135.653 Y122.569 E1.28858
G1 X135.653 Y123.103 E.01675
G1 X106.088 Y93.538 E1.31227
G1 X105.554 Y93.538 E.01675
G1 X135.653 Y123.637 E1.33597
G1 X135.397 Y123.915 E.01186
G1 X105.188 Y93.706 E1.34086
G1 X104.906 Y93.958 E.01187
G1 X135.135 Y124.186 E1.34174
G1 X134.873 Y124.458 E.01185
G1 X104.624 Y94.21 E1.34261
G1 X104.343 Y94.462 E.01187
G1 X134.611 Y124.73 E1.34349
G1 X134.349 Y125.002 E.01185
G1 X104.061 Y94.714 E1.34437
G1 X103.779 Y94.966 E.01187
G1 X134.087 Y125.273 E1.34525
G1 X133.824 Y125.545 E.01185
G1 X103.497 Y95.218 E1.34612
G1 X103.215 Y95.47 E.01187
G1 X133.562 Y125.817 E1.347
G1 X133.3 Y126.089 E.01185
G1 X102.933 Y95.722 E1.34788
G1 X102.652 Y95.974 E.01187
G1 X133.038 Y126.36 E1.34875
G1 X132.776 Y126.632 E.01185
G1 X102.37 Y96.226 E1.34963
G1 X102.088 Y96.478 E.01187
G1 X132.514 Y126.904 E1.35051
G1 X132.252 Y127.175 E.01185
G1 X101.806 Y96.73 E1.35138
G1 X101.524 Y96.982 E.01187
G1 X131.99 Y127.447 E1.35226
G1 X131.728 Y127.719 E.01185
G1 X101.243 Y97.233 E1.35314
G1 X100.961 Y97.485 E.01187
G1 X131.466 Y127.991 E1.35401
G1 X131.204 Y128.262 E.01185
G1 X100.679 Y97.737 E1.35489
G1 X100.397 Y97.989 E.01187
G1 X130.942 Y128.534 E1.35577
G1 X130.68 Y128.806 E.01185
G1 X100.115 Y98.241 E1.35665
G1 X99.833 Y98.493 E.01187
G1 X130.418 Y129.078 E1.35752
G1 X130.156 Y129.349 E.01185
G1 X99.552 Y98.745 E1.3584
G1 X99.27 Y98.997 E.01187
G1 X129.894 Y129.621 E1.35928
G1 X129.632 Y129.893 E.01185
G1 X98.988 Y99.249 E1.36015
G1 X98.706 Y99.501 E.01187
G1 X129.369 Y130.165 E1.36103
